( Made using CamBam - http://www.cambam.co.uk )
( adsr_w_state_leds_panel 12/30/2014 9:25:27 PM )
( T3 : 3.175 )
( T10 : 0.0 )
G21 G90 G61 G40
G0 Z3.0
( T10 : 0.0 )
T10 M6
( Engrave1 )
G17
M3 S1000
G0 X35.3636 Y90.0622
G0 Z0.408
G1 F1000.0 Z-0.002
G1 F2000.0 X32.6109
G1 X35.3636
G0 Z3.0
G0 Y86.6292
G0 Z0.408
G1 F1000.0 Z-0.002
G1 F2000.0 Y90.9798
G3 X35.243 Y91.9073 I-3.3191 J0.0399
G3 X34.7993 Y92.7306 I-2.0449 J-0.5707
G3 X34.1172 Y93.2198 I-1.3567 J-1.1718
G3 X33.2911 Y93.3687 I-0.7941 J-2.0392
G3 X32.4421 Y93.1999 I-0.025 J-2.0946
G3 X31.7882 Y92.7148 I0.7113 J-1.642
G3 X31.3663 Y91.9659 I1.745 J-1.4764
G3 X31.2187 Y90.9798 I2.9388 J-0.9441
G1 Y86.6292
G1 Y90.9798
G2 X31.3663 Y91.9659 I3.0866 J0.042
G2 X31.7882 Y92.7148 I2.1669 J-0.7275
G2 X32.4421 Y93.1999 I1.3652 J-1.1568
G2 X33.2911 Y93.3687 I0.824 J-1.9257
G2 X34.1172 Y93.2198 I0.032 J-2.1881
G2 X34.7993 Y92.7306 I-0.6746 J-1.6609
G2 X35.243 Y91.9073 I-1.6013 J-1.394
G2 X35.3636 Y90.9798 I-3.1984 J-0.8875
G1 Y86.6292
G0 Z3.0
G0 X34.3056 Y99.0836
G0 Z0.408
G1 F1000.0 Z-0.002
G2 F2000.0 X34.1147 Y99.0777 I-0.15 J1.7658
G2 X33.3729 Y99.1761 I0.0436 J3.1728
G3 X34.1147 Y99.0777 I0.7854 J3.074
G3 X34.7967 Y99.1972 I0.041 J1.7719
G3 X35.2643 Y99.5207 I-0.4477 J1.1469
G3 X35.5314 Y99.9988 I-0.9425 J0.8404
G3 X35.6193 Y100.5824 I-1.8142 J0.5716
G1 Y102.1574
G3 X35.5104 Y102.7304 I-1.7279 J-0.0317
G3 X35.2291 Y103.2015 I-1.3205 J-0.4689
G3 X34.7932 Y103.5249 I-0.9807 J-0.8663
G3 X34.2236 Y103.6445 I-0.5493 J-1.2006
G3 X33.6471 Y103.539 I-0.0131 J-1.5572
G3 X33.1865 Y103.2332 I0.4665 J-1.2022
G3 X32.8807 Y102.7445 I1.0204 J-0.9787
G3 X32.7682 Y102.0871 I1.7089 J-0.6308
G3 X32.8877 Y101.4859 I1.4599 J-0.0222
G3 X33.2041 Y101.0324 I1.3342 J0.5937
G3 X33.6717 Y100.7441 I0.9429 J1.006
G3 X34.2447 Y100.6457 I0.564 J1.5658
G3 X34.7334 Y100.73 I0.0033 J1.4384
G2 X34.2447 Y100.6457 I-0.4854 J1.3538
G2 X33.6717 Y100.7441 I-0.0091 J1.6641
G2 X33.2041 Y101.0324 I0.4752 J1.2941
G2 X32.8877 Y101.4859 I1.0178 J1.0472
G2 X32.7682 Y102.0871 I1.3403 J0.579
G2 X32.8807 Y102.7445 I1.8216 J0.0266
G2 X33.1865 Y103.2332 I1.3263 J-0.4901
G2 X33.6471 Y103.539 I0.9271 J-0.8963
G2 X34.2236 Y103.6445 I0.5635 J-1.4518
G2 X34.7932 Y103.5249 I0.0203 J-1.3201
G2 X35.2291 Y103.2015 I-0.5447 J-1.1896
G2 X35.5104 Y102.7304 I-1.0392 J-0.9399
G2 X35.6193 Y102.1574 I-1.6191 J-0.6048
G1 Y100.5824
G2 X35.5314 Y99.9988 I-1.9021 J-0.012
G2 X35.2643 Y99.5207 I-1.2097 J0.3623
G2 X34.7967 Y99.1972 I-0.9153 J0.8235
G2 X34.3056 Y99.0836 I-0.641 J1.6522
G0 Z3.0
G0 X31.2213 Y100.7335
G0 Z0.408
G1 F1000.0 Z-0.002
G1 F2000.0 Y103.5531
G1 Y100.7335
G0 Z3.0
G0 X28.8553 Y102.0835
G0 Z0.408
G1 F1000.0 Z-0.002
G2 F2000.0 X28.9361 Y102.7656 I2.5467 J0.0439
G2 X29.1647 Y103.2332 I1.3439 J-0.3672
G2 X29.5022 Y103.5074 I0.7457 J-0.5729
G2 X29.9205 Y103.6339 I0.6034 J-1.2398
G3 X29.5022 Y103.5074 I0.185 J-1.3663
G3 X29.1647 Y103.2332 I0.4082 J-0.8472
G3 X28.9361 Y102.7656 I1.1152 J-0.8347
G3 X28.8553 Y102.0835 I2.4654 J-0.6381
G1 Y100.73
G1 Y102.0835
G0 Z3.0
G0 Y103.5531
G0 Z0.408
G1 F1000.0 Z-0.002
G1 F2000.0 Y100.7335
G1 Y103.5531
G0 Z3.0
G0 X27.8041 Y103.5707
G0 Z0.408
G1 F1000.0 Z-0.002
G1 F2000.0 X26.5631
G1 X27.8041
G0 Z3.0
G0 X27.3119 Y100.7335
G0 Z0.408
G1 F1000.0 Z-0.002
G2 F2000.0 X27.0223 Y100.7707 I-0.012 J1.0546
G2 X26.7635 Y100.9058 I0.1828 J0.6655
G2 X26.6008 Y101.1799 I0.3668 J0.4031
G2 X26.5631 Y101.4964 I1.1575 J0.2983
G1 Y104.4214
G1 Y101.4964
G3 X26.6008 Y101.1799 I1.1949 J-0.0183
G3 X26.7635 Y100.9058 I0.5295 J0.129
G3 X27.0223 Y100.7707 I0.4416 J0.5303
G3 X27.3119 Y100.7335 I0.2777 J1.0175
G1 X27.8041
G1 X27.3119
G0 Z3.0
G0 X31.1765 Y104.5957
G0 Z0.408
G1 F1000.0 Z-0.002
G2 F2000.0 X31.1721 Y104.6007 I0.0394 J0.0394
G2 X31.158 Y104.6429 I0.0619 J0.0441
G2 X31.2213 Y104.7097 I0.0568 J0.0096
G2 X31.2881 Y104.6429 I0.0083 J-0.0584
G2 X31.2705 Y104.6007 I-0.0667 J0.003
G2 X31.2213 Y104.5796 I-0.0439 J0.0344
G2 X31.1765 Y104.5957 I-0.0054 J0.0555
G2 X31.1721 Y104.6007 I0.0394 J0.0394
G2 X31.158 Y104.6429 I0.0619 J0.0441
G2 X31.2213 Y104.7097 I0.0568 J0.0096
G2 X31.2881 Y104.6429 I0.0083 J-0.0584
G2 X31.2705 Y104.6007 I-0.0667 J0.003
G2 X31.2213 Y104.5796 I-0.0439 J0.0344
G2 X31.1765 Y104.5957 I-0.0054 J0.0555
G3 X31.2213 Y104.5796 I0.0394 J0.0394
G3 X31.2705 Y104.6007 I0.0054 J0.0555
G3 X31.2881 Y104.6429 I-0.0491 J0.0452
G3 X31.2213 Y104.7097 I-0.0584 J0.0083
G3 X31.158 Y104.6429 I-0.0065 J-0.0572
G3 X31.1721 Y104.6007 I0.0759 J0.0019
G3 X31.1765 Y104.5957 I0.0439 J0.0344
G3 X31.2213 Y104.5796 I0.0394 J0.0394
G3 X31.2705 Y104.6007 I0.0054 J0.0555
G3 X31.2881 Y104.6429 I-0.0491 J0.0452
G3 X31.2213 Y104.7097 I-0.0584 J0.0083
G3 X31.158 Y104.6429 I-0.0065 J-0.0572
G3 X31.1721 Y104.6007 I0.0759 J0.0019
G3 X31.1765 Y104.5957 I0.0439 J0.0344
G0 Z3.0
G0 X32.7489 Y119.74
G0 Z0.408
G1 F1000.0 Z-0.002
G1 F2000.0 X31.9816 Y120.9463
G3 X31.4279 Y121.7452 I-9.6541 J-6.0996
G3 X31.2472 Y121.9543 I-2.1187 J-1.6482
G3 X31.0363 Y122.1328 I-0.889 J-0.8363
G3 X30.6883 Y122.2871 I-0.6251 J-0.9406
G3 X30.2611 Y122.3148 I-0.3732 J-2.4495
G1 X29.3712
G1 Y119.74
G1 X28.6039
G1 Y125.5381
G1 X31.1747
G2 X31.7708 Y125.5091 I0.0294 J-5.5273
G2 X32.3534 Y125.3799 I-0.2129 J-2.3387
G2 X32.998 Y124.8302 I-0.461 J-1.1935
G2 X33.2393 Y123.9561 I-1.4049 J-0.8581
G2 X33.1428 Y123.3964 I-1.579 J-0.0159
G2 X32.8398 Y122.9159 I-1.3357 J0.5065
G2 X32.268 Y122.5434 I-1.1226 J1.0981
G2 X31.6058 Y122.378 I-1.021 J2.68
G2 X32.0686 Y122.0893 I-0.8403 J-1.862
G2 X32.7054 Y121.3181 I-2.746 J-2.9157
G1 X33.7139 Y119.74
G1 X32.7489
G0 Z3.0
G0 X31.775 Y123.0646
G0 Z0.408
G1 F1000.0 Z-0.002
G3 F2000.0 X31.8432 Y123.086 I-0.5088 J1.7368
G3 X32.294 Y123.434 I-0.2903 J0.8422
G3 X32.4483 Y123.9561 I-0.7968 J0.5192
G3 X32.1477 Y124.6324 I-0.8612 J0.0222
G3 X31.7003 Y124.8475 I-0.6463 J-0.7714
G3 X31.2064 Y124.8974 I-0.4673 J-2.1563
G1 X29.3712
G1 Y122.9792
G1 X31.0205
G3 X31.4361 Y122.9996 I0.019 J3.8645
G3 X31.775 Y123.0646 I-0.1699 J1.8018
G0 Z3.0
G0 X27.4864 Y121.8071
G0 Z0.408
G1 F1000.0 Z-0.002
G2 F2000.0 X27.544 Y121.3774 I-1.3747 J-0.4031
G2 X27.279 Y120.5033 I-1.5874 J0.004
G2 X26.5157 Y119.8666 I-1.466 J0.9815
G2 X25.4003 Y119.6411 I-1.0735 J2.4393
G2 X24.7284 Y119.6899 I-0.0234 J4.3313
G2 X24.0793 Y119.8705 I0.3991 J2.6903
G2 X23.2448 Y120.5587 I0.7191 J1.7221
G2 X22.9284 Y121.6028 I1.6612 J1.0734
G1 X23.6522 Y121.6661
G3 X23.7292 Y121.2944 I2.0337 J0.2277
G3 X23.8895 Y120.9503 I1.2988 J0.3954
G3 X24.1507 Y120.684 I0.9222 J0.6436
G3 X24.4748 Y120.4994 I0.9891 J1.3595
G3 X25.3647 Y120.3293 I0.8562 J2.0669
G3 X26.1399 Y120.4598 I0.0378 J2.1429
G3 X26.4149 Y120.6017 I-0.48 J1.2677
G3 X26.6383 Y120.8158 I-0.4962 J0.7413
G3 X26.8044 Y121.3141 I-0.6664 J0.499
G3 X26.6462 Y121.7887 I-0.7467 J0.0148
G3 X26.4082 Y121.9957 I-0.6903 J-0.5534
G3 X26.1241 Y122.1328 I-0.8648 J-1.4289
G3 X25.6112 Y122.2852 I-1.8928 J-5.4306
G3 X25.0918 Y122.4136 I-6.562 J-25.4276
G2 X24.5228 Y122.5668 I2.4313 J10.1638
G2 X23.9725 Y122.7775 I0.9225 J3.2337
G2 X23.627 Y123.0059 I0.8783 J1.7041
G2 X23.3516 Y123.3154 I0.8804 J1.0608
G2 X23.1499 Y124.0392 I1.1413 J0.7081
G2 X23.3991 Y124.8579 I1.4644 J0.0016
G2 X24.1268 Y125.4393 I1.2813 J-0.8577
G2 X25.1907 Y125.637 I1.0277 J-2.5683
G2 X25.7689 Y125.5896 I0.015 J-3.3677
G2 X26.3258 Y125.4274 I-0.4192 J-2.4763
G2 X27.0852 Y124.8183 I-0.5934 J-1.5177
G2 X27.37 Y123.9047 I-1.4704 J-0.9595
G1 X26.6343 Y123.8493
G3 X26.5163 Y124.3053 I-1.4795 J-0.1397
G3 X26.2309 Y124.6799 I-0.9331 J-0.4148
G3 X25.7504 Y124.9055 I-0.7258 J-0.9212
G3 X25.2224 Y124.9607 I-0.5018 J-2.2482
G3 X24.6936 Y124.9133 I-0.0284 J-2.6529
G3 X24.2059 Y124.7036 I0.1972 J-1.1309
G3 X23.9744 Y124.4349 I0.5419 J-0.7008
G3 X23.8895 Y124.0906 I0.6301 J-0.3381
G3 X24.1149 Y123.5764 I0.6592 J-0.0175
G3 X24.3832 Y123.4226 I0.6274 J0.7834
G3 X24.8214 Y123.2746 I1.4791 J3.6549
G3 X25.2698 Y123.1611 I2.4805 J8.8644
G2 X25.9199 Y123.0031 I-3.4725 J-15.7053
G2 X26.5552 Y122.7933 I-1.1303 J-4.4889
G2 X26.9698 Y122.5481 I-0.904 J-2.0017
G2 X27.3027 Y122.2001 I-0.8823 J-1.1772
G2 X27.4864 Y121.8071 I-1.191 J-0.796
G0 Z3.0
G0 X22.1191 Y122.2653
G0 Z0.408
G1 F1000.0 Z-0.002
G2 F2000.0 X21.9792 Y121.5 I-4.0588 J0.3465
G2 X21.5837 Y120.6536 I-2.7838 J0.7852
G2 X21.0537 Y120.1276 I-1.7476 J1.2308
G2 X20.3616 Y119.8389 I-1.1675 J1.8248
G2 X19.4321 Y119.74 I-0.8799 J3.8531
G1 X17.3399
G1 Y125.5381
G1 X19.3372
G2 X19.8555 Y125.5231 I0.0255 J-8.0345
G2 X20.3695 Y125.4551 I-0.1768 J-3.3145
G2 X21.2198 Y125.0398 I-0.4125 J-1.9228
G2 X21.904 Y124.0471 I-1.5225 J-1.7815
G2 X22.0814 Y123.3693 I-3.1548 J-1.1879
G2 X22.1334 Y122.6707 I-4.4371 J-0.6814
G2 X22.1191 Y122.2653 I-4.0731 J-0.0589
G0 Z3.0
G0 X21.3298 Y122.3244
G0 Z0.408
G1 F1000.0 Z-0.002
G3 F2000.0 X21.3424 Y122.6826 I-4.5402 J0.3398
G3 X21.2843 Y123.4005 I-4.0422 J0.0343
G3 X21.0418 Y124.0787 I-1.9406 J-0.3115
G3 X20.7348 Y124.4675 I-1.5913 J-0.9412
G3 X20.3181 Y124.7353 I-0.8874 J-0.9228
G3 X19.8264 Y124.8337 I-0.6261 J-1.8506
G3 X19.3253 Y124.8539 I-0.4738 J-5.5194
G1 X18.1072
G1 Y120.4242
G1 X19.3451
G3 X19.7979 Y120.4445 I0.0206 J4.5982
G3 X20.2429 Y120.531 I-0.1834 J2.132
G3 X20.765 Y120.8316 I-0.3678 J1.2425
G3 X21.0195 Y121.1726 I-1.1039 J1.0895
G3 X21.1882 Y121.5633 I-1.9283 J1.064
G3 X21.3094 Y122.1169 I-2.7615 J0.895
G3 X21.3298 Y122.3244 I-4.5199 J0.5473
G0 Z3.0
G0 X16.4779 Y120.3386
G0 Z0.408
G1 F1000.0 Z-0.002
G1 F2000.0 X16.7229 Y119.74
G1 X15.8488
G1 X15.1725 Y121.4961
G1 X12.748
G1 X12.1113 Y119.74
G1 X11.2965
G1 X13.5232 Y125.5381
G1 X14.3498
G1 X16.4779 Y120.3386
G0 Z3.0
G0 X14.9352 Y122.121
G0 Z0.408
G1 F1000.0 Z-0.002
G1 F2000.0 X14.3301 Y123.7267
G2 X13.9187 Y124.9291 I15.1948 J5.8698
G2 X13.6063 Y123.8216 I-7.2479 J1.4471
G1 X12.9695 Y122.121
G1 X14.9352
G0 Z3.0
G0 X10.3334 Y104.579
G0 Z0.408
G1 F1000.0 Z-0.002
G1 F2000.0 Y101.654
G3 X10.3711 Y101.3375 I1.1949 J-0.0183
G3 X10.5338 Y101.0634 I0.5295 J0.129
G3 X10.7926 Y100.9283 I0.4416 J0.5303
G3 X11.0822 Y100.8911 I0.2777 J1.0175
G1 X11.5744
G1 X11.0822
G2 X10.7926 Y100.9283 I-0.012 J1.0546
G2 X10.5338 Y101.0634 I0.1828 J0.6655
G2 X10.3711 Y101.3375 I0.3668 J0.4031
G2 X10.3334 Y101.654 I1.1575 J0.2983
G1 Y104.579
G0 Z3.0
G0 Y103.7282
G0 Z0.408
G1 F1000.0 Z-0.002
G1 F2000.0 X11.5744
G1 X10.3334
G0 Z3.0
G0 X8.094 Y100.9404
G0 Z0.408
G1 F1000.0 Z-0.002
G2 F2000.0 X7.5561 Y100.8032 I-0.5083 J0.8703
G2 X6.9654 Y100.9157 I-0.0155 J1.5254
G2 X6.5014 Y101.2286 I0.5407 J1.3025
G2 X6.199 Y101.7068 I1.0795 J1.0173
G2 X6.0936 Y102.3185 I1.6078 J0.5922
G2 X6.199 Y102.9196 I1.6468 J0.0209
G2 X6.5014 Y103.3907 I1.3087 J-0.5074
G2 X6.9654 Y103.7036 I1.0048 J-0.9897
G2 X7.5561 Y103.8161 I0.5751 J-1.4129
G2 X8.1326 Y103.7177 I0.0199 J-1.6211
G2 X8.5861 Y103.447 I-0.4734 J-1.3083
G2 X8.8815 Y103.0286 I-0.754 J-0.8456
G2 X8.9869 Y102.4907 I-1.2316 J-0.5208
G1 Y100.8911
G1 Y102.4907
G3 X8.8815 Y103.0286 I-1.337 J0.0171
G3 X8.5861 Y103.447 I-1.0493 J-0.4273
G3 X8.1326 Y103.7177 I-0.9268 J-1.0375
G3 X7.5561 Y103.8161 I-0.5567 J-1.5227
G3 X6.9654 Y103.7036 I-0.0155 J-1.5254
G3 X6.5014 Y103.3907 I0.5407 J-1.3025
G3 X6.199 Y102.9196 I1.0064 J-0.9784
G3 X6.0936 Y102.3185 I1.5414 J-0.5803
G3 X6.199 Y101.7068 I1.7131 J-0.0196
G3 X6.5014 Y101.2286 I1.3818 J0.5391
G3 X6.9654 Y100.9157 I1.0048 J0.9897
G3 X7.5561 Y100.8032 I0.5751 J1.4129
G3 X8.094 Y100.9404 I0.0296 J1.0074
G0 Z3.0
G0 X2.7361 Y99.3337
G0 Z0.408
G1 F1000.0 Z-0.002
G3 F2000.0 X3.4779 Y99.2353 I0.7854 J3.074
G3 X4.16 Y99.3548 I0.041 J1.7719
G3 X4.6275 Y99.6782 I-0.4477 J1.1469
G3 X4.8947 Y100.1564 I-0.9425 J0.8404
G3 X4.9826 Y100.74 I-1.8142 J0.5716
G1 Y102.315
G3 X4.8736 Y102.888 I-1.7279 J-0.0317
G3 X4.5924 Y103.3591 I-1.3205 J-0.4689
G3 X4.1565 Y103.6825 I-0.9807 J-0.8663
G3 X3.5869 Y103.8021 I-0.5493 J-1.2006
G3 X3.0104 Y103.6966 I-0.0131 J-1.5572
G3 X2.5498 Y103.3907 I0.4665 J-1.2022
G3 X2.244 Y102.9021 I1.0204 J-0.9787
G3 X2.1315 Y102.2446 I1.7089 J-0.6308
G3 X2.251 Y101.6435 I1.4599 J-0.0222
G3 X2.5674 Y101.19 I1.3342 J0.5937
G3 X3.035 Y100.9017 I0.9429 J1.006
G3 X3.608 Y100.8032 I0.564 J1.5658
G3 X4.0967 Y100.8876 I0.0033 J1.4384
G2 X3.608 Y100.8032 I-0.4854 J1.3538
G2 X3.035 Y100.9017 I-0.0091 J1.6641
G2 X2.5674 Y101.19 I0.4752 J1.2941
G2 X2.251 Y101.6435 I1.0178 J1.0472
G2 X2.1315 Y102.2446 I1.3403 J0.579
G2 X2.244 Y102.9021 I1.8216 J0.0266
G2 X2.5498 Y103.3907 I1.3263 J-0.4901
G2 X3.0104 Y103.6966 I0.9271 J-0.8963
G2 X3.5869 Y103.8021 I0.5635 J-1.4518
G2 X4.1565 Y103.6825 I0.0203 J-1.3201
G2 X4.5924 Y103.3591 I-0.5447 J-1.1896
G2 X4.8736 Y102.888 I-1.0392 J-0.9399
G2 X4.9826 Y102.315 I-1.6191 J-0.6048
G1 Y100.74
G2 X4.8947 Y100.1564 I-1.9021 J-0.012
G2 X4.6275 Y99.6782 I-1.2097 J0.3623
G2 X4.16 Y99.3548 I-0.9153 J0.8235
G2 X3.4779 Y99.2353 I-0.641 J1.6522
G2 X2.7361 Y99.3337 I0.0436 J3.1728
G0 Z3.0
G0 X12.5821 Y101.8806
G0 Z0.408
G1 F1000.0 Z-0.002
G2 F2000.0 X12.5307 Y102.3044 I1.5657 J0.405
G2 X12.6432 Y102.9091 I1.581 J0.0187
G2 X12.949 Y103.3837 I1.3406 J-0.5281
G2 X13.4131 Y103.6931 I0.9492 J-0.921
G2 X14.0002 Y103.8021 I0.5728 J-1.4497
G2 X14.7666 Y103.6052 I0.0216 J-1.506
G2 X15.0449 Y103.3884 I-0.552 J-0.9955
G2 X15.2307 Y103.0884 I-0.6782 J-0.6275
G1 X13.4869 Y102.1216
G1 X15.2307 Y103.0884
G3 X14.7666 Y103.6052 I-0.9303 J-0.3686
G3 X14.0002 Y103.8021 I-0.7447 J-1.309
G3 X13.4131 Y103.6931 I-0.0143 J-1.5588
G3 X12.949 Y103.3837 I0.4851 J-1.2303
G3 X12.6432 Y102.9091 I1.0346 J-1.0026
G3 X12.5307 Y102.3044 I1.4683 J-0.586
G3 X12.6432 Y101.6927 I1.6173 J-0.0188
G3 X12.949 Y101.2181 I1.3831 J0.5555
G3 X13.4131 Y100.9122 I0.9573 J0.9475
G3 X14.0002 Y100.8068 I0.5723 J1.4992
G3 X14.4637 Y100.8671 I0.0131 J1.7098
G3 X14.8861 Y101.0669 I-0.3668 J1.322
G3 X15.2145 Y101.4087 I-0.7304 J1.0303
G3 X15.41 Y101.8404 I-1.3672 J0.8793
G2 X15.2145 Y101.4087 I-1.5631 J0.4478
G2 X14.8861 Y101.0669 I-1.0586 J0.6884
G2 X14.0002 Y100.8068 I-0.8457 J1.2414
G2 X13.4131 Y100.9122 I-0.0147 J1.6049
G2 X12.949 Y101.2181 I0.4932 J1.2533
G2 X12.6432 Y101.6927 I1.0771 J1.03
G2 X12.5821 Y101.8806 I1.5046 J0.5929
G0 Z3.0
G0 X11.591 Y72.0453
G0 Z0.408
G1 F1000.0 Z-0.002
G3 F2000.0 X12.7459 Y72.2721 I0.0018 J3.045
G3 X13.7478 Y72.926 I-1.1335 J2.8314
G3 X14.4544 Y73.9596 I-2.3136 J2.3401
G3 X14.7234 Y75.3518 I-3.1684 J1.3341
G3 X14.4544 Y76.7387 I-3.4226 J0.0558
G3 X13.7214 Y77.7723 I-2.7743 J-1.1908
G3 X12.6615 Y78.4262 I-2.1739 J-2.3378
G3 X11.4064 Y78.6582 I-1.24 J-3.1966
G1 X10.146
G1 Y72.0453
G1 Y78.6582
G1 X11.4064
G2 X12.6615 Y78.4262 I0.0151 J-3.4287
G2 X13.7214 Y77.7723 I-1.114 J-2.9917
G2 X14.4544 Y76.7387 I-2.0413 J-2.2244
G2 X14.7234 Y75.3518 I-3.1536 J-1.3311
G2 X14.4544 Y73.9596 I-3.4373 J-0.058
G2 X13.7478 Y72.926 I-3.0202 J1.3065
G2 X12.7459 Y72.2721 I-2.1354 J2.1775
G2 X11.591 Y72.0453 I-1.153 J2.8182
G1 X11.5593
G1 X11.591
G0 Z3.0
G0 X12.1589 Y50.7477
G0 Z0.408
G1 F1000.0 Z-0.002
G2 F2000.0 X12.2516 Y50.7486 I0.0748 J-2.805
G2 X13.0953 Y50.5963 I0.0329 J-2.2304
G2 X13.734 Y50.192 I-0.6906 J-1.7976
G2 X14.1324 Y49.6002 I-1.2286 J-1.2572
G2 X14.2789 Y48.8736 I-1.6697 J-0.7147
G2 X14.1315 Y48.084 I-2.0148 J-0.0323
G2 X13.6461 Y47.4439 I-1.5125 J0.6429
G2 X12.8504 Y47.0391 I-1.3487 J1.6665
G2 X11.9645 Y46.9283 I-0.8494 J3.1943
G1 X11.6129
G1 X12.3336
G2 X13.1378 Y46.8323 I0.0351 J-3.1224
G2 X13.8629 Y46.4713 I-0.4667 J-1.8459
G2 X14.309 Y45.8245 I-0.8808 J-1.0847
G2 X14.4254 Y45.0475 I-2.2614 J-0.736
G1 Y43.2604
G1 Y45.0475
G3 X14.309 Y45.8245 I-2.3778 J0.041
G3 X13.8629 Y46.4713 I-1.3269 J-0.438
G3 X13.1378 Y46.8323 I-1.1918 J-1.4851
G3 X12.3336 Y46.9283 I-0.7693 J-3.0274
G1 X11.6129
G1 X11.9645
G3 X12.8504 Y47.0391 I0.0364 J3.3057
G3 X13.6461 Y47.4439 I-0.5529 J2.0713
G3 X14.1315 Y48.084 I-1.0273 J1.283
G3 X14.2789 Y48.8736 I-1.8672 J0.7573
G3 X14.1324 Y49.6002 I-1.8163 J0.0119
G3 X13.734 Y50.192 I-1.6272 J-0.6655
G3 X13.0953 Y50.5963 I-1.3293 J-1.3933
G3 X12.2516 Y50.7486 I-0.8108 J-2.0778
G3 X11.7138 Y50.7001 I-0.0177 J-2.8078
G3 X11.2027 Y50.526 I0.3473 J-1.8564
G3 X10.5172 Y49.9576 I0.8876 J-1.7682
G3 X10.1422 Y49.2135 I1.8008 J-1.3741
G3 X10.0309 Y48.44 I2.7605 J-0.7921
G1 Y43.2604
G1 Y48.44
G2 X10.1422 Y49.2135 I2.8727 J-0.0188
G2 X10.5172 Y49.9576 I2.1759 J-0.63
G2 X11.2027 Y50.526 I1.5732 J-1.2
G2 X11.7138 Y50.7001 I0.8584 J-1.6824
G2 X12.1589 Y50.7477 I0.5199 J-2.7574
G0 Z3.0
G0 X16.0429 Y38.065
G0 Z0.408
G1 F1000.0 Z-0.002
G1 F2000.0 Y33.6564
G1 Y38.065
G0 Z3.0
G0 X17.8305 Y36.1889
G0 Z0.408
G1 F1000.0 Z-0.002
G3 F2000.0 X17.7937 Y36.1525 I0.9123 J-0.9574
G3 X17.4914 Y35.6779 I1.0024 J-0.9721
G3 X17.3824 Y35.0732 I1.5171 J-0.5856
G3 X17.4914 Y34.4615 I1.6636 J-0.0192
G3 X17.7937 Y33.9868 I1.3447 J0.523
G3 X18.2578 Y33.681 I0.9573 J0.9475
G3 X18.8449 Y33.5755 I0.5723 J1.4992
G3 X19.432 Y33.681 I0.0147 J1.6049
G3 X19.896 Y33.9868 I-0.4932 J1.2533
G3 X20.1984 Y34.4615 I-1.0423 J0.9976
G3 X20.3074 Y35.0732 I-1.5545 J0.5925
G3 X20.1984 Y35.6779 I-1.626 J0.0191
G3 X19.896 Y36.1525 I-1.3048 J-0.4976
G3 X19.432 Y36.4618 I-0.9492 J-0.921
G3 X18.8449 Y36.5708 I-0.5728 J-1.4497
G3 X18.2578 Y36.4618 I-0.0143 J-1.5588
G3 X17.8305 Y36.1889 I0.4851 J-1.2303
G3 X17.7937 Y36.1525 I0.9123 J-0.9574
G3 X17.4914 Y35.6779 I1.0024 J-0.9721
G3 X17.3824 Y35.0732 I1.5171 J-0.5856
G3 X17.4914 Y34.4615 I1.6636 J-0.0192
G3 X17.7937 Y33.9868 I1.3447 J0.523
G3 X18.2578 Y33.681 I0.9573 J0.9475
G3 X18.8449 Y33.5755 I0.5723 J1.4992
G3 X19.432 Y33.681 I0.0147 J1.6049
G3 X19.896 Y33.9868 I-0.4932 J1.2533
G3 X20.1984 Y34.4615 I-1.0423 J0.9976
G3 X20.3074 Y35.0732 I-1.5545 J0.5925
G3 X20.1984 Y35.6779 I-1.626 J0.0191
G3 X19.896 Y36.1525 I-1.3048 J-0.4976
G3 X19.432 Y36.4618 I-0.9492 J-0.921
G3 X18.8449 Y36.5708 I-0.5728 J-1.4497
G3 X18.2578 Y36.4618 I-0.0143 J-1.5588
G3 X17.8305 Y36.1889 I0.4851 J-1.2303
G2 X18.2578 Y36.4618 I0.9124 J-0.9575
G2 X18.8449 Y36.5708 I0.5728 J-1.4497
G2 X19.432 Y36.4618 I0.0143 J-1.5588
G2 X19.896 Y36.1525 I-0.4851 J-1.2303
G2 X20.1984 Y35.6779 I-1.0024 J-0.9721
G2 X20.3074 Y35.0732 I-1.5171 J-0.5856
G2 X20.1984 Y34.4615 I-1.6636 J-0.0192
G2 X19.896 Y33.9868 I-1.3447 J0.523
G2 X19.432 Y33.681 I-0.9573 J0.9475
G2 X18.8449 Y33.5755 I-0.5723 J1.4992
G2 X18.2578 Y33.681 I-0.0147 J1.6049
G2 X17.7937 Y33.9868 I0.4932 J1.2533
G2 X17.4914 Y34.4615 I1.0423 J0.9976
G2 X17.3824 Y35.0732 I1.5545 J0.5925
G2 X17.4914 Y35.6779 I1.626 J0.0191
G2 X17.7937 Y36.1525 I1.3048 J-0.4976
G2 X17.8305 Y36.1889 I0.9492 J-0.921
G2 X18.2578 Y36.4618 I0.9124 J-0.9575
G2 X18.8449 Y36.5708 I0.5728 J-1.4497
G2 X19.432 Y36.4618 I0.0143 J-1.5588
G2 X19.896 Y36.1525 I-0.4851 J-1.2303
G2 X20.1984 Y35.6779 I-1.0024 J-0.9721
G2 X20.3074 Y35.0732 I-1.5171 J-0.5856
G2 X20.1984 Y34.4615 I-1.6636 J-0.0192
G2 X19.896 Y33.9868 I-1.3447 J0.523
G2 X19.432 Y33.681 I-0.9573 J0.9475
G2 X18.8449 Y33.5755 I-0.5723 J1.4992
G2 X18.2578 Y33.681 I-0.0147 J1.6049
G2 X17.7937 Y33.9868 I0.4932 J1.2533
G2 X17.4914 Y34.4615 I1.0423 J0.9976
G2 X17.3824 Y35.0732 I1.5545 J0.5925
G2 X17.4914 Y35.6779 I1.626 J0.0191
G2 X17.7937 Y36.1525 I1.3048 J-0.4976
G2 X17.8305 Y36.1889 I0.9492 J-0.921
G0 Z3.0
G0 X21.5074 Y35.5833
G0 Z0.408
G1 F1000.0 Z-0.002
G2 F2000.0 X21.5589 Y35.7939 I1.3944 J-0.2297
G2 X21.7804 Y36.1876 I1.1064 J-0.3632
G2 X22.1425 Y36.4689 I0.8832 J-0.7634
G2 X22.6488 Y36.5779 I0.483 J-1.0131
G2 X23.148 Y36.4689 I0.0232 J-1.0918
G2 X23.5101 Y36.1876 I-0.4888 J-1.003
G2 X23.7281 Y35.7939 I-0.9199 J-0.7664
G2 X23.8054 Y35.3579 I-1.2195 J-0.4412
G1 Y33.6599
G1 Y35.3579
G3 X23.7281 Y35.7939 I-1.2968 J-0.0053
G3 X23.5101 Y36.1876 I-1.1378 J-0.3726
G3 X23.148 Y36.4689 I-0.8509 J-0.7218
G3 X22.6488 Y36.5779 I-0.476 J-0.9827
G3 X22.1425 Y36.4689 I-0.0233 J-1.122
G3 X21.7804 Y36.1876 I0.521 J-1.0446
G3 X21.5589 Y35.7939 I0.885 J-0.757
G3 X21.4886 Y35.3579 I1.3432 J-0.4403
G1 Y33.6599
G1 Y35.3579
G2 X21.5074 Y35.5833 I1.4132 J-0.0043
G0 Z3.0
G0 X25.003 Y35.2255
G0 Z0.408
G1 F1000.0 Z-0.002
G3 F2000.0 X24.9937 Y35.0134 I1.8122 J-0.1855
G3 X25.1132 Y34.4122 I1.4599 J-0.0222
G3 X25.4296 Y33.9587 I1.3342 J0.5937
G3 X25.8972 Y33.6704 I0.9429 J1.006
G3 X26.4703 Y33.572 I0.564 J1.5658
G3 X26.9589 Y33.6564 I0.0033 J1.4384
G2 X26.4703 Y33.572 I-0.4854 J1.3538
G2 X25.8972 Y33.6704 I-0.0091 J1.6641
G2 X25.4296 Y33.9587 I0.4752 J1.2941
G2 X25.1132 Y34.4122 I1.0178 J1.0472
G2 X24.9937 Y35.0134 I1.3403 J0.579
G2 X25.1062 Y35.6708 I1.8216 J0.0266
G2 X25.4121 Y36.1595 I1.3263 J-0.4901
G2 X25.8726 Y36.4654 I0.9271 J-0.8963
G2 X26.4492 Y36.5708 I0.5635 J-1.4518
G2 X27.0187 Y36.4513 I0.0203 J-1.3201
G2 X27.4546 Y36.1279 I-0.5447 J-1.1896
G2 X27.7359 Y35.6568 I-1.0392 J-0.9399
G2 X27.8449 Y35.0837 I-1.6191 J-0.6048
G1 Y33.5087
G2 X27.757 Y32.9251 I-1.9021 J-0.012
G2 X27.4898 Y32.447 I-1.2097 J0.3623
G2 X27.0222 Y32.1236 I-0.9153 J0.8235
G2 X26.3402 Y32.004 I-0.641 J1.6522
G2 X25.5984 Y32.1025 I0.0436 J3.1728
G3 X26.3402 Y32.004 I0.7854 J3.074
G3 X27.0222 Y32.1236 I0.041 J1.7719
G3 X27.4898 Y32.447 I-0.4477 J1.1469
G3 X27.757 Y32.9251 I-0.9425 J0.8404
G3 X27.8449 Y33.5087 I-1.8142 J0.5716
G1 Y35.0837
G3 X27.7359 Y35.6568 I-1.7279 J-0.0317
G3 X27.4546 Y36.1279 I-1.3205 J-0.4689
G3 X27.0187 Y36.4513 I-0.9807 J-0.8663
G3 X26.4492 Y36.5708 I-0.5493 J-1.2006
G3 X25.8726 Y36.4654 I-0.0131 J-1.5572
G3 X25.4121 Y36.1595 I0.4665 J-1.2022
G3 X25.1062 Y35.6708 I1.0204 J-0.9787
G3 X25.003 Y35.2255 I1.7089 J-0.6308
G0 Z3.0
G0 X23.928 Y20.4855
G0 Z0.408
G1 F1000.0 Z-0.002
G1 F2000.0 Y17.5605
G3 X23.9657 Y17.244 I1.1949 J-0.0183
G3 X24.1284 Y16.9699 I0.5295 J0.129
G3 X24.3872 Y16.8347 I0.4416 J0.5303
G3 X24.6768 Y16.7976 I0.2777 J1.0175
G1 X25.169
G1 X24.6768
G2 X24.3872 Y16.8347 I-0.012 J1.0546
G2 X24.1284 Y16.9699 I0.1828 J0.6655
G2 X23.9657 Y17.244 I0.3668 J0.4031
G2 X23.928 Y17.5605 I1.1575 J0.2983
G1 Y20.4855
G0 Z3.0
G0 Y19.6347
G0 Z0.408
G1 F1000.0 Z-0.002
G1 F2000.0 X25.169
G1 X23.928
G0 Z3.0
G0 X22.5464 Y19.6207
G0 Z0.408
G1 F1000.0 Z-0.002
G1 F2000.0 Y17.9191
G2 X22.469 Y17.4867 I-1.2875 J0.0072
G2 X22.251 Y17.1 I-1.1472 J0.3918
G2 X21.8889 Y16.8187 I-0.8509 J0.7218
G2 X21.3862 Y16.7097 I-0.4781 J0.9915
G2 X20.88 Y16.8187 I-0.0233 J1.122
G2 X20.5178 Y17.1 I0.521 J1.0446
G2 X20.2999 Y17.4867 I0.8558 J0.7372
G2 X20.2296 Y17.9191 I1.3327 J0.4386
G1 Y19.6207
G1 Y17.9191
G3 X20.2999 Y17.4867 I1.4032 J0.0062
G3 X20.5178 Y17.1 I1.0738 J0.3504
G3 X20.88 Y16.8187 I0.8832 J0.7634
G3 X21.3862 Y16.7097 I0.483 J1.0131
G3 X21.8889 Y16.8187 I0.0246 J1.1006
G3 X22.251 Y17.1 I-0.4888 J1.003
G3 X22.469 Y17.4867 I-0.9294 J0.7786
G3 X22.5464 Y17.9191 I-1.2103 J0.4396
G1 Y19.6207
G0 Z3.0
G0 X18.9917 Y18.6559
G0 Z0.408
G1 F1000.0 Z-0.002
G3 F2000.0 X18.9393 Y18.8156 I-1.5694 J-0.4259
G3 X18.637 Y19.2902 I-1.3048 J-0.4976
G3 X18.1729 Y19.5996 I-0.9492 J-0.921
G3 X17.5858 Y19.7086 I-0.5728 J-1.4497
G3 X16.9987 Y19.5996 I-0.0143 J-1.5588
G3 X16.5346 Y19.2902 I0.4851 J-1.2303
G3 X16.2323 Y18.8156 I1.0024 J-0.9721
G3 X16.1233 Y18.2109 I1.5171 J-0.5856
G3 X16.2323 Y17.5992 I1.6636 J-0.0192
G3 X16.5346 Y17.1246 I1.3447 J0.523
G3 X16.9987 Y16.8187 I0.9573 J0.9475
G3 X17.5858 Y16.7132 I0.5723 J1.4992
G3 X18.1729 Y16.8187 I0.0147 J1.6049
G3 X18.637 Y17.1246 I-0.4932 J1.2533
G3 X18.9393 Y17.5992 I-1.0423 J0.9976
G3 X19.0483 Y18.2109 I-1.5545 J0.5925
G3 X18.9917 Y18.6559 I-1.626 J0.0191
G3 X18.9393 Y18.8156 I-1.5694 J-0.4259
G3 X18.637 Y19.2902 I-1.3048 J-0.4976
G3 X18.1729 Y19.5996 I-0.9492 J-0.921
G3 X17.5858 Y19.7086 I-0.5728 J-1.4497
G3 X16.9987 Y19.5996 I-0.0143 J-1.5588
G3 X16.5346 Y19.2902 I0.4851 J-1.2303
G3 X16.2323 Y18.8156 I1.0024 J-0.9721
G3 X16.1233 Y18.2109 I1.5171 J-0.5856
G3 X16.2323 Y17.5992 I1.6636 J-0.0192
G3 X16.5346 Y17.1246 I1.3447 J0.523
G3 X16.9987 Y16.8187 I0.9573 J0.9475
G3 X17.5858 Y16.7132 I0.5723 J1.4992
G3 X18.1729 Y16.8187 I0.0147 J1.6049
G3 X18.637 Y17.1246 I-0.4932 J1.2533
G3 X18.9393 Y17.5992 I-1.0423 J0.9976
G3 X19.0483 Y18.2109 I-1.5545 J0.5925
G3 X18.9917 Y18.6559 I-1.626 J0.0191
G2 X19.0483 Y18.2109 I-1.5694 J-0.4259
G2 X18.9393 Y17.5992 I-1.6636 J-0.0192
G2 X18.637 Y17.1246 I-1.3447 J0.523
G2 X18.1729 Y16.8187 I-0.9573 J0.9475
G2 X17.5858 Y16.7132 I-0.5723 J1.4992
G2 X16.9987 Y16.8187 I-0.0147 J1.6049
G2 X16.5346 Y17.1246 I0.4932 J1.2533
G2 X16.2323 Y17.5992 I1.0423 J0.9976
G2 X16.1233 Y18.2109 I1.5545 J0.5925
G2 X16.2323 Y18.8156 I1.626 J0.0191
G2 X16.5346 Y19.2902 I1.3048 J-0.4976
G2 X16.9987 Y19.5996 I0.9492 J-0.921
G2 X17.5858 Y19.7086 I0.5728 J-1.4497
G2 X18.1729 Y19.5996 I0.0143 J-1.5588
G2 X18.637 Y19.2902 I-0.4851 J-1.2303
G2 X18.9393 Y18.8156 I-1.0024 J-0.9721
G2 X18.9917 Y18.6559 I-1.5171 J-0.5856
G2 X19.0483 Y18.2109 I-1.5694 J-0.4259
G2 X18.9393 Y17.5992 I-1.6636 J-0.0192
G2 X18.637 Y17.1246 I-1.3447 J0.523
G2 X18.1729 Y16.8187 I-0.9573 J0.9475
G2 X17.5858 Y16.7132 I-0.5723 J1.4992
G2 X16.9987 Y16.8187 I-0.0147 J1.6049
G2 X16.5346 Y17.1246 I0.4932 J1.2533
G2 X16.2323 Y17.5992 I1.0423 J0.9976
G2 X16.1233 Y18.2109 I1.5545 J0.5925
G2 X16.2323 Y18.8156 I1.626 J0.0191
G2 X16.5346 Y19.2902 I1.3048 J-0.4976
G2 X16.9987 Y19.5996 I0.9492 J-0.921
G2 X17.5858 Y19.7086 I0.5728 J-1.4497
G2 X18.1729 Y19.5996 I0.0143 J-1.5588
G2 X18.637 Y19.2902 I-0.4851 J-1.2303
G2 X18.9393 Y18.8156 I-1.0024 J-0.9721
G2 X18.9917 Y18.6559 I-1.5171 J-0.5856
G0 Z3.0
G0 X31.453 Y57.5337
G0 Z0.408
G1 F1000.0 Z-0.002
G1 F2000.0 X33.6678
G3 X34.298 Y57.6116 I0.0231 J2.4013
G3 X34.8702 Y57.887 I-0.4258 J1.6164
G3 X35.2421 Y58.4057 I-0.6768 J0.878
G3 X35.3395 Y59.0366 I-1.7758 J0.597
G3 X35.2752 Y59.4835 I-1.4832 J0.0146
G3 X35.06 Y59.8804 I-1.1128 J-0.3465
G3 X34.3586 Y60.4763 I-2.0474 J-1.699
G3 X33.4358 Y60.935 I-3.5019 J-5.8865
G2 X32.5182 Y61.3833 I3.0305 J7.3669
G2 X31.8168 Y61.9423 I1.432 J2.5163
G2 X31.5373 Y62.7386 I0.893 J0.7606
G2 X31.5953 Y63.1974 I1.9803 J-0.0173
G2 X31.8168 Y63.6509 I1.2538 J-0.3315
G2 X32.2703 Y64.0042 I0.9888 J-0.8014
G2 X32.6475 Y64.1174 I0.5832 J-1.2578
G2 X33.0403 Y64.1466 I0.3769 J-2.4181
G1 X35.0389
G1 X33.0403
G3 X32.6475 Y64.1174 I-0.0156 J-2.4505
G3 X32.2703 Y64.0042 I0.2061 J-1.3713
G3 X31.8168 Y63.6509 I0.5353 J-1.1549
G3 X31.5953 Y63.1974 I1.0322 J-0.7849
G3 X31.5373 Y62.7386 I1.9228 J-0.4762
G3 X31.8168 Y61.9423 I1.1725 J-0.0356
G3 X32.5182 Y61.3833 I2.1333 J1.9572
G3 X33.4358 Y60.935 I3.9472 J6.9169
G2 X34.3586 Y60.4763 I-2.5774 J-6.342
G2 X35.06 Y59.8804 I-1.346 J-2.295
G2 X35.3395 Y59.0366 I-1.0023 J-0.8002
G2 X35.2421 Y58.4057 I-1.8732 J-0.0338
G2 X34.8702 Y57.887 I-1.0487 J0.3593
G2 X34.298 Y57.6116 I-0.9978 J1.3407
G2 X33.6678 Y57.5337 I-0.6072 J2.3242
G1 X31.453
( mounting )
G0 Z3.0
( T3 : 3.175 )
T3 M6
M3 S1000
G0 X7.5 Y3.0
G0 Z3.0
G0 X7.5125 Y3.0
G0 Z0.01
G1 F1000.0 Z0.0
G2 F2000.0 X7.4938 Y2.9892 Z-0.0333 I-0.0125 J0.0
G2 Y3.0108 Z-0.0667 I0.0062 J0.0108
G2 X7.5125 Y3.0 Z-0.1 I0.0063 J-0.0108
G2 X7.4938 Y2.9892 Z-0.1333 I-0.0125 J0.0
G2 Y3.0108 Z-0.1667 I0.0062 J0.0108
G2 X7.5125 Y3.0 Z-0.2 I0.0063 J-0.0108
G2 X7.4938 Y2.9892 Z-0.2333 I-0.0125 J0.0
G2 Y3.0108 Z-0.2667 I0.0062 J0.0108
G2 X7.5125 Y3.0 Z-0.3 I0.0063 J-0.0108
G2 X7.4938 Y2.9892 Z-0.3333 I-0.0125 J0.0
G2 Y3.0108 Z-0.3667 I0.0063 J0.0108
G2 X7.5125 Y3.0 Z-0.4 I0.0062 J-0.0108
G2 X7.4938 Y2.9892 Z-0.4333 I-0.0125 J0.0
G2 Y3.0108 Z-0.4667 I0.0063 J0.0108
G2 X7.5125 Y3.0 Z-0.5 I0.0062 J-0.0108
G2 X7.4938 Y2.9892 Z-0.5333 I-0.0125 J0.0
G2 Y3.0108 Z-0.5667 I0.0063 J0.0108
G2 X7.5125 Y3.0 Z-0.6 I0.0062 J-0.0108
G2 X7.4938 Y2.9892 Z-0.6333 I-0.0125 J0.0
G2 Y3.0108 Z-0.6667 I0.0062 J0.0108
G2 X7.5125 Y3.0 Z-0.7 I0.0063 J-0.0108
G2 X7.4938 Y2.9892 Z-0.7333 I-0.0125 J0.0
G2 Y3.0108 Z-0.7667 I0.0062 J0.0108
G2 X7.5125 Y3.0 Z-0.8 I0.0063 J-0.0108
G2 X7.4938 Y2.9892 Z-0.8333 I-0.0125 J0.0
G2 Y3.0108 Z-0.8667 I0.0062 J0.0108
G2 X7.5125 Y3.0 Z-0.9 I0.0063 J-0.0108
G2 X7.4938 Y2.9892 Z-0.9333 I-0.0125 J0.0
G2 Y3.0108 Z-0.9667 I0.0062 J0.0108
G2 X7.5125 Y3.0 Z-1.0 I0.0063 J-0.0108
G2 X7.4938 Y2.9892 Z-1.0333 I-0.0125 J0.0
G2 Y3.0108 Z-1.0667 I0.0062 J0.0108
G2 X7.5125 Y3.0 Z-1.1 I0.0063 J-0.0108
G2 X7.4938 Y2.9892 Z-1.1333 I-0.0125 J0.0
G2 Y3.0108 Z-1.1667 I0.0062 J0.0108
G2 X7.5125 Y3.0 Z-1.2 I0.0063 J-0.0108
G2 X7.4938 Y2.9892 Z-1.2333 I-0.0125 J0.0
G2 Y3.0108 Z-1.2667 I0.0062 J0.0108
G2 X7.5125 Y3.0 Z-1.3 I0.0063 J-0.0108
G2 X7.4938 Y2.9892 Z-1.3333 I-0.0125 J0.0
G2 Y3.0108 Z-1.3667 I0.0062 J0.0108
G2 X7.5125 Y3.0 Z-1.4 I0.0063 J-0.0108
G2 X7.4938 Y2.9892 Z-1.4333 I-0.0125 J0.0
G2 Y3.0108 Z-1.4667 I0.0062 J0.0108
G2 X7.5125 Y3.0 Z-1.5 I0.0063 J-0.0108
G2 X7.4938 Y2.9892 Z-1.5333 I-0.0125 J0.0
G2 Y3.0108 Z-1.5667 I0.0062 J0.0108
G2 X7.5125 Y3.0 Z-1.6 I0.0063 J-0.0108
G2 X7.4938 Y2.9892 Z-1.6333 I-0.0125 J0.0
G2 Y3.0108 Z-1.6667 I0.0062 J0.0108
G2 X7.5125 Y3.0 Z-1.7 I0.0063 J-0.0108
G2 X7.4938 Y2.9892 Z-1.7333 I-0.0125 J0.0
G2 Y3.0108 Z-1.7667 I0.0062 J0.0108
G2 X7.5125 Y3.0 Z-1.8 I0.0063 J-0.0108
G2 X7.4938 Y2.9892 Z-1.8333 I-0.0125 J0.0
G2 Y3.0108 Z-1.8667 I0.0062 J0.0108
G2 X7.5125 Y3.0 Z-1.9 I0.0063 J-0.0108
G2 X7.4938 Y2.9892 Z-1.9333 I-0.0125 J0.0
G2 Y3.0108 Z-1.9667 I0.0062 J0.0108
G2 X7.5125 Y3.0 Z-2.0 I0.0063 J-0.0108
G2 X7.4938 Y2.9892 Z-2.0333 I-0.0125 J0.0
G2 Y3.0108 Z-2.0667 I0.0062 J0.0108
G2 X7.5125 Y3.0 Z-2.1 I0.0063 J-0.0108
G2 X7.4938 Y2.9892 Z-2.1333 I-0.0125 J0.0
G2 Y3.0108 Z-2.1667 I0.0062 J0.0108
G2 X7.5125 Y3.0 Z-2.2 I0.0063 J-0.0108
G2 X7.4938 Y2.9892 Z-2.2333 I-0.0125 J0.0
G2 Y3.0108 Z-2.2667 I0.0062 J0.0108
G2 X7.5125 Y3.0 Z-2.3 I0.0063 J-0.0108
G2 X7.4938 Y2.9892 Z-2.3333 I-0.0125 J0.0
G2 Y3.0108 Z-2.3667 I0.0063 J0.0108
G2 X7.5125 Y3.0 Z-2.4 I0.0062 J-0.0108
G2 X7.4938 Y2.9892 Z-2.4333 I-0.0125 J0.0
G2 Y3.0108 Z-2.4667 I0.0063 J0.0108
G2 X7.5125 Y3.0 Z-2.5 I0.0062 J-0.0108
G2 X7.4938 Y2.9892 Z-2.5333 I-0.0125 J0.0
G2 Y3.0108 Z-2.5667 I0.0063 J0.0108
G2 X7.5125 Y3.0 Z-2.6 I0.0062 J-0.0108
G2 X7.4938 Y2.9892 Z-2.6333 I-0.0125 J0.0
G2 Y3.0108 Z-2.6667 I0.0063 J0.0108
G2 X7.5125 Y3.0 Z-2.7 I0.0062 J-0.0108
G2 X7.4938 Y2.9892 Z-2.7333 I-0.0125 J0.0
G2 Y3.0108 Z-2.7667 I0.0063 J0.0108
G2 X7.5125 Y3.0 Z-2.8 I0.0062 J-0.0108
G2 X7.4938 Y2.9892 Z-2.8333 I-0.0125 J0.0
G2 Y3.0108 Z-2.8667 I0.0063 J0.0108
G2 X7.5125 Y3.0 Z-2.9 I0.0062 J-0.0108
G2 X7.4938 Y2.9892 Z-2.9333 I-0.0125 J0.0
G2 Y3.0108 Z-2.9667 I0.0063 J0.0108
G2 X7.5125 Y3.0 Z-3.0 I0.0062 J-0.0108
G2 X7.4938 Y2.9892 Z-3.0333 I-0.0125 J0.0
G2 Y3.0108 Z-3.0667 I0.0063 J0.0108
G2 X7.5125 Y3.0 Z-3.1 I0.0062 J-0.0108
G2 X7.4938 Y2.9892 Z-3.1333 I-0.0125 J0.0
G2 Y3.0108 Z-3.1667 I0.0063 J0.0108
G2 X7.5125 Y3.0 Z-3.2 I0.0062 J-0.0108
G2 X7.4938 Y2.9892 I-0.0125 J0.0
G2 Y3.0108 I0.0063 J0.0108
G2 X7.5125 Y3.0 I0.0062 J-0.0108
G0 Z3.0
G0 X8.0733 Y18.2385
G0 Z0.01
G1 F1000.0 Z0.0
G2 F2000.0 X8.0546 Y18.2277 Z-0.0333 I-0.0125 J0.0
G2 Y18.2493 Z-0.0667 I0.0062 J0.0108
G2 X8.0733 Y18.2385 Z-0.1 I0.0063 J-0.0108
G2 X8.0546 Y18.2277 Z-0.1333 I-0.0125 J0.0
G2 Y18.2493 Z-0.1667 I0.0062 J0.0108
G2 X8.0733 Y18.2385 Z-0.2 I0.0063 J-0.0108
G2 X8.0546 Y18.2277 Z-0.2333 I-0.0125 J0.0
G2 Y18.2493 Z-0.2667 I0.0062 J0.0108
G2 X8.0733 Y18.2385 Z-0.3 I0.0063 J-0.0108
G2 X8.0546 Y18.2277 Z-0.3333 I-0.0125 J0.0
G2 Y18.2493 Z-0.3667 I0.0062 J0.0108
G2 X8.0733 Y18.2385 Z-0.4 I0.0063 J-0.0108
G2 X8.0546 Y18.2277 Z-0.4333 I-0.0125 J0.0
G2 Y18.2493 Z-0.4667 I0.0062 J0.0108
G2 X8.0733 Y18.2385 Z-0.5 I0.0063 J-0.0108
G2 X8.0546 Y18.2277 Z-0.5333 I-0.0125 J0.0
G2 Y18.2493 Z-0.5667 I0.0062 J0.0108
G2 X8.0733 Y18.2385 Z-0.6 I0.0063 J-0.0108
G2 X8.0546 Y18.2277 Z-0.6333 I-0.0125 J0.0
G2 Y18.2493 Z-0.6667 I0.0062 J0.0108
G2 X8.0733 Y18.2385 Z-0.7 I0.0063 J-0.0108
G2 X8.0546 Y18.2277 Z-0.7333 I-0.0125 J0.0
G2 Y18.2493 Z-0.7667 I0.0062 J0.0108
G2 X8.0733 Y18.2385 Z-0.8 I0.0063 J-0.0108
G2 X8.0546 Y18.2277 Z-0.8333 I-0.0125 J0.0
G2 Y18.2493 Z-0.8667 I0.0062 J0.0108
G2 X8.0733 Y18.2385 Z-0.9 I0.0063 J-0.0108
G2 X8.0546 Y18.2277 Z-0.9333 I-0.0125 J0.0
G2 Y18.2493 Z-0.9667 I0.0062 J0.0108
G2 X8.0733 Y18.2385 Z-1.0 I0.0063 J-0.0108
G2 X8.0546 Y18.2277 Z-1.0333 I-0.0125 J0.0
G2 Y18.2493 Z-1.0667 I0.0062 J0.0108
G2 X8.0733 Y18.2385 Z-1.1 I0.0063 J-0.0108
G2 X8.0546 Y18.2277 Z-1.1333 I-0.0125 J0.0
G2 Y18.2493 Z-1.1667 I0.0062 J0.0108
G2 X8.0733 Y18.2385 Z-1.2 I0.0063 J-0.0108
G2 X8.0546 Y18.2277 Z-1.2333 I-0.0125 J0.0
G2 Y18.2493 Z-1.2667 I0.0062 J0.0108
G2 X8.0733 Y18.2385 Z-1.3 I0.0063 J-0.0108
G2 X8.0546 Y18.2277 Z-1.3333 I-0.0125 J0.0
G2 Y18.2493 Z-1.3667 I0.0062 J0.0108
G2 X8.0733 Y18.2385 Z-1.4 I0.0063 J-0.0108
G2 X8.0546 Y18.2277 Z-1.4333 I-0.0125 J0.0
G2 Y18.2493 Z-1.4667 I0.0062 J0.0108
G2 X8.0733 Y18.2385 Z-1.5 I0.0063 J-0.0108
G2 X8.0546 Y18.2277 Z-1.5333 I-0.0125 J0.0
G2 Y18.2493 Z-1.5667 I0.0062 J0.0108
G2 X8.0733 Y18.2385 Z-1.6 I0.0063 J-0.0108
G2 X8.0546 Y18.2277 Z-1.6333 I-0.0125 J0.0
G2 Y18.2493 Z-1.6667 I0.0062 J0.0108
G2 X8.0733 Y18.2385 Z-1.7 I0.0063 J-0.0108
G2 X8.0546 Y18.2277 Z-1.7333 I-0.0125 J0.0
G2 Y18.2493 Z-1.7667 I0.0062 J0.0108
G2 X8.0733 Y18.2385 Z-1.8 I0.0063 J-0.0108
G2 X8.0546 Y18.2277 Z-1.8333 I-0.0125 J0.0
G2 Y18.2493 Z-1.8667 I0.0062 J0.0108
G2 X8.0733 Y18.2385 Z-1.9 I0.0063 J-0.0108
G2 X8.0546 Y18.2277 Z-1.9333 I-0.0125 J0.0
G2 Y18.2493 Z-1.9667 I0.0062 J0.0108
G2 X8.0733 Y18.2385 Z-2.0 I0.0063 J-0.0108
G2 X8.0546 Y18.2277 Z-2.0333 I-0.0125 J0.0
G2 Y18.2493 Z-2.0667 I0.0062 J0.0108
G2 X8.0733 Y18.2385 Z-2.1 I0.0063 J-0.0108
G2 X8.0546 Y18.2277 Z-2.1333 I-0.0125 J0.0
G2 Y18.2493 Z-2.1667 I0.0062 J0.0108
G2 X8.0733 Y18.2385 Z-2.2 I0.0063 J-0.0108
G2 X8.0546 Y18.2277 Z-2.2333 I-0.0125 J0.0
G2 Y18.2493 Z-2.2667 I0.0062 J0.0108
G2 X8.0733 Y18.2385 Z-2.3 I0.0063 J-0.0108
G2 X8.0546 Y18.2277 Z-2.3333 I-0.0125 J0.0
G2 Y18.2493 Z-2.3667 I0.0062 J0.0108
G2 X8.0733 Y18.2385 Z-2.4 I0.0063 J-0.0108
G2 X8.0546 Y18.2277 Z-2.4333 I-0.0125 J0.0
G2 Y18.2493 Z-2.4667 I0.0062 J0.0108
G2 X8.0733 Y18.2385 Z-2.5 I0.0063 J-0.0108
G2 X8.0546 Y18.2277 Z-2.5333 I-0.0125 J0.0
G2 Y18.2493 Z-2.5667 I0.0062 J0.0108
G2 X8.0733 Y18.2385 Z-2.6 I0.0063 J-0.0108
G2 X8.0546 Y18.2277 Z-2.6333 I-0.0125 J0.0
G2 Y18.2493 Z-2.6667 I0.0063 J0.0108
G2 X8.0733 Y18.2385 Z-2.7 I0.0062 J-0.0108
G2 X8.0546 Y18.2277 Z-2.7333 I-0.0125 J0.0
G2 Y18.2493 Z-2.7667 I0.0063 J0.0108
G2 X8.0733 Y18.2385 Z-2.8 I0.0062 J-0.0108
G2 X8.0546 Y18.2277 Z-2.8333 I-0.0125 J0.0
G2 Y18.2493 Z-2.8667 I0.0063 J0.0108
G2 X8.0733 Y18.2385 Z-2.9 I0.0062 J-0.0108
G2 X8.0546 Y18.2277 Z-2.9333 I-0.0125 J0.0
G2 Y18.2493 Z-2.9667 I0.0063 J0.0108
G2 X8.0733 Y18.2385 Z-3.0 I0.0062 J-0.0108
G2 X8.0546 Y18.2277 Z-3.0333 I-0.0125 J0.0
G2 Y18.2493 Z-3.0667 I0.0063 J0.0108
G2 X8.0733 Y18.2385 Z-3.1 I0.0062 J-0.0108
G2 X8.0546 Y18.2277 Z-3.1333 I-0.0125 J0.0
G2 Y18.2493 Z-3.1667 I0.0063 J0.0108
G2 X8.0733 Y18.2385 Z-3.2 I0.0062 J-0.0108
G2 X8.0546 Y18.2277 I-0.0125 J0.0
G2 Y18.2493 I0.0063 J0.0108
G2 X8.0733 Y18.2385 I0.0062 J-0.0108
G0 Z3.0
G0 X8.6481 Y35.4108
G0 Z0.01
G1 F1000.0 Z0.0
G2 F2000.0 X8.6293 Y35.4 Z-0.0333 I-0.0125 J0.0
G2 Y35.4216 Z-0.0667 I0.0063 J0.0108
G2 X8.6481 Y35.4108 Z-0.1 I0.0062 J-0.0108
G2 X8.6293 Y35.4 Z-0.1333 I-0.0125 J0.0
G2 Y35.4216 Z-0.1667 I0.0063 J0.0108
G2 X8.6481 Y35.4108 Z-0.2 I0.0062 J-0.0108
G2 X8.6293 Y35.4 Z-0.2333 I-0.0125 J0.0
G2 Y35.4216 Z-0.2667 I0.0063 J0.0108
G2 X8.6481 Y35.4108 Z-0.3 I0.0062 J-0.0108
G2 X8.6293 Y35.4 Z-0.3333 I-0.0125 J0.0
G2 Y35.4216 Z-0.3667 I0.0063 J0.0108
G2 X8.6481 Y35.4108 Z-0.4 I0.0062 J-0.0108
G2 X8.6293 Y35.4 Z-0.4333 I-0.0125 J0.0
G2 Y35.4216 Z-0.4667 I0.0063 J0.0108
G2 X8.6481 Y35.4108 Z-0.5 I0.0062 J-0.0108
G2 X8.6293 Y35.4 Z-0.5333 I-0.0125 J0.0
G2 Y35.4216 Z-0.5667 I0.0063 J0.0108
G2 X8.6481 Y35.4108 Z-0.6 I0.0062 J-0.0108
G2 X8.6293 Y35.4 Z-0.6333 I-0.0125 J0.0
G2 Y35.4216 Z-0.6667 I0.0063 J0.0108
G2 X8.6481 Y35.4108 Z-0.7 I0.0062 J-0.0108
G2 X8.6293 Y35.4 Z-0.7333 I-0.0125 J0.0
G2 Y35.4216 Z-0.7667 I0.0063 J0.0108
G2 X8.6481 Y35.4108 Z-0.8 I0.0062 J-0.0108
G2 X8.6293 Y35.4 Z-0.8333 I-0.0125 J0.0
G2 Y35.4216 Z-0.8667 I0.0063 J0.0108
G2 X8.6481 Y35.4108 Z-0.9 I0.0062 J-0.0108
G2 X8.6293 Y35.4 Z-0.9333 I-0.0125 J0.0
G2 Y35.4216 Z-0.9667 I0.0063 J0.0108
G2 X8.6481 Y35.4108 Z-1.0 I0.0062 J-0.0108
G2 X8.6293 Y35.4 Z-1.0333 I-0.0125 J0.0
G2 Y35.4216 Z-1.0667 I0.0063 J0.0108
G2 X8.6481 Y35.4108 Z-1.1 I0.0062 J-0.0108
G2 X8.6293 Y35.4 Z-1.1333 I-0.0125 J0.0
G2 Y35.4216 Z-1.1667 I0.0063 J0.0108
G2 X8.6481 Y35.4108 Z-1.2 I0.0062 J-0.0108
G2 X8.6293 Y35.4 Z-1.2333 I-0.0125 J0.0
G2 Y35.4216 Z-1.2667 I0.0063 J0.0108
G2 X8.6481 Y35.4108 Z-1.3 I0.0062 J-0.0108
G2 X8.6293 Y35.4 Z-1.3333 I-0.0125 J0.0
G2 Y35.4216 Z-1.3667 I0.0063 J0.0108
G2 X8.6481 Y35.4108 Z-1.4 I0.0062 J-0.0108
G2 X8.6293 Y35.4 Z-1.4333 I-0.0125 J0.0
G2 Y35.4216 Z-1.4667 I0.0063 J0.0108
G2 X8.6481 Y35.4108 Z-1.5 I0.0062 J-0.0108
G2 X8.6293 Y35.4 Z-1.5333 I-0.0125 J0.0
G2 Y35.4216 Z-1.5667 I0.0063 J0.0108
G2 X8.6481 Y35.4108 Z-1.6 I0.0062 J-0.0108
G2 X8.6293 Y35.4 Z-1.6333 I-0.0125 J0.0
G2 Y35.4216 Z-1.6667 I0.0063 J0.0108
G2 X8.6481 Y35.4108 Z-1.7 I0.0062 J-0.0108
G2 X8.6293 Y35.4 Z-1.7333 I-0.0125 J0.0
G2 Y35.4216 Z-1.7667 I0.0063 J0.0108
G2 X8.6481 Y35.4108 Z-1.8 I0.0062 J-0.0108
G2 X8.6293 Y35.4 Z-1.8333 I-0.0125 J0.0
G2 Y35.4216 Z-1.8667 I0.0063 J0.0108
G2 X8.6481 Y35.4108 Z-1.9 I0.0062 J-0.0108
G2 X8.6293 Y35.4 Z-1.9333 I-0.0125 J0.0
G2 Y35.4216 Z-1.9667 I0.0063 J0.0108
G2 X8.6481 Y35.4108 Z-2.0 I0.0062 J-0.0108
G2 X8.6293 Y35.4 Z-2.0333 I-0.0125 J0.0
G2 Y35.4216 Z-2.0667 I0.0063 J0.0108
G2 X8.6481 Y35.4108 Z-2.1 I0.0062 J-0.0108
G2 X8.6293 Y35.4 Z-2.1333 I-0.0125 J0.0
G2 Y35.4216 Z-2.1667 I0.0063 J0.0108
G2 X8.6481 Y35.4108 Z-2.2 I0.0062 J-0.0108
G2 X8.6293 Y35.4 Z-2.2333 I-0.0125 J0.0
G2 Y35.4216 Z-2.2667 I0.0063 J0.0108
G2 X8.6481 Y35.4108 Z-2.3 I0.0062 J-0.0108
G2 X8.6293 Y35.4 Z-2.3333 I-0.0125 J0.0
G2 Y35.4216 Z-2.3667 I0.0063 J0.0108
G2 X8.6481 Y35.4108 Z-2.4 I0.0062 J-0.0108
G2 X8.6293 Y35.4 Z-2.4333 I-0.0125 J0.0
G2 Y35.4216 Z-2.4667 I0.0063 J0.0108
G2 X8.6481 Y35.4108 Z-2.5 I0.0062 J-0.0108
G2 X8.6293 Y35.4 Z-2.5333 I-0.0125 J0.0
G2 Y35.4216 Z-2.5667 I0.0063 J0.0108
G2 X8.6481 Y35.4108 Z-2.6 I0.0062 J-0.0108
G2 X8.6293 Y35.4 Z-2.6333 I-0.0125 J0.0
G2 Y35.4216 Z-2.6667 I0.0063 J0.0108
G2 X8.6481 Y35.4108 Z-2.7 I0.0062 J-0.0108
G2 X8.6293 Y35.4 Z-2.7333 I-0.0125 J0.0
G2 Y35.4216 Z-2.7667 I0.0063 J0.0108
G2 X8.6481 Y35.4108 Z-2.8 I0.0062 J-0.0108
G2 X8.6293 Y35.4 Z-2.8333 I-0.0125 J0.0
G2 Y35.4216 Z-2.8667 I0.0063 J0.0108
G2 X8.6481 Y35.4108 Z-2.9 I0.0062 J-0.0108
G2 X8.6293 Y35.4 Z-2.9333 I-0.0125 J0.0
G2 Y35.4216 Z-2.9667 I0.0063 J0.0108
G2 X8.6481 Y35.4108 Z-3.0 I0.0062 J-0.0108
G2 X8.6293 Y35.4 Z-3.0333 I-0.0125 J0.0
G2 Y35.4216 Z-3.0667 I0.0063 J0.0108
G2 X8.6481 Y35.4108 Z-3.1 I0.0062 J-0.0108
G2 X8.6293 Y35.4 Z-3.1333 I-0.0125 J0.0
G2 Y35.4216 Z-3.1667 I0.0063 J0.0108
G2 X8.6481 Y35.4108 Z-3.2 I0.0062 J-0.0108
G2 X8.6293 Y35.4 I-0.0125 J0.0
G2 Y35.4216 I0.0063 J0.0108
G2 X8.6481 Y35.4108 I0.0062 J-0.0108
G0 Z3.0
G0 X24.4392 Y28.9968
G0 Z0.01
G1 F1000.0 Z0.0
G2 F2000.0 X24.4204 Y28.986 Z-0.0333 I-0.0125 J0.0
G2 Y29.0076 Z-0.0667 I0.0062 J0.0108
G2 X24.4392 Y28.9968 Z-0.1 I0.0063 J-0.0108
G2 X24.4204 Y28.986 Z-0.1333 I-0.0125 J0.0
G2 Y29.0076 Z-0.1667 I0.0062 J0.0108
G2 X24.4392 Y28.9968 Z-0.2 I0.0063 J-0.0108
G2 X24.4204 Y28.986 Z-0.2333 I-0.0125 J0.0
G2 Y29.0076 Z-0.2667 I0.0062 J0.0108
G2 X24.4392 Y28.9968 Z-0.3 I0.0063 J-0.0108
G2 X24.4204 Y28.986 Z-0.3333 I-0.0125 J0.0
G2 Y29.0076 Z-0.3667 I0.0062 J0.0108
G2 X24.4392 Y28.9968 Z-0.4 I0.0063 J-0.0108
G2 X24.4204 Y28.986 Z-0.4333 I-0.0125 J0.0
G2 Y29.0076 Z-0.4667 I0.0062 J0.0108
G2 X24.4392 Y28.9968 Z-0.5 I0.0063 J-0.0108
G2 X24.4204 Y28.986 Z-0.5333 I-0.0125 J0.0
G2 Y29.0076 Z-0.5667 I0.0062 J0.0108
G2 X24.4392 Y28.9968 Z-0.6 I0.0063 J-0.0108
G2 X24.4204 Y28.986 Z-0.6333 I-0.0125 J0.0
G2 Y29.0076 Z-0.6667 I0.0062 J0.0108
G2 X24.4392 Y28.9968 Z-0.7 I0.0063 J-0.0108
G2 X24.4204 Y28.986 Z-0.7333 I-0.0125 J0.0
G2 Y29.0076 Z-0.7667 I0.0062 J0.0108
G2 X24.4392 Y28.9968 Z-0.8 I0.0063 J-0.0108
G2 X24.4204 Y28.986 Z-0.8333 I-0.0125 J0.0
G2 Y29.0076 Z-0.8667 I0.0062 J0.0108
G2 X24.4392 Y28.9968 Z-0.9 I0.0063 J-0.0108
G2 X24.4204 Y28.986 Z-0.9333 I-0.0125 J0.0
G2 Y29.0076 Z-0.9667 I0.0062 J0.0108
G2 X24.4392 Y28.9968 Z-1.0 I0.0063 J-0.0108
G2 X24.4204 Y28.986 Z-1.0333 I-0.0125 J0.0
G2 Y29.0076 Z-1.0667 I0.0062 J0.0108
G2 X24.4392 Y28.9968 Z-1.1 I0.0063 J-0.0108
G2 X24.4204 Y28.986 Z-1.1333 I-0.0125 J0.0
G2 Y29.0076 Z-1.1667 I0.0062 J0.0108
G2 X24.4392 Y28.9968 Z-1.2 I0.0063 J-0.0108
G2 X24.4204 Y28.986 Z-1.2333 I-0.0125 J0.0
G2 Y29.0076 Z-1.2667 I0.0062 J0.0108
G2 X24.4392 Y28.9968 Z-1.3 I0.0063 J-0.0108
G2 X24.4204 Y28.986 Z-1.3333 I-0.0125 J0.0
G2 Y29.0076 Z-1.3667 I0.0062 J0.0108
G2 X24.4392 Y28.9968 Z-1.4 I0.0063 J-0.0108
G2 X24.4204 Y28.986 Z-1.4333 I-0.0125 J0.0
G2 Y29.0076 Z-1.4667 I0.0062 J0.0108
G2 X24.4392 Y28.9968 Z-1.5 I0.0063 J-0.0108
G2 X24.4204 Y28.986 Z-1.5333 I-0.0125 J0.0
G2 Y29.0076 Z-1.5667 I0.0062 J0.0108
G2 X24.4392 Y28.9968 Z-1.6 I0.0063 J-0.0108
G2 X24.4204 Y28.986 Z-1.6333 I-0.0125 J0.0
G2 Y29.0076 Z-1.6667 I0.0062 J0.0108
G2 X24.4392 Y28.9968 Z-1.7 I0.0063 J-0.0108
G2 X24.4204 Y28.986 Z-1.7333 I-0.0125 J0.0
G2 Y29.0076 Z-1.7667 I0.0062 J0.0108
G2 X24.4392 Y28.9968 Z-1.8 I0.0063 J-0.0108
G2 X24.4204 Y28.986 Z-1.8333 I-0.0125 J0.0
G2 Y29.0076 Z-1.8667 I0.0062 J0.0108
G2 X24.4392 Y28.9968 Z-1.9 I0.0063 J-0.0108
G2 X24.4204 Y28.986 Z-1.9333 I-0.0125 J0.0
G2 Y29.0076 Z-1.9667 I0.0062 J0.0108
G2 X24.4392 Y28.9968 Z-2.0 I0.0063 J-0.0108
G2 X24.4204 Y28.986 Z-2.0333 I-0.0125 J0.0
G2 Y29.0076 Z-2.0667 I0.0062 J0.0108
G2 X24.4392 Y28.9968 Z-2.1 I0.0063 J-0.0108
G2 X24.4204 Y28.986 Z-2.1333 I-0.0125 J0.0
G2 Y29.0076 Z-2.1667 I0.0062 J0.0108
G2 X24.4392 Y28.9968 Z-2.2 I0.0063 J-0.0108
G2 X24.4204 Y28.986 Z-2.2333 I-0.0125 J0.0
G2 Y29.0076 Z-2.2667 I0.0062 J0.0108
G2 X24.4392 Y28.9968 Z-2.3 I0.0063 J-0.0108
G2 X24.4204 Y28.986 Z-2.3333 I-0.0125 J0.0
G2 Y29.0076 Z-2.3667 I0.0062 J0.0108
G2 X24.4392 Y28.9968 Z-2.4 I0.0063 J-0.0108
G2 X24.4204 Y28.986 Z-2.4333 I-0.0125 J0.0
G2 Y29.0076 Z-2.4667 I0.0063 J0.0108
G2 X24.4392 Y28.9968 Z-2.5 I0.0062 J-0.0108
G2 X24.4204 Y28.986 Z-2.5333 I-0.0125 J0.0
G2 Y29.0076 Z-2.5667 I0.0063 J0.0108
G2 X24.4392 Y28.9968 Z-2.6 I0.0062 J-0.0108
G2 X24.4204 Y28.986 Z-2.6333 I-0.0125 J0.0
G2 Y29.0076 Z-2.6667 I0.0063 J0.0108
G2 X24.4392 Y28.9968 Z-2.7 I0.0062 J-0.0108
G2 X24.4204 Y28.986 Z-2.7333 I-0.0125 J0.0
G2 Y29.0076 Z-2.7667 I0.0063 J0.0108
G2 X24.4392 Y28.9968 Z-2.8 I0.0062 J-0.0108
G2 X24.4204 Y28.986 Z-2.8333 I-0.0125 J0.0
G2 Y29.0076 Z-2.8667 I0.0063 J0.0108
G2 X24.4392 Y28.9968 Z-2.9 I0.0062 J-0.0108
G2 X24.4204 Y28.986 Z-2.9333 I-0.0125 J0.0
G2 Y29.0076 Z-2.9667 I0.0063 J0.0108
G2 X24.4392 Y28.9968 Z-3.0 I0.0062 J-0.0108
G2 X24.4204 Y28.986 Z-3.0333 I-0.0125 J0.0
G2 Y29.0076 Z-3.0667 I0.0063 J0.0108
G2 X24.4392 Y28.9968 Z-3.1 I0.0062 J-0.0108
G2 X24.4204 Y28.986 Z-3.1333 I-0.0125 J0.0
G2 Y29.0076 Z-3.1667 I0.0063 J0.0108
G2 X24.4392 Y28.9968 Z-3.2 I0.0062 J-0.0108
G2 X24.4204 Y28.986 I-0.0125 J0.0
G2 Y29.0076 I0.0063 J0.0108
G2 X24.4392 Y28.9968 I0.0062 J-0.0108
G0 Z3.0
G0 X33.1303 Y18.2333
G0 Z0.01
G1 F1000.0 Z0.0
G2 F2000.0 X33.1116 Y18.2225 Z-0.0333 I-0.0125 J0.0
G2 Y18.2441 Z-0.0667 I0.0063 J0.0108
G2 X33.1303 Y18.2333 Z-0.1 I0.0063 J-0.0108
G2 X33.1116 Y18.2225 Z-0.1333 I-0.0125 J0.0
G2 Y18.2441 Z-0.1667 I0.0063 J0.0108
G2 X33.1303 Y18.2333 Z-0.2 I0.0063 J-0.0108
G2 X33.1116 Y18.2225 Z-0.2333 I-0.0125 J0.0
G2 Y18.2441 Z-0.2667 I0.0063 J0.0108
G2 X33.1303 Y18.2333 Z-0.3 I0.0063 J-0.0108
G2 X33.1116 Y18.2225 Z-0.3333 I-0.0125 J0.0
G2 Y18.2441 Z-0.3667 I0.0063 J0.0108
G2 X33.1303 Y18.2333 Z-0.4 I0.0063 J-0.0108
G2 X33.1116 Y18.2225 Z-0.4333 I-0.0125 J0.0
G2 Y18.2441 Z-0.4667 I0.0063 J0.0108
G2 X33.1303 Y18.2333 Z-0.5 I0.0063 J-0.0108
G2 X33.1116 Y18.2225 Z-0.5333 I-0.0125 J0.0
G2 Y18.2441 Z-0.5667 I0.0063 J0.0108
G2 X33.1303 Y18.2333 Z-0.6 I0.0063 J-0.0108
G2 X33.1116 Y18.2225 Z-0.6333 I-0.0125 J0.0
G2 Y18.2441 Z-0.6667 I0.0063 J0.0108
G2 X33.1303 Y18.2333 Z-0.7 I0.0063 J-0.0108
G2 X33.1116 Y18.2225 Z-0.7333 I-0.0125 J0.0
G2 Y18.2441 Z-0.7667 I0.0063 J0.0108
G2 X33.1303 Y18.2333 Z-0.8 I0.0063 J-0.0108
G2 X33.1116 Y18.2225 Z-0.8333 I-0.0125 J0.0
G2 Y18.2441 Z-0.8667 I0.0063 J0.0108
G2 X33.1303 Y18.2333 Z-0.9 I0.0063 J-0.0108
G2 X33.1116 Y18.2225 Z-0.9333 I-0.0125 J0.0
G2 Y18.2441 Z-0.9667 I0.0063 J0.0108
G2 X33.1303 Y18.2333 Z-1.0 I0.0063 J-0.0108
G2 X33.1116 Y18.2225 Z-1.0333 I-0.0125 J0.0
G2 Y18.2441 Z-1.0667 I0.0063 J0.0108
G2 X33.1303 Y18.2333 Z-1.1 I0.0063 J-0.0108
G2 X33.1116 Y18.2225 Z-1.1333 I-0.0125 J0.0
G2 Y18.2441 Z-1.1667 I0.0063 J0.0108
G2 X33.1303 Y18.2333 Z-1.2 I0.0063 J-0.0108
G2 X33.1116 Y18.2225 Z-1.2333 I-0.0125 J0.0
G2 Y18.2441 Z-1.2667 I0.0063 J0.0108
G2 X33.1303 Y18.2333 Z-1.3 I0.0063 J-0.0108
G2 X33.1116 Y18.2225 Z-1.3333 I-0.0125 J0.0
G2 Y18.2441 Z-1.3667 I0.0063 J0.0108
G2 X33.1303 Y18.2333 Z-1.4 I0.0063 J-0.0108
G2 X33.1116 Y18.2225 Z-1.4333 I-0.0125 J0.0
G2 Y18.2441 Z-1.4667 I0.0063 J0.0108
G2 X33.1303 Y18.2333 Z-1.5 I0.0063 J-0.0108
G2 X33.1116 Y18.2225 Z-1.5333 I-0.0125 J0.0
G2 Y18.2441 Z-1.5667 I0.0063 J0.0108
G2 X33.1303 Y18.2333 Z-1.6 I0.0063 J-0.0108
G2 X33.1116 Y18.2225 Z-1.6333 I-0.0125 J0.0
G2 Y18.2441 Z-1.6667 I0.0063 J0.0108
G2 X33.1303 Y18.2333 Z-1.7 I0.0063 J-0.0108
G2 X33.1116 Y18.2225 Z-1.7333 I-0.0125 J0.0
G2 Y18.2441 Z-1.7667 I0.0063 J0.0108
G2 X33.1303 Y18.2333 Z-1.8 I0.0063 J-0.0108
G2 X33.1116 Y18.2225 Z-1.8333 I-0.0125 J0.0
G2 Y18.2441 Z-1.8667 I0.0063 J0.0108
G2 X33.1303 Y18.2333 Z-1.9 I0.0063 J-0.0108
G2 X33.1116 Y18.2225 Z-1.9333 I-0.0125 J0.0
G2 Y18.2441 Z-1.9667 I0.0063 J0.0108
G2 X33.1303 Y18.2333 Z-2.0 I0.0063 J-0.0108
G2 X33.1116 Y18.2225 Z-2.0333 I-0.0125 J0.0
G2 Y18.2441 Z-2.0667 I0.0063 J0.0108
G2 X33.1303 Y18.2333 Z-2.1 I0.0063 J-0.0108
G2 X33.1116 Y18.2225 Z-2.1333 I-0.0125 J0.0
G2 Y18.2441 Z-2.1667 I0.0063 J0.0108
G2 X33.1303 Y18.2333 Z-2.2 I0.0063 J-0.0108
G2 X33.1116 Y18.2225 Z-2.2333 I-0.0125 J0.0
G2 Y18.2441 Z-2.2667 I0.0063 J0.0108
G2 X33.1303 Y18.2333 Z-2.3 I0.0063 J-0.0108
G2 X33.1116 Y18.2225 Z-2.3333 I-0.0125 J0.0
G2 Y18.2441 Z-2.3667 I0.0063 J0.0108
G2 X33.1303 Y18.2333 Z-2.4 I0.0063 J-0.0108
G2 X33.1116 Y18.2225 Z-2.4333 I-0.0125 J0.0
G2 Y18.2441 Z-2.4667 I0.0063 J0.0108
G2 X33.1303 Y18.2333 Z-2.5 I0.0063 J-0.0108
G2 X33.1116 Y18.2225 Z-2.5333 I-0.0125 J0.0
G2 Y18.2441 Z-2.5667 I0.0063 J0.0108
G2 X33.1303 Y18.2333 Z-2.6 I0.0063 J-0.0108
G2 X33.1116 Y18.2225 Z-2.6333 I-0.0125 J0.0
G2 Y18.2441 Z-2.6667 I0.0063 J0.0108
G2 X33.1303 Y18.2333 Z-2.7 I0.0063 J-0.0108
G2 X33.1116 Y18.2225 Z-2.7333 I-0.0125 J0.0
G2 Y18.2441 Z-2.7667 I0.0063 J0.0108
G2 X33.1303 Y18.2333 Z-2.8 I0.0063 J-0.0108
G2 X33.1116 Y18.2225 Z-2.8333 I-0.0125 J0.0
G2 Y18.2441 Z-2.8667 I0.0063 J0.0108
G2 X33.1303 Y18.2333 Z-2.9 I0.0063 J-0.0108
G2 X33.1116 Y18.2225 Z-2.9333 I-0.0125 J0.0
G2 Y18.2441 Z-2.9667 I0.0063 J0.0108
G2 X33.1303 Y18.2333 Z-3.0 I0.0062 J-0.0108
G2 X33.1116 Y18.2225 Z-3.0333 I-0.0125 J0.0
G2 Y18.2441 Z-3.0667 I0.0063 J0.0108
G2 X33.1303 Y18.2333 Z-3.1 I0.0062 J-0.0108
G2 X33.1116 Y18.2225 Z-3.1333 I-0.0125 J0.0
G2 Y18.2441 Z-3.1667 I0.0063 J0.0108
G2 X33.1303 Y18.2333 Z-3.2 I0.0062 J-0.0108
G2 X33.1116 Y18.2225 I-0.0125 J0.0
G2 Y18.2441 I0.0063 J0.0108
G2 X33.1303 Y18.2333 I0.0062 J-0.0108
G0 Z3.0
G0 X37.9925 Y3.0
G0 Z0.01
G1 F1000.0 Z0.0
G2 F2000.0 X37.9737 Y2.9892 Z-0.0333 I-0.0125 J0.0
G2 Y3.0108 Z-0.0667 I0.0063 J0.0108
G2 X37.9925 Y3.0 Z-0.1 I0.0063 J-0.0108
G2 X37.9737 Y2.9892 Z-0.1333 I-0.0125 J0.0
G2 Y3.0108 Z-0.1667 I0.0063 J0.0108
G2 X37.9925 Y3.0 Z-0.2 I0.0063 J-0.0108
G2 X37.9737 Y2.9892 Z-0.2333 I-0.0125 J0.0
G2 Y3.0108 Z-0.2667 I0.0063 J0.0108
G2 X37.9925 Y3.0 Z-0.3 I0.0063 J-0.0108
G2 X37.9737 Y2.9892 Z-0.3333 I-0.0125 J0.0
G2 Y3.0108 Z-0.3667 I0.0063 J0.0108
G2 X37.9925 Y3.0 Z-0.4 I0.0063 J-0.0108
G2 X37.9737 Y2.9892 Z-0.4333 I-0.0125 J0.0
G2 Y3.0108 Z-0.4667 I0.0063 J0.0108
G2 X37.9925 Y3.0 Z-0.5 I0.0063 J-0.0108
G2 X37.9737 Y2.9892 Z-0.5333 I-0.0125 J0.0
G2 Y3.0108 Z-0.5667 I0.0063 J0.0108
G2 X37.9925 Y3.0 Z-0.6 I0.0063 J-0.0108
G2 X37.9737 Y2.9892 Z-0.6333 I-0.0125 J0.0
G2 Y3.0108 Z-0.6667 I0.0063 J0.0108
G2 X37.9925 Y3.0 Z-0.7 I0.0063 J-0.0108
G2 X37.9737 Y2.9892 Z-0.7333 I-0.0125 J0.0
G2 Y3.0108 Z-0.7667 I0.0063 J0.0108
G2 X37.9925 Y3.0 Z-0.8 I0.0063 J-0.0108
G2 X37.9737 Y2.9892 Z-0.8333 I-0.0125 J0.0
G2 Y3.0108 Z-0.8667 I0.0063 J0.0108
G2 X37.9925 Y3.0 Z-0.9 I0.0063 J-0.0108
G2 X37.9737 Y2.9892 Z-0.9333 I-0.0125 J0.0
G2 Y3.0108 Z-0.9667 I0.0063 J0.0108
G2 X37.9925 Y3.0 Z-1.0 I0.0063 J-0.0108
G2 X37.9737 Y2.9892 Z-1.0333 I-0.0125 J0.0
G2 Y3.0108 Z-1.0667 I0.0063 J0.0108
G2 X37.9925 Y3.0 Z-1.1 I0.0063 J-0.0108
G2 X37.9737 Y2.9892 Z-1.1333 I-0.0125 J0.0
G2 Y3.0108 Z-1.1667 I0.0063 J0.0108
G2 X37.9925 Y3.0 Z-1.2 I0.0063 J-0.0108
G2 X37.9737 Y2.9892 Z-1.2333 I-0.0125 J0.0
G2 Y3.0108 Z-1.2667 I0.0063 J0.0108
G2 X37.9925 Y3.0 Z-1.3 I0.0063 J-0.0108
G2 X37.9737 Y2.9892 Z-1.3333 I-0.0125 J0.0
G2 Y3.0108 Z-1.3667 I0.0063 J0.0108
G2 X37.9925 Y3.0 Z-1.4 I0.0063 J-0.0108
G2 X37.9737 Y2.9892 Z-1.4333 I-0.0125 J0.0
G2 Y3.0108 Z-1.4667 I0.0063 J0.0108
G2 X37.9925 Y3.0 Z-1.5 I0.0063 J-0.0108
G2 X37.9737 Y2.9892 Z-1.5333 I-0.0125 J0.0
G2 Y3.0108 Z-1.5667 I0.0063 J0.0108
G2 X37.9925 Y3.0 Z-1.6 I0.0063 J-0.0108
G2 X37.9737 Y2.9892 Z-1.6333 I-0.0125 J0.0
G2 Y3.0108 Z-1.6667 I0.0063 J0.0108
G2 X37.9925 Y3.0 Z-1.7 I0.0063 J-0.0108
G2 X37.9737 Y2.9892 Z-1.7333 I-0.0125 J0.0
G2 Y3.0108 Z-1.7667 I0.0063 J0.0108
G2 X37.9925 Y3.0 Z-1.8 I0.0063 J-0.0108
G2 X37.9737 Y2.9892 Z-1.8333 I-0.0125 J0.0
G2 Y3.0108 Z-1.8667 I0.0063 J0.0108
G2 X37.9925 Y3.0 Z-1.9 I0.0063 J-0.0108
G2 X37.9737 Y2.9892 Z-1.9333 I-0.0125 J0.0
G2 Y3.0108 Z-1.9667 I0.0063 J0.0108
G2 X37.9925 Y3.0 Z-2.0 I0.0063 J-0.0108
G2 X37.9737 Y2.9892 Z-2.0333 I-0.0125 J0.0
G2 Y3.0108 Z-2.0667 I0.0063 J0.0108
G2 X37.9925 Y3.0 Z-2.1 I0.0063 J-0.0108
G2 X37.9737 Y2.9892 Z-2.1333 I-0.0125 J0.0
G2 Y3.0108 Z-2.1667 I0.0063 J0.0108
G2 X37.9925 Y3.0 Z-2.2 I0.0063 J-0.0108
G2 X37.9737 Y2.9892 Z-2.2333 I-0.0125 J0.0
G2 Y3.0108 Z-2.2667 I0.0063 J0.0108
G2 X37.9925 Y3.0 Z-2.3 I0.0063 J-0.0108
G2 X37.9737 Y2.9892 Z-2.3333 I-0.0125 J0.0
G2 Y3.0108 Z-2.3667 I0.0063 J0.0108
G2 X37.9925 Y3.0 Z-2.4 I0.0063 J-0.0108
G2 X37.9737 Y2.9892 Z-2.4333 I-0.0125 J0.0
G2 Y3.0108 Z-2.4667 I0.0063 J0.0108
G2 X37.9925 Y3.0 Z-2.5 I0.0063 J-0.0108
G2 X37.9737 Y2.9892 Z-2.5333 I-0.0125 J0.0
G2 Y3.0108 Z-2.5667 I0.0063 J0.0108
G2 X37.9925 Y3.0 Z-2.6 I0.0063 J-0.0108
G2 X37.9737 Y2.9892 Z-2.6333 I-0.0125 J0.0
G2 Y3.0108 Z-2.6667 I0.0063 J0.0108
G2 X37.9925 Y3.0 Z-2.7 I0.0063 J-0.0108
G2 X37.9737 Y2.9892 Z-2.7333 I-0.0125 J0.0
G2 Y3.0108 Z-2.7667 I0.0063 J0.0108
G2 X37.9925 Y3.0 Z-2.8 I0.0063 J-0.0108
G2 X37.9737 Y2.9892 Z-2.8333 I-0.0125 J0.0
G2 Y3.0108 Z-2.8667 I0.0063 J0.0108
G2 X37.9925 Y3.0 Z-2.9 I0.0063 J-0.0108
G2 X37.9737 Y2.9892 Z-2.9333 I-0.0125 J0.0
G2 Y3.0108 Z-2.9667 I0.0063 J0.0108
G2 X37.9925 Y3.0 Z-3.0 I0.0062 J-0.0108
G2 X37.9737 Y2.9892 Z-3.0333 I-0.0125 J0.0
G2 Y3.0108 Z-3.0667 I0.0063 J0.0108
G2 X37.9925 Y3.0 Z-3.1 I0.0062 J-0.0108
G2 X37.9737 Y2.9892 Z-3.1333 I-0.0125 J0.0
G2 Y3.0108 Z-3.1667 I0.0063 J0.0108
G2 X37.9925 Y3.0 Z-3.2 I0.0062 J-0.0108
G2 X37.9737 Y2.9892 I-0.0125 J0.0
G2 Y3.0108 I0.0063 J0.0108
G2 X37.9925 Y3.0 I0.0062 J-0.0108
G0 Z3.0
G0 X33.3928 Y46.3974
G0 Z0.01
G1 F1000.0 Z0.0
G2 F2000.0 X33.374 Y46.3865 Z-0.0333 I-0.0125 J0.0
G2 Y46.4082 Z-0.0667 I0.0063 J0.0108
G2 X33.3928 Y46.3974 Z-0.1 I0.0063 J-0.0108
G2 X33.374 Y46.3865 Z-0.1333 I-0.0125 J0.0
G2 Y46.4082 Z-0.1667 I0.0063 J0.0108
G2 X33.3928 Y46.3974 Z-0.2 I0.0063 J-0.0108
G2 X33.374 Y46.3865 Z-0.2333 I-0.0125 J0.0
G2 Y46.4082 Z-0.2667 I0.0063 J0.0108
G2 X33.3928 Y46.3974 Z-0.3 I0.0063 J-0.0108
G2 X33.374 Y46.3865 Z-0.3333 I-0.0125 J0.0
G2 Y46.4082 Z-0.3667 I0.0063 J0.0108
G2 X33.3928 Y46.3974 Z-0.4 I0.0063 J-0.0108
G2 X33.374 Y46.3865 Z-0.4333 I-0.0125 J0.0
G2 Y46.4082 Z-0.4667 I0.0063 J0.0108
G2 X33.3928 Y46.3974 Z-0.5 I0.0063 J-0.0108
G2 X33.374 Y46.3865 Z-0.5333 I-0.0125 J0.0
G2 Y46.4082 Z-0.5667 I0.0063 J0.0108
G2 X33.3928 Y46.3974 Z-0.6 I0.0063 J-0.0108
G2 X33.374 Y46.3865 Z-0.6333 I-0.0125 J0.0
G2 Y46.4082 Z-0.6667 I0.0063 J0.0108
G2 X33.3928 Y46.3974 Z-0.7 I0.0063 J-0.0108
G2 X33.374 Y46.3865 Z-0.7333 I-0.0125 J0.0
G2 Y46.4082 Z-0.7667 I0.0063 J0.0108
G2 X33.3928 Y46.3974 Z-0.8 I0.0063 J-0.0108
G2 X33.374 Y46.3865 Z-0.8333 I-0.0125 J0.0
G2 Y46.4082 Z-0.8667 I0.0063 J0.0108
G2 X33.3928 Y46.3974 Z-0.9 I0.0063 J-0.0108
G2 X33.374 Y46.3865 Z-0.9333 I-0.0125 J0.0
G2 Y46.4082 Z-0.9667 I0.0063 J0.0108
G2 X33.3928 Y46.3974 Z-1.0 I0.0063 J-0.0108
G2 X33.374 Y46.3865 Z-1.0333 I-0.0125 J0.0
G2 Y46.4082 Z-1.0667 I0.0063 J0.0108
G2 X33.3928 Y46.3974 Z-1.1 I0.0063 J-0.0108
G2 X33.374 Y46.3865 Z-1.1333 I-0.0125 J0.0
G2 Y46.4082 Z-1.1667 I0.0063 J0.0108
G2 X33.3928 Y46.3974 Z-1.2 I0.0063 J-0.0108
G2 X33.374 Y46.3865 Z-1.2333 I-0.0125 J0.0
G2 Y46.4082 Z-1.2667 I0.0063 J0.0108
G2 X33.3928 Y46.3974 Z-1.3 I0.0063 J-0.0108
G2 X33.374 Y46.3865 Z-1.3333 I-0.0125 J0.0
G2 Y46.4082 Z-1.3667 I0.0063 J0.0108
G2 X33.3928 Y46.3974 Z-1.4 I0.0063 J-0.0108
G2 X33.374 Y46.3865 Z-1.4333 I-0.0125 J0.0
G2 Y46.4082 Z-1.4667 I0.0063 J0.0108
G2 X33.3928 Y46.3974 Z-1.5 I0.0063 J-0.0108
G2 X33.374 Y46.3865 Z-1.5333 I-0.0125 J0.0
G2 Y46.4082 Z-1.5667 I0.0063 J0.0108
G2 X33.3928 Y46.3974 Z-1.6 I0.0063 J-0.0108
G2 X33.374 Y46.3865 Z-1.6333 I-0.0125 J0.0
G2 Y46.4082 Z-1.6667 I0.0063 J0.0108
G2 X33.3928 Y46.3974 Z-1.7 I0.0063 J-0.0108
G2 X33.374 Y46.3865 Z-1.7333 I-0.0125 J0.0
G2 Y46.4082 Z-1.7667 I0.0063 J0.0108
G2 X33.3928 Y46.3974 Z-1.8 I0.0063 J-0.0108
G2 X33.374 Y46.3865 Z-1.8333 I-0.0125 J0.0
G2 Y46.4082 Z-1.8667 I0.0063 J0.0108
G2 X33.3928 Y46.3974 Z-1.9 I0.0063 J-0.0108
G2 X33.374 Y46.3865 Z-1.9333 I-0.0125 J0.0
G2 Y46.4082 Z-1.9667 I0.0063 J0.0108
G2 X33.3928 Y46.3974 Z-2.0 I0.0063 J-0.0108
G2 X33.374 Y46.3865 Z-2.0333 I-0.0125 J0.0
G2 Y46.4082 Z-2.0667 I0.0063 J0.0108
G2 X33.3928 Y46.3974 Z-2.1 I0.0063 J-0.0108
G2 X33.374 Y46.3865 Z-2.1333 I-0.0125 J0.0
G2 Y46.4082 Z-2.1667 I0.0063 J0.0108
G2 X33.3928 Y46.3974 Z-2.2 I0.0063 J-0.0108
G2 X33.374 Y46.3865 Z-2.2333 I-0.0125 J0.0
G2 Y46.4082 Z-2.2667 I0.0063 J0.0108
G2 X33.3928 Y46.3974 Z-2.3 I0.0063 J-0.0108
G2 X33.374 Y46.3865 Z-2.3333 I-0.0125 J0.0
G2 Y46.4082 Z-2.3667 I0.0063 J0.0108
G2 X33.3928 Y46.3974 Z-2.4 I0.0063 J-0.0108
G2 X33.374 Y46.3865 Z-2.4333 I-0.0125 J0.0
G2 Y46.4082 Z-2.4667 I0.0063 J0.0108
G2 X33.3928 Y46.3974 Z-2.5 I0.0063 J-0.0108
G2 X33.374 Y46.3865 Z-2.5333 I-0.0125 J0.0
G2 Y46.4082 Z-2.5667 I0.0063 J0.0108
G2 X33.3928 Y46.3974 Z-2.6 I0.0063 J-0.0108
G2 X33.374 Y46.3865 Z-2.6333 I-0.0125 J0.0
G2 Y46.4082 Z-2.6667 I0.0063 J0.0108
G2 X33.3928 Y46.3974 Z-2.7 I0.0063 J-0.0108
G2 X33.374 Y46.3865 Z-2.7333 I-0.0125 J0.0
G2 Y46.4082 Z-2.7667 I0.0063 J0.0108
G2 X33.3928 Y46.3974 Z-2.8 I0.0063 J-0.0108
G2 X33.374 Y46.3865 Z-2.8333 I-0.0125 J0.0
G2 Y46.4082 Z-2.8667 I0.0063 J0.0108
G2 X33.3928 Y46.3974 Z-2.9 I0.0063 J-0.0108
G2 X33.374 Y46.3865 Z-2.9333 I-0.0125 J0.0
G2 Y46.4082 Z-2.9667 I0.0063 J0.0108
G2 X33.3928 Y46.3974 Z-3.0 I0.0062 J-0.0108
G2 X33.374 Y46.3865 Z-3.0333 I-0.0125 J0.0
G2 Y46.4082 Z-3.0667 I0.0063 J0.0108
G2 X33.3928 Y46.3974 Z-3.1 I0.0062 J-0.0108
G2 X33.374 Y46.3865 Z-3.1333 I-0.0125 J0.0
G2 Y46.4082 Z-3.1667 I0.0063 J0.0108
G2 X33.3928 Y46.3974 Z-3.2 I0.0062 J-0.0108
G2 X33.374 Y46.3865 I-0.0125 J0.0
G2 Y46.4082 I0.0063 J0.0108
G2 X33.3928 Y46.3974 I0.0062 J-0.0108
G0 Z3.0
G0 X11.8555 Y60.3102
G0 Z0.01
G1 F1000.0 Z0.0
G2 F2000.0 X11.8368 Y60.2994 Z-0.0333 I-0.0125 J0.0
G2 Y60.321 Z-0.0667 I0.0063 J0.0108
G2 X11.8555 Y60.3102 Z-0.1 I0.0062 J-0.0108
G2 X11.8368 Y60.2994 Z-0.1333 I-0.0125 J0.0
G2 Y60.321 Z-0.1667 I0.0063 J0.0108
G2 X11.8555 Y60.3102 Z-0.2 I0.0062 J-0.0108
G2 X11.8368 Y60.2994 Z-0.2333 I-0.0125 J0.0
G2 Y60.321 Z-0.2667 I0.0063 J0.0108
G2 X11.8555 Y60.3102 Z-0.3 I0.0062 J-0.0108
G2 X11.8368 Y60.2994 Z-0.3333 I-0.0125 J0.0
G2 Y60.321 Z-0.3667 I0.0063 J0.0108
G2 X11.8555 Y60.3102 Z-0.4 I0.0062 J-0.0108
G2 X11.8368 Y60.2994 Z-0.4333 I-0.0125 J0.0
G2 Y60.321 Z-0.4667 I0.0063 J0.0108
G2 X11.8555 Y60.3102 Z-0.5 I0.0062 J-0.0108
G2 X11.8368 Y60.2994 Z-0.5333 I-0.0125 J0.0
G2 Y60.321 Z-0.5667 I0.0063 J0.0108
G2 X11.8555 Y60.3102 Z-0.6 I0.0062 J-0.0108
G2 X11.8368 Y60.2994 Z-0.6333 I-0.0125 J0.0
G2 Y60.321 Z-0.6667 I0.0063 J0.0108
G2 X11.8555 Y60.3102 Z-0.7 I0.0062 J-0.0108
G2 X11.8368 Y60.2994 Z-0.7333 I-0.0125 J0.0
G2 Y60.321 Z-0.7667 I0.0063 J0.0108
G2 X11.8555 Y60.3102 Z-0.8 I0.0062 J-0.0108
G2 X11.8368 Y60.2994 Z-0.8333 I-0.0125 J0.0
G2 Y60.321 Z-0.8667 I0.0063 J0.0108
G2 X11.8555 Y60.3102 Z-0.9 I0.0062 J-0.0108
G2 X11.8368 Y60.2994 Z-0.9333 I-0.0125 J0.0
G2 Y60.321 Z-0.9667 I0.0063 J0.0108
G2 X11.8555 Y60.3102 Z-1.0 I0.0062 J-0.0108
G2 X11.8368 Y60.2994 Z-1.0333 I-0.0125 J0.0
G2 Y60.321 Z-1.0667 I0.0063 J0.0108
G2 X11.8555 Y60.3102 Z-1.1 I0.0062 J-0.0108
G2 X11.8368 Y60.2994 Z-1.1333 I-0.0125 J0.0
G2 Y60.321 Z-1.1667 I0.0063 J0.0108
G2 X11.8555 Y60.3102 Z-1.2 I0.0062 J-0.0108
G2 X11.8368 Y60.2994 Z-1.2333 I-0.0125 J0.0
G2 Y60.321 Z-1.2667 I0.0063 J0.0108
G2 X11.8555 Y60.3102 Z-1.3 I0.0062 J-0.0108
G2 X11.8368 Y60.2994 Z-1.3333 I-0.0125 J0.0
G2 Y60.321 Z-1.3667 I0.0063 J0.0108
G2 X11.8555 Y60.3102 Z-1.4 I0.0062 J-0.0108
G2 X11.8368 Y60.2994 Z-1.4333 I-0.0125 J0.0
G2 Y60.321 Z-1.4667 I0.0063 J0.0108
G2 X11.8555 Y60.3102 Z-1.5 I0.0062 J-0.0108
G2 X11.8368 Y60.2994 Z-1.5333 I-0.0125 J0.0
G2 Y60.321 Z-1.5667 I0.0063 J0.0108
G2 X11.8555 Y60.3102 Z-1.6 I0.0062 J-0.0108
G2 X11.8368 Y60.2994 Z-1.6333 I-0.0125 J0.0
G2 Y60.321 Z-1.6667 I0.0063 J0.0108
G2 X11.8555 Y60.3102 Z-1.7 I0.0062 J-0.0108
G2 X11.8368 Y60.2994 Z-1.7333 I-0.0125 J0.0
G2 Y60.321 Z-1.7667 I0.0063 J0.0108
G2 X11.8555 Y60.3102 Z-1.8 I0.0062 J-0.0108
G2 X11.8368 Y60.2994 Z-1.8333 I-0.0125 J0.0
G2 Y60.321 Z-1.8667 I0.0063 J0.0108
G2 X11.8555 Y60.3102 Z-1.9 I0.0062 J-0.0108
G2 X11.8368 Y60.2994 Z-1.9333 I-0.0125 J0.0
G2 Y60.321 Z-1.9667 I0.0063 J0.0108
G2 X11.8555 Y60.3102 Z-2.0 I0.0062 J-0.0108
G2 X11.8368 Y60.2994 Z-2.0333 I-0.0125 J0.0
G2 Y60.321 Z-2.0667 I0.0063 J0.0108
G2 X11.8555 Y60.3102 Z-2.1 I0.0062 J-0.0108
G2 X11.8368 Y60.2994 Z-2.1333 I-0.0125 J0.0
G2 Y60.321 Z-2.1667 I0.0063 J0.0108
G2 X11.8555 Y60.3102 Z-2.2 I0.0062 J-0.0108
G2 X11.8368 Y60.2994 Z-2.2333 I-0.0125 J0.0
G2 Y60.321 Z-2.2667 I0.0063 J0.0108
G2 X11.8555 Y60.3102 Z-2.3 I0.0062 J-0.0108
G2 X11.8368 Y60.2994 Z-2.3333 I-0.0125 J0.0
G2 Y60.321 Z-2.3667 I0.0063 J0.0108
G2 X11.8555 Y60.3102 Z-2.4 I0.0062 J-0.0108
G2 X11.8368 Y60.2994 Z-2.4333 I-0.0125 J0.0
G2 Y60.321 Z-2.4667 I0.0063 J0.0108
G2 X11.8555 Y60.3102 Z-2.5 I0.0062 J-0.0108
G2 X11.8368 Y60.2994 Z-2.5333 I-0.0125 J0.0
G2 Y60.321 Z-2.5667 I0.0063 J0.0108
G2 X11.8555 Y60.3102 Z-2.6 I0.0062 J-0.0108
G2 X11.8368 Y60.2994 Z-2.6333 I-0.0125 J0.0
G2 Y60.321 Z-2.6667 I0.0063 J0.0108
G2 X11.8555 Y60.3102 Z-2.7 I0.0062 J-0.0108
G2 X11.8368 Y60.2994 Z-2.7333 I-0.0125 J0.0
G2 Y60.321 Z-2.7667 I0.0063 J0.0108
G2 X11.8555 Y60.3102 Z-2.8 I0.0062 J-0.0108
G2 X11.8368 Y60.2994 Z-2.8333 I-0.0125 J0.0
G2 Y60.321 Z-2.8667 I0.0063 J0.0108
G2 X11.8555 Y60.3102 Z-2.9 I0.0062 J-0.0108
G2 X11.8368 Y60.2994 Z-2.9333 I-0.0125 J0.0
G2 Y60.321 Z-2.9667 I0.0063 J0.0108
G2 X11.8555 Y60.3102 Z-3.0 I0.0062 J-0.0108
G2 X11.8368 Y60.2994 Z-3.0333 I-0.0125 J0.0
G2 Y60.321 Z-3.0667 I0.0063 J0.0108
G2 X11.8555 Y60.3102 Z-3.1 I0.0062 J-0.0108
G2 X11.8368 Y60.2994 Z-3.1333 I-0.0125 J0.0
G2 Y60.321 Z-3.1667 I0.0063 J0.0108
G2 X11.8555 Y60.3102 Z-3.2 I0.0062 J-0.0108
G2 X11.8368 Y60.2994 I-0.0125 J0.0
G2 Y60.321 I0.0063 J0.0108
G2 X11.8555 Y60.3102 I0.0062 J-0.0108
G0 Z3.0
G0 X33.2879 Y75.439
G0 Z0.01
G1 F1000.0 Z0.0
G2 F2000.0 X33.2692 Y75.4282 Z-0.0333 I-0.0125 J0.0
G2 Y75.4498 Z-0.0667 I0.0062 J0.0108
G2 X33.2879 Y75.439 Z-0.1 I0.0063 J-0.0108
G2 X33.2692 Y75.4282 Z-0.1333 I-0.0125 J0.0
G2 Y75.4498 Z-0.1667 I0.0062 J0.0108
G2 X33.2879 Y75.439 Z-0.2 I0.0063 J-0.0108
G2 X33.2692 Y75.4282 Z-0.2333 I-0.0125 J0.0
G2 Y75.4498 Z-0.2667 I0.0062 J0.0108
G2 X33.2879 Y75.439 Z-0.3 I0.0063 J-0.0108
G2 X33.2692 Y75.4282 Z-0.3333 I-0.0125 J0.0
G2 Y75.4498 Z-0.3667 I0.0062 J0.0108
G2 X33.2879 Y75.439 Z-0.4 I0.0063 J-0.0108
G2 X33.2692 Y75.4282 Z-0.4333 I-0.0125 J0.0
G2 Y75.4498 Z-0.4667 I0.0062 J0.0108
G2 X33.2879 Y75.439 Z-0.5 I0.0063 J-0.0108
G2 X33.2692 Y75.4282 Z-0.5333 I-0.0125 J0.0
G2 Y75.4498 Z-0.5667 I0.0062 J0.0108
G2 X33.2879 Y75.439 Z-0.6 I0.0063 J-0.0108
G2 X33.2692 Y75.4282 Z-0.6333 I-0.0125 J0.0
G2 Y75.4498 Z-0.6667 I0.0062 J0.0108
G2 X33.2879 Y75.439 Z-0.7 I0.0063 J-0.0108
G2 X33.2692 Y75.4282 Z-0.7333 I-0.0125 J0.0
G2 Y75.4498 Z-0.7667 I0.0062 J0.0108
G2 X33.2879 Y75.439 Z-0.8 I0.0063 J-0.0108
G2 X33.2692 Y75.4282 Z-0.8333 I-0.0125 J0.0
G2 Y75.4498 Z-0.8667 I0.0062 J0.0108
G2 X33.2879 Y75.439 Z-0.9 I0.0063 J-0.0108
G2 X33.2692 Y75.4282 Z-0.9333 I-0.0125 J0.0
G2 Y75.4498 Z-0.9667 I0.0062 J0.0108
G2 X33.2879 Y75.439 Z-1.0 I0.0063 J-0.0108
G2 X33.2692 Y75.4282 Z-1.0333 I-0.0125 J0.0
G2 Y75.4498 Z-1.0667 I0.0062 J0.0108
G2 X33.2879 Y75.439 Z-1.1 I0.0063 J-0.0108
G2 X33.2692 Y75.4282 Z-1.1333 I-0.0125 J0.0
G2 Y75.4498 Z-1.1667 I0.0062 J0.0108
G2 X33.2879 Y75.439 Z-1.2 I0.0063 J-0.0108
G2 X33.2692 Y75.4282 Z-1.2333 I-0.0125 J0.0
G2 Y75.4498 Z-1.2667 I0.0062 J0.0108
G2 X33.2879 Y75.439 Z-1.3 I0.0063 J-0.0108
G2 X33.2692 Y75.4282 Z-1.3333 I-0.0125 J0.0
G2 Y75.4498 Z-1.3667 I0.0062 J0.0108
G2 X33.2879 Y75.439 Z-1.4 I0.0063 J-0.0108
G2 X33.2692 Y75.4282 Z-1.4333 I-0.0125 J0.0
G2 Y75.4498 Z-1.4667 I0.0062 J0.0108
G2 X33.2879 Y75.439 Z-1.5 I0.0063 J-0.0108
G2 X33.2692 Y75.4282 Z-1.5333 I-0.0125 J0.0
G2 Y75.4498 Z-1.5667 I0.0062 J0.0108
G2 X33.2879 Y75.439 Z-1.6 I0.0063 J-0.0108
G2 X33.2692 Y75.4282 Z-1.6333 I-0.0125 J0.0
G2 Y75.4498 Z-1.6667 I0.0062 J0.0108
G2 X33.2879 Y75.439 Z-1.7 I0.0063 J-0.0108
G2 X33.2692 Y75.4282 Z-1.7333 I-0.0125 J0.0
G2 Y75.4498 Z-1.7667 I0.0062 J0.0108
G2 X33.2879 Y75.439 Z-1.8 I0.0063 J-0.0108
G2 X33.2692 Y75.4282 Z-1.8333 I-0.0125 J0.0
G2 Y75.4498 Z-1.8667 I0.0062 J0.0108
G2 X33.2879 Y75.439 Z-1.9 I0.0063 J-0.0108
G2 X33.2692 Y75.4282 Z-1.9333 I-0.0125 J0.0
G2 Y75.4498 Z-1.9667 I0.0062 J0.0108
G2 X33.2879 Y75.439 Z-2.0 I0.0063 J-0.0108
G2 X33.2692 Y75.4282 Z-2.0333 I-0.0125 J0.0
G2 Y75.4498 Z-2.0667 I0.0062 J0.0108
G2 X33.2879 Y75.439 Z-2.1 I0.0063 J-0.0108
G2 X33.2692 Y75.4282 Z-2.1333 I-0.0125 J0.0
G2 Y75.4498 Z-2.1667 I0.0062 J0.0108
G2 X33.2879 Y75.439 Z-2.2 I0.0063 J-0.0108
G2 X33.2692 Y75.4282 Z-2.2333 I-0.0125 J0.0
G2 Y75.4498 Z-2.2667 I0.0062 J0.0108
G2 X33.2879 Y75.439 Z-2.3 I0.0063 J-0.0108
G2 X33.2692 Y75.4282 Z-2.3333 I-0.0125 J0.0
G2 Y75.4498 Z-2.3667 I0.0062 J0.0108
G2 X33.2879 Y75.439 Z-2.4 I0.0063 J-0.0108
G2 X33.2692 Y75.4282 Z-2.4333 I-0.0125 J0.0
G2 Y75.4498 Z-2.4667 I0.0062 J0.0108
G2 X33.2879 Y75.439 Z-2.5 I0.0063 J-0.0108
G2 X33.2692 Y75.4282 Z-2.5333 I-0.0125 J0.0
G2 Y75.4498 Z-2.5667 I0.0062 J0.0108
G2 X33.2879 Y75.439 Z-2.6 I0.0063 J-0.0108
G2 X33.2692 Y75.4282 Z-2.6333 I-0.0125 J0.0
G2 Y75.4498 Z-2.6667 I0.0062 J0.0108
G2 X33.2879 Y75.439 Z-2.7 I0.0063 J-0.0108
G2 X33.2692 Y75.4282 Z-2.7333 I-0.0125 J0.0
G2 Y75.4498 Z-2.7667 I0.0062 J0.0108
G2 X33.2879 Y75.439 Z-2.8 I0.0063 J-0.0108
G2 X33.2692 Y75.4282 Z-2.8333 I-0.0125 J0.0
G2 Y75.4498 Z-2.8667 I0.0062 J0.0108
G2 X33.2879 Y75.439 Z-2.9 I0.0063 J-0.0108
G2 X33.2692 Y75.4282 Z-2.9333 I-0.0125 J0.0
G2 Y75.4498 Z-2.9667 I0.0063 J0.0108
G2 X33.2879 Y75.439 Z-3.0 I0.0063 J-0.0108
G2 X33.2692 Y75.4282 Z-3.0333 I-0.0125 J0.0
G2 Y75.4498 Z-3.0667 I0.0063 J0.0108
G2 X33.2879 Y75.439 Z-3.1 I0.0063 J-0.0108
G2 X33.2692 Y75.4282 Z-3.1333 I-0.0125 J0.0
G2 Y75.4498 Z-3.1667 I0.0063 J0.0108
G2 X33.2879 Y75.439 Z-3.2 I0.0063 J-0.0108
G2 X33.2692 Y75.4282 I-0.0125 J0.0
G2 Y75.4498 I0.0063 J0.0108
G2 X33.2879 Y75.439 I0.0062 J-0.0108
G0 Z3.0
G0 X24.4072 Y92.6164
G0 Z0.01
G1 F1000.0 Z0.0
G2 F2000.0 X24.3885 Y92.6056 Z-0.0333 I-0.0125 J0.0
G2 Y92.6273 Z-0.0667 I0.0062 J0.0108
G2 X24.4072 Y92.6164 Z-0.1 I0.0063 J-0.0108
G2 X24.3885 Y92.6056 Z-0.1333 I-0.0125 J0.0
G2 Y92.6273 Z-0.1667 I0.0062 J0.0108
G2 X24.4072 Y92.6164 Z-0.2 I0.0063 J-0.0108
G2 X24.3885 Y92.6056 Z-0.2333 I-0.0125 J0.0
G2 Y92.6273 Z-0.2667 I0.0062 J0.0108
G2 X24.4072 Y92.6164 Z-0.3 I0.0063 J-0.0108
G2 X24.3885 Y92.6056 Z-0.3333 I-0.0125 J0.0
G2 Y92.6273 Z-0.3667 I0.0062 J0.0108
G2 X24.4072 Y92.6164 Z-0.4 I0.0063 J-0.0108
G2 X24.3885 Y92.6056 Z-0.4333 I-0.0125 J0.0
G2 Y92.6273 Z-0.4667 I0.0062 J0.0108
G2 X24.4072 Y92.6164 Z-0.5 I0.0063 J-0.0108
G2 X24.3885 Y92.6056 Z-0.5333 I-0.0125 J0.0
G2 Y92.6273 Z-0.5667 I0.0062 J0.0108
G2 X24.4072 Y92.6164 Z-0.6 I0.0063 J-0.0108
G2 X24.3885 Y92.6056 Z-0.6333 I-0.0125 J0.0
G2 Y92.6273 Z-0.6667 I0.0062 J0.0108
G2 X24.4072 Y92.6164 Z-0.7 I0.0063 J-0.0108
G2 X24.3885 Y92.6056 Z-0.7333 I-0.0125 J0.0
G2 Y92.6273 Z-0.7667 I0.0062 J0.0108
G2 X24.4072 Y92.6164 Z-0.8 I0.0063 J-0.0108
G2 X24.3885 Y92.6056 Z-0.8333 I-0.0125 J0.0
G2 Y92.6273 Z-0.8667 I0.0062 J0.0108
G2 X24.4072 Y92.6164 Z-0.9 I0.0063 J-0.0108
G2 X24.3885 Y92.6056 Z-0.9333 I-0.0125 J0.0
G2 Y92.6273 Z-0.9667 I0.0062 J0.0108
G2 X24.4072 Y92.6164 Z-1.0 I0.0063 J-0.0108
G2 X24.3885 Y92.6056 Z-1.0333 I-0.0125 J0.0
G2 Y92.6273 Z-1.0667 I0.0062 J0.0108
G2 X24.4072 Y92.6164 Z-1.1 I0.0063 J-0.0108
G2 X24.3885 Y92.6056 Z-1.1333 I-0.0125 J0.0
G2 Y92.6273 Z-1.1667 I0.0062 J0.0108
G2 X24.4072 Y92.6164 Z-1.2 I0.0063 J-0.0108
G2 X24.3885 Y92.6056 Z-1.2333 I-0.0125 J0.0
G2 Y92.6273 Z-1.2667 I0.0062 J0.0108
G2 X24.4072 Y92.6164 Z-1.3 I0.0063 J-0.0108
G2 X24.3885 Y92.6056 Z-1.3333 I-0.0125 J0.0
G2 Y92.6273 Z-1.3667 I0.0062 J0.0108
G2 X24.4072 Y92.6164 Z-1.4 I0.0063 J-0.0108
G2 X24.3885 Y92.6056 Z-1.4333 I-0.0125 J0.0
G2 Y92.6273 Z-1.4667 I0.0062 J0.0108
G2 X24.4072 Y92.6164 Z-1.5 I0.0063 J-0.0108
G2 X24.3885 Y92.6056 Z-1.5333 I-0.0125 J0.0
G2 Y92.6273 Z-1.5667 I0.0062 J0.0108
G2 X24.4072 Y92.6164 Z-1.6 I0.0063 J-0.0108
G2 X24.3885 Y92.6056 Z-1.6333 I-0.0125 J0.0
G2 Y92.6273 Z-1.6667 I0.0062 J0.0108
G2 X24.4072 Y92.6164 Z-1.7 I0.0063 J-0.0108
G2 X24.3885 Y92.6056 Z-1.7333 I-0.0125 J0.0
G2 Y92.6273 Z-1.7667 I0.0062 J0.0108
G2 X24.4072 Y92.6164 Z-1.8 I0.0063 J-0.0108
G2 X24.3885 Y92.6056 Z-1.8333 I-0.0125 J0.0
G2 Y92.6273 Z-1.8667 I0.0062 J0.0108
G2 X24.4072 Y92.6164 Z-1.9 I0.0063 J-0.0108
G2 X24.3885 Y92.6056 Z-1.9333 I-0.0125 J0.0
G2 Y92.6273 Z-1.9667 I0.0062 J0.0108
G2 X24.4072 Y92.6164 Z-2.0 I0.0063 J-0.0108
G2 X24.3885 Y92.6056 Z-2.0333 I-0.0125 J0.0
G2 Y92.6273 Z-2.0667 I0.0062 J0.0108
G2 X24.4072 Y92.6164 Z-2.1 I0.0063 J-0.0108
G2 X24.3885 Y92.6056 Z-2.1333 I-0.0125 J0.0
G2 Y92.6273 Z-2.1667 I0.0062 J0.0108
G2 X24.4072 Y92.6164 Z-2.2 I0.0063 J-0.0108
G2 X24.3885 Y92.6056 Z-2.2333 I-0.0125 J0.0
G2 Y92.6273 Z-2.2667 I0.0062 J0.0108
G2 X24.4072 Y92.6164 Z-2.3 I0.0063 J-0.0108
G2 X24.3885 Y92.6056 Z-2.3333 I-0.0125 J0.0
G2 Y92.6273 Z-2.3667 I0.0062 J0.0108
G2 X24.4072 Y92.6164 Z-2.4 I0.0063 J-0.0108
G2 X24.3885 Y92.6056 Z-2.4333 I-0.0125 J0.0
G2 Y92.6273 Z-2.4667 I0.0062 J0.0108
G2 X24.4072 Y92.6164 Z-2.5 I0.0063 J-0.0108
G2 X24.3885 Y92.6056 Z-2.5333 I-0.0125 J0.0
G2 Y92.6273 Z-2.5667 I0.0062 J0.0108
G2 X24.4072 Y92.6164 Z-2.6 I0.0063 J-0.0108
G2 X24.3885 Y92.6056 Z-2.6333 I-0.0125 J0.0
G2 Y92.6273 Z-2.6667 I0.0062 J0.0108
G2 X24.4072 Y92.6164 Z-2.7 I0.0063 J-0.0108
G2 X24.3885 Y92.6056 Z-2.7333 I-0.0125 J0.0
G2 Y92.6273 Z-2.7667 I0.0062 J0.0108
G2 X24.4072 Y92.6164 Z-2.8 I0.0063 J-0.0108
G2 X24.3885 Y92.6056 Z-2.8333 I-0.0125 J0.0
G2 Y92.6273 Z-2.8667 I0.0062 J0.0108
G2 X24.4072 Y92.6164 Z-2.9 I0.0063 J-0.0108
G2 X24.3885 Y92.6056 Z-2.9333 I-0.0125 J0.0
G2 Y92.6273 Z-2.9667 I0.0062 J0.0108
G2 X24.4072 Y92.6164 Z-3.0 I0.0063 J-0.0108
G2 X24.3885 Y92.6056 Z-3.0333 I-0.0125 J0.0
G2 Y92.6273 Z-3.0667 I0.0062 J0.0108
G2 X24.4072 Y92.6164 Z-3.1 I0.0063 J-0.0108
G2 X24.3885 Y92.6056 Z-3.1333 I-0.0125 J0.0
G2 Y92.6273 Z-3.1667 I0.0062 J0.0108
G2 X24.4072 Y92.6164 Z-3.2 I0.0063 J-0.0108
G2 X24.3885 Y92.6056 I-0.0125 J0.0
G2 Y92.6273 I0.0063 J0.0108
G2 X24.4072 Y92.6164 I0.0062 J-0.0108
G0 Z3.0
G0 X20.1816 Y102.4592
G0 Z0.01
G1 F1000.0 Z0.0
G2 F2000.0 X20.1628 Y102.4483 Z-0.0333 I-0.0125 J0.0
G2 Y102.47 Z-0.0667 I0.0062 J0.0108
G2 X20.1816 Y102.4592 Z-0.1 I0.0063 J-0.0108
G2 X20.1628 Y102.4483 Z-0.1333 I-0.0125 J0.0
G2 Y102.47 Z-0.1667 I0.0062 J0.0108
G2 X20.1816 Y102.4592 Z-0.2 I0.0063 J-0.0108
G2 X20.1628 Y102.4483 Z-0.2333 I-0.0125 J0.0
G2 Y102.47 Z-0.2667 I0.0062 J0.0108
G2 X20.1816 Y102.4592 Z-0.3 I0.0063 J-0.0108
G2 X20.1628 Y102.4483 Z-0.3333 I-0.0125 J0.0
G2 Y102.47 Z-0.3667 I0.0062 J0.0108
G2 X20.1816 Y102.4592 Z-0.4 I0.0063 J-0.0108
G2 X20.1628 Y102.4483 Z-0.4333 I-0.0125 J0.0
G2 Y102.47 Z-0.4667 I0.0062 J0.0108
G2 X20.1816 Y102.4592 Z-0.5 I0.0063 J-0.0108
G2 X20.1628 Y102.4483 Z-0.5333 I-0.0125 J0.0
G2 Y102.47 Z-0.5667 I0.0062 J0.0108
G2 X20.1816 Y102.4592 Z-0.6 I0.0063 J-0.0108
G2 X20.1628 Y102.4483 Z-0.6333 I-0.0125 J0.0
G2 Y102.47 Z-0.6667 I0.0062 J0.0108
G2 X20.1816 Y102.4592 Z-0.7 I0.0063 J-0.0108
G2 X20.1628 Y102.4483 Z-0.7333 I-0.0125 J0.0
G2 Y102.47 Z-0.7667 I0.0062 J0.0108
G2 X20.1816 Y102.4592 Z-0.8 I0.0063 J-0.0108
G2 X20.1628 Y102.4483 Z-0.8333 I-0.0125 J0.0
G2 Y102.47 Z-0.8667 I0.0062 J0.0108
G2 X20.1816 Y102.4592 Z-0.9 I0.0063 J-0.0108
G2 X20.1628 Y102.4483 Z-0.9333 I-0.0125 J0.0
G2 Y102.47 Z-0.9667 I0.0062 J0.0108
G2 X20.1816 Y102.4592 Z-1.0 I0.0063 J-0.0108
G2 X20.1628 Y102.4483 Z-1.0333 I-0.0125 J0.0
G2 Y102.47 Z-1.0667 I0.0062 J0.0108
G2 X20.1816 Y102.4592 Z-1.1 I0.0063 J-0.0108
G2 X20.1628 Y102.4483 Z-1.1333 I-0.0125 J0.0
G2 Y102.47 Z-1.1667 I0.0062 J0.0108
G2 X20.1816 Y102.4592 Z-1.2 I0.0063 J-0.0108
G2 X20.1628 Y102.4483 Z-1.2333 I-0.0125 J0.0
G2 Y102.47 Z-1.2667 I0.0062 J0.0108
G2 X20.1816 Y102.4592 Z-1.3 I0.0063 J-0.0108
G2 X20.1628 Y102.4483 Z-1.3333 I-0.0125 J0.0
G2 Y102.47 Z-1.3667 I0.0062 J0.0108
G2 X20.1816 Y102.4592 Z-1.4 I0.0063 J-0.0108
G2 X20.1628 Y102.4483 Z-1.4333 I-0.0125 J0.0
G2 Y102.47 Z-1.4667 I0.0062 J0.0108
G2 X20.1816 Y102.4592 Z-1.5 I0.0063 J-0.0108
G2 X20.1628 Y102.4483 Z-1.5333 I-0.0125 J0.0
G2 Y102.47 Z-1.5667 I0.0062 J0.0108
G2 X20.1816 Y102.4592 Z-1.6 I0.0063 J-0.0108
G2 X20.1628 Y102.4483 Z-1.6333 I-0.0125 J0.0
G2 Y102.47 Z-1.6667 I0.0062 J0.0108
G2 X20.1816 Y102.4592 Z-1.7 I0.0063 J-0.0108
G2 X20.1628 Y102.4483 Z-1.7333 I-0.0125 J0.0
G2 Y102.47 Z-1.7667 I0.0062 J0.0108
G2 X20.1816 Y102.4592 Z-1.8 I0.0063 J-0.0108
G2 X20.1628 Y102.4483 Z-1.8333 I-0.0125 J0.0
G2 Y102.47 Z-1.8667 I0.0062 J0.0108
G2 X20.1816 Y102.4592 Z-1.9 I0.0063 J-0.0108
G2 X20.1628 Y102.4483 Z-1.9333 I-0.0125 J0.0
G2 Y102.47 Z-1.9667 I0.0062 J0.0108
G2 X20.1816 Y102.4592 Z-2.0 I0.0063 J-0.0108
G2 X20.1628 Y102.4483 Z-2.0333 I-0.0125 J0.0
G2 Y102.47 Z-2.0667 I0.0062 J0.0108
G2 X20.1816 Y102.4592 Z-2.1 I0.0063 J-0.0108
G2 X20.1628 Y102.4483 Z-2.1333 I-0.0125 J0.0
G2 Y102.47 Z-2.1667 I0.0062 J0.0108
G2 X20.1816 Y102.4592 Z-2.2 I0.0063 J-0.0108
G2 X20.1628 Y102.4483 Z-2.2333 I-0.0125 J0.0
G2 Y102.47 Z-2.2667 I0.0062 J0.0108
G2 X20.1816 Y102.4592 Z-2.3 I0.0063 J-0.0108
G2 X20.1628 Y102.4483 Z-2.3333 I-0.0125 J0.0
G2 Y102.47 Z-2.3667 I0.0062 J0.0108
G2 X20.1816 Y102.4592 Z-2.4 I0.0063 J-0.0108
G2 X20.1628 Y102.4483 Z-2.4333 I-0.0125 J0.0
G2 Y102.47 Z-2.4667 I0.0062 J0.0108
G2 X20.1816 Y102.4592 Z-2.5 I0.0063 J-0.0108
G2 X20.1628 Y102.4483 Z-2.5333 I-0.0125 J0.0
G2 Y102.47 Z-2.5667 I0.0062 J0.0108
G2 X20.1816 Y102.4592 Z-2.6 I0.0063 J-0.0108
G2 X20.1628 Y102.4483 Z-2.6333 I-0.0125 J0.0
G2 Y102.47 Z-2.6667 I0.0062 J0.0108
G2 X20.1816 Y102.4592 Z-2.7 I0.0063 J-0.0108
G2 X20.1628 Y102.4483 Z-2.7333 I-0.0125 J0.0
G2 Y102.47 Z-2.7667 I0.0062 J0.0108
G2 X20.1816 Y102.4592 Z-2.8 I0.0063 J-0.0108
G2 X20.1628 Y102.4483 Z-2.8333 I-0.0125 J0.0
G2 Y102.47 Z-2.8667 I0.0062 J0.0108
G2 X20.1816 Y102.4592 Z-2.9 I0.0063 J-0.0108
G2 X20.1628 Y102.4483 Z-2.9333 I-0.0125 J0.0
G2 Y102.47 Z-2.9667 I0.0062 J0.0108
G2 X20.1816 Y102.4592 Z-3.0 I0.0063 J-0.0108
G2 X20.1628 Y102.4483 Z-3.0333 I-0.0125 J0.0
G2 Y102.47 Z-3.0667 I0.0062 J0.0108
G2 X20.1816 Y102.4592 Z-3.1 I0.0063 J-0.0108
G2 X20.1628 Y102.4483 Z-3.1333 I-0.0125 J0.0
G2 Y102.47 Z-3.1667 I0.0062 J0.0108
G2 X20.1816 Y102.4592 Z-3.2 I0.0063 J-0.0108
G2 X20.1628 Y102.4483 I-0.0125 J0.0
G2 Y102.47 I0.0063 J0.0108
G2 X20.1816 Y102.4592 I0.0062 J-0.0108
G0 Z3.0
G0 X18.0016 Y112.6305
G0 Z0.01
G1 F1000.0 Z0.0
G2 F2000.0 X17.9828 Y112.6197 Z-0.0333 I-0.0125 J0.0
G2 Y112.6414 Z-0.0667 I0.0062 J0.0108
G2 X18.0016 Y112.6305 Z-0.1 I0.0063 J-0.0108
G2 X17.9828 Y112.6197 Z-0.1333 I-0.0125 J0.0
G2 Y112.6414 Z-0.1667 I0.0062 J0.0108
G2 X18.0016 Y112.6305 Z-0.2 I0.0063 J-0.0108
G2 X17.9828 Y112.6197 Z-0.2333 I-0.0125 J0.0
G2 Y112.6414 Z-0.2667 I0.0062 J0.0108
G2 X18.0016 Y112.6305 Z-0.3 I0.0063 J-0.0108
G2 X17.9828 Y112.6197 Z-0.3333 I-0.0125 J0.0
G2 Y112.6414 Z-0.3667 I0.0062 J0.0108
G2 X18.0016 Y112.6305 Z-0.4 I0.0063 J-0.0108
G2 X17.9828 Y112.6197 Z-0.4333 I-0.0125 J0.0
G2 Y112.6414 Z-0.4667 I0.0062 J0.0108
G2 X18.0016 Y112.6305 Z-0.5 I0.0063 J-0.0108
G2 X17.9828 Y112.6197 Z-0.5333 I-0.0125 J0.0
G2 Y112.6414 Z-0.5667 I0.0062 J0.0108
G2 X18.0016 Y112.6305 Z-0.6 I0.0063 J-0.0108
G2 X17.9828 Y112.6197 Z-0.6333 I-0.0125 J0.0
G2 Y112.6414 Z-0.6667 I0.0062 J0.0108
G2 X18.0016 Y112.6305 Z-0.7 I0.0063 J-0.0108
G2 X17.9828 Y112.6197 Z-0.7333 I-0.0125 J0.0
G2 Y112.6414 Z-0.7667 I0.0062 J0.0108
G2 X18.0016 Y112.6305 Z-0.8 I0.0063 J-0.0108
G2 X17.9828 Y112.6197 Z-0.8333 I-0.0125 J0.0
G2 Y112.6414 Z-0.8667 I0.0062 J0.0108
G2 X18.0016 Y112.6305 Z-0.9 I0.0063 J-0.0108
G2 X17.9828 Y112.6197 Z-0.9333 I-0.0125 J0.0
G2 Y112.6414 Z-0.9667 I0.0062 J0.0108
G2 X18.0016 Y112.6305 Z-1.0 I0.0063 J-0.0108
G2 X17.9828 Y112.6197 Z-1.0333 I-0.0125 J0.0
G2 Y112.6414 Z-1.0667 I0.0062 J0.0108
G2 X18.0016 Y112.6305 Z-1.1 I0.0063 J-0.0108
G2 X17.9828 Y112.6197 Z-1.1333 I-0.0125 J0.0
G2 Y112.6414 Z-1.1667 I0.0062 J0.0108
G2 X18.0016 Y112.6305 Z-1.2 I0.0063 J-0.0108
G2 X17.9828 Y112.6197 Z-1.2333 I-0.0125 J0.0
G2 Y112.6414 Z-1.2667 I0.0062 J0.0108
G2 X18.0016 Y112.6305 Z-1.3 I0.0063 J-0.0108
G2 X17.9828 Y112.6197 Z-1.3333 I-0.0125 J0.0
G2 Y112.6414 Z-1.3667 I0.0062 J0.0108
G2 X18.0016 Y112.6305 Z-1.4 I0.0063 J-0.0108
G2 X17.9828 Y112.6197 Z-1.4333 I-0.0125 J0.0
G2 Y112.6414 Z-1.4667 I0.0062 J0.0108
G2 X18.0016 Y112.6305 Z-1.5 I0.0063 J-0.0108
G2 X17.9828 Y112.6197 Z-1.5333 I-0.0125 J0.0
G2 Y112.6414 Z-1.5667 I0.0062 J0.0108
G2 X18.0016 Y112.6305 Z-1.6 I0.0063 J-0.0108
G2 X17.9828 Y112.6197 Z-1.6333 I-0.0125 J0.0
G2 Y112.6414 Z-1.6667 I0.0062 J0.0108
G2 X18.0016 Y112.6305 Z-1.7 I0.0063 J-0.0108
G2 X17.9828 Y112.6197 Z-1.7333 I-0.0125 J0.0
G2 Y112.6414 Z-1.7667 I0.0062 J0.0108
G2 X18.0016 Y112.6305 Z-1.8 I0.0063 J-0.0108
G2 X17.9828 Y112.6197 Z-1.8333 I-0.0125 J0.0
G2 Y112.6414 Z-1.8667 I0.0062 J0.0108
G2 X18.0016 Y112.6305 Z-1.9 I0.0063 J-0.0108
G2 X17.9828 Y112.6197 Z-1.9333 I-0.0125 J0.0
G2 Y112.6414 Z-1.9667 I0.0062 J0.0108
G2 X18.0016 Y112.6305 Z-2.0 I0.0063 J-0.0108
G2 X17.9828 Y112.6197 Z-2.0333 I-0.0125 J0.0
G2 Y112.6414 Z-2.0667 I0.0062 J0.0108
G2 X18.0016 Y112.6305 Z-2.1 I0.0063 J-0.0108
G2 X17.9828 Y112.6197 Z-2.1333 I-0.0125 J0.0
G2 Y112.6414 Z-2.1667 I0.0062 J0.0108
G2 X18.0016 Y112.6305 Z-2.2 I0.0063 J-0.0108
G2 X17.9828 Y112.6197 Z-2.2333 I-0.0125 J0.0
G2 Y112.6414 Z-2.2667 I0.0062 J0.0108
G2 X18.0016 Y112.6305 Z-2.3 I0.0063 J-0.0108
G2 X17.9828 Y112.6197 Z-2.3333 I-0.0125 J0.0
G2 Y112.6414 Z-2.3667 I0.0062 J0.0108
G2 X18.0016 Y112.6305 Z-2.4 I0.0063 J-0.0108
G2 X17.9828 Y112.6197 Z-2.4333 I-0.0125 J0.0
G2 Y112.6414 Z-2.4667 I0.0062 J0.0108
G2 X18.0016 Y112.6305 Z-2.5 I0.0063 J-0.0108
G2 X17.9828 Y112.6197 Z-2.5333 I-0.0125 J0.0
G2 Y112.6414 Z-2.5667 I0.0062 J0.0108
G2 X18.0016 Y112.6305 Z-2.6 I0.0063 J-0.0108
G2 X17.9828 Y112.6197 Z-2.6333 I-0.0125 J0.0
G2 Y112.6414 Z-2.6667 I0.0062 J0.0108
G2 X18.0016 Y112.6305 Z-2.7 I0.0063 J-0.0108
G2 X17.9828 Y112.6197 Z-2.7333 I-0.0125 J0.0
G2 Y112.6414 Z-2.7667 I0.0062 J0.0108
G2 X18.0016 Y112.6305 Z-2.8 I0.0063 J-0.0108
G2 X17.9828 Y112.6197 Z-2.8333 I-0.0125 J0.0
G2 Y112.6414 Z-2.8667 I0.0062 J0.0108
G2 X18.0016 Y112.6305 Z-2.9 I0.0063 J-0.0108
G2 X17.9828 Y112.6197 Z-2.9333 I-0.0125 J0.0
G2 Y112.6414 Z-2.9667 I0.0062 J0.0108
G2 X18.0016 Y112.6305 Z-3.0 I0.0063 J-0.0108
G2 X17.9828 Y112.6197 Z-3.0333 I-0.0125 J0.0
G2 Y112.6414 Z-3.0667 I0.0062 J0.0108
G2 X18.0016 Y112.6305 Z-3.1 I0.0063 J-0.0108
G2 X17.9828 Y112.6197 Z-3.1333 I-0.0125 J0.0
G2 Y112.6414 Z-3.1667 I0.0062 J0.0108
G2 X18.0016 Y112.6305 Z-3.2 I0.0063 J-0.0108
G2 X17.9828 Y112.6197 I-0.0125 J0.0
G2 Y112.6414 I0.0063 J0.0108
G2 X18.0016 Y112.6305 I0.0062 J-0.0108
G0 Z3.0
G0 X27.9298 Y112.7881
G0 Z0.01
G1 F1000.0 Z0.0
G2 F2000.0 X27.9111 Y112.7773 Z-0.0333 I-0.0125 J0.0
G2 Y112.799 Z-0.0667 I0.0062 J0.0108
G2 X27.9298 Y112.7881 Z-0.1 I0.0063 J-0.0108
G2 X27.9111 Y112.7773 Z-0.1333 I-0.0125 J0.0
G2 Y112.799 Z-0.1667 I0.0062 J0.0108
G2 X27.9298 Y112.7881 Z-0.2 I0.0063 J-0.0108
G2 X27.9111 Y112.7773 Z-0.2333 I-0.0125 J0.0
G2 Y112.799 Z-0.2667 I0.0062 J0.0108
G2 X27.9298 Y112.7881 Z-0.3 I0.0063 J-0.0108
G2 X27.9111 Y112.7773 Z-0.3333 I-0.0125 J0.0
G2 Y112.799 Z-0.3667 I0.0062 J0.0108
G2 X27.9298 Y112.7881 Z-0.4 I0.0063 J-0.0108
G2 X27.9111 Y112.7773 Z-0.4333 I-0.0125 J0.0
G2 Y112.799 Z-0.4667 I0.0062 J0.0108
G2 X27.9298 Y112.7881 Z-0.5 I0.0063 J-0.0108
G2 X27.9111 Y112.7773 Z-0.5333 I-0.0125 J0.0
G2 Y112.799 Z-0.5667 I0.0062 J0.0108
G2 X27.9298 Y112.7881 Z-0.6 I0.0063 J-0.0108
G2 X27.9111 Y112.7773 Z-0.6333 I-0.0125 J0.0
G2 Y112.799 Z-0.6667 I0.0062 J0.0108
G2 X27.9298 Y112.7881 Z-0.7 I0.0063 J-0.0108
G2 X27.9111 Y112.7773 Z-0.7333 I-0.0125 J0.0
G2 Y112.799 Z-0.7667 I0.0062 J0.0108
G2 X27.9298 Y112.7881 Z-0.8 I0.0063 J-0.0108
G2 X27.9111 Y112.7773 Z-0.8333 I-0.0125 J0.0
G2 Y112.799 Z-0.8667 I0.0062 J0.0108
G2 X27.9298 Y112.7881 Z-0.9 I0.0063 J-0.0108
G2 X27.9111 Y112.7773 Z-0.9333 I-0.0125 J0.0
G2 Y112.799 Z-0.9667 I0.0062 J0.0108
G2 X27.9298 Y112.7881 Z-1.0 I0.0063 J-0.0108
G2 X27.9111 Y112.7773 Z-1.0333 I-0.0125 J0.0
G2 Y112.799 Z-1.0667 I0.0062 J0.0108
G2 X27.9298 Y112.7881 Z-1.1 I0.0063 J-0.0108
G2 X27.9111 Y112.7773 Z-1.1333 I-0.0125 J0.0
G2 Y112.799 Z-1.1667 I0.0062 J0.0108
G2 X27.9298 Y112.7881 Z-1.2 I0.0063 J-0.0108
G2 X27.9111 Y112.7773 Z-1.2333 I-0.0125 J0.0
G2 Y112.799 Z-1.2667 I0.0062 J0.0108
G2 X27.9298 Y112.7881 Z-1.3 I0.0063 J-0.0108
G2 X27.9111 Y112.7773 Z-1.3333 I-0.0125 J0.0
G2 Y112.799 Z-1.3667 I0.0062 J0.0108
G2 X27.9298 Y112.7881 Z-1.4 I0.0063 J-0.0108
G2 X27.9111 Y112.7773 Z-1.4333 I-0.0125 J0.0
G2 Y112.799 Z-1.4667 I0.0062 J0.0108
G2 X27.9298 Y112.7881 Z-1.5 I0.0063 J-0.0108
G2 X27.9111 Y112.7773 Z-1.5333 I-0.0125 J0.0
G2 Y112.799 Z-1.5667 I0.0062 J0.0108
G2 X27.9298 Y112.7881 Z-1.6 I0.0063 J-0.0108
G2 X27.9111 Y112.7773 Z-1.6333 I-0.0125 J0.0
G2 Y112.799 Z-1.6667 I0.0062 J0.0108
G2 X27.9298 Y112.7881 Z-1.7 I0.0063 J-0.0108
G2 X27.9111 Y112.7773 Z-1.7333 I-0.0125 J0.0
G2 Y112.799 Z-1.7667 I0.0062 J0.0108
G2 X27.9298 Y112.7881 Z-1.8 I0.0063 J-0.0108
G2 X27.9111 Y112.7773 Z-1.8333 I-0.0125 J0.0
G2 Y112.799 Z-1.8667 I0.0062 J0.0108
G2 X27.9298 Y112.7881 Z-1.9 I0.0063 J-0.0108
G2 X27.9111 Y112.7773 Z-1.9333 I-0.0125 J0.0
G2 Y112.799 Z-1.9667 I0.0062 J0.0108
G2 X27.9298 Y112.7881 Z-2.0 I0.0063 J-0.0108
G2 X27.9111 Y112.7773 Z-2.0333 I-0.0125 J0.0
G2 Y112.799 Z-2.0667 I0.0062 J0.0108
G2 X27.9298 Y112.7881 Z-2.1 I0.0063 J-0.0108
G2 X27.9111 Y112.7773 Z-2.1333 I-0.0125 J0.0
G2 Y112.799 Z-2.1667 I0.0062 J0.0108
G2 X27.9298 Y112.7881 Z-2.2 I0.0063 J-0.0108
G2 X27.9111 Y112.7773 Z-2.2333 I-0.0125 J0.0
G2 Y112.799 Z-2.2667 I0.0062 J0.0108
G2 X27.9298 Y112.7881 Z-2.3 I0.0063 J-0.0108
G2 X27.9111 Y112.7773 Z-2.3333 I-0.0125 J0.0
G2 Y112.799 Z-2.3667 I0.0062 J0.0108
G2 X27.9298 Y112.7881 Z-2.4 I0.0063 J-0.0108
G2 X27.9111 Y112.7773 Z-2.4333 I-0.0125 J0.0
G2 Y112.799 Z-2.4667 I0.0062 J0.0108
G2 X27.9298 Y112.7881 Z-2.5 I0.0063 J-0.0108
G2 X27.9111 Y112.7773 Z-2.5333 I-0.0125 J0.0
G2 Y112.799 Z-2.5667 I0.0062 J0.0108
G2 X27.9298 Y112.7881 Z-2.6 I0.0063 J-0.0108
G2 X27.9111 Y112.7773 Z-2.6333 I-0.0125 J0.0
G2 Y112.799 Z-2.6667 I0.0062 J0.0108
G2 X27.9298 Y112.7881 Z-2.7 I0.0063 J-0.0108
G2 X27.9111 Y112.7773 Z-2.7333 I-0.0125 J0.0
G2 Y112.799 Z-2.7667 I0.0062 J0.0108
G2 X27.9298 Y112.7881 Z-2.8 I0.0063 J-0.0108
G2 X27.9111 Y112.7773 Z-2.8333 I-0.0125 J0.0
G2 Y112.799 Z-2.8667 I0.0062 J0.0108
G2 X27.9298 Y112.7881 Z-2.9 I0.0063 J-0.0108
G2 X27.9111 Y112.7773 Z-2.9333 I-0.0125 J0.0
G2 Y112.799 Z-2.9667 I0.0062 J0.0108
G2 X27.9298 Y112.7881 Z-3.0 I0.0063 J-0.0108
G2 X27.9111 Y112.7773 Z-3.0333 I-0.0125 J0.0
G2 Y112.799 Z-3.0667 I0.0062 J0.0108
G2 X27.9298 Y112.7881 Z-3.1 I0.0063 J-0.0108
G2 X27.9111 Y112.7773 Z-3.1333 I-0.0125 J0.0
G2 Y112.799 Z-3.1667 I0.0062 J0.0108
G2 X27.9298 Y112.7881 Z-3.2 I0.0063 J-0.0108
G2 X27.9111 Y112.7773 I-0.0125 J0.0
G2 Y112.799 I0.0063 J0.0108
G2 X27.9298 Y112.7881 I0.0062 J-0.0108
G0 Z3.0
G0 X38.0157 Y112.9457
G0 Z0.01
G1 F1000.0 Z0.0
G2 F2000.0 X37.9969 Y112.9349 Z-0.0333 I-0.0125 J0.0
G2 Y112.9566 Z-0.0667 I0.0062 J0.0108
G2 X38.0157 Y112.9457 Z-0.1 I0.0063 J-0.0108
G2 X37.9969 Y112.9349 Z-0.1333 I-0.0125 J0.0
G2 Y112.9566 Z-0.1667 I0.0062 J0.0108
G2 X38.0157 Y112.9457 Z-0.2 I0.0063 J-0.0108
G2 X37.9969 Y112.9349 Z-0.2333 I-0.0125 J0.0
G2 Y112.9566 Z-0.2667 I0.0062 J0.0108
G2 X38.0157 Y112.9457 Z-0.3 I0.0063 J-0.0108
G2 X37.9969 Y112.9349 Z-0.3333 I-0.0125 J0.0
G2 Y112.9566 Z-0.3667 I0.0062 J0.0108
G2 X38.0157 Y112.9457 Z-0.4 I0.0063 J-0.0108
G2 X37.9969 Y112.9349 Z-0.4333 I-0.0125 J0.0
G2 Y112.9566 Z-0.4667 I0.0062 J0.0108
G2 X38.0157 Y112.9457 Z-0.5 I0.0063 J-0.0108
G2 X37.9969 Y112.9349 Z-0.5333 I-0.0125 J0.0
G2 Y112.9566 Z-0.5667 I0.0062 J0.0108
G2 X38.0157 Y112.9457 Z-0.6 I0.0063 J-0.0108
G2 X37.9969 Y112.9349 Z-0.6333 I-0.0125 J0.0
G2 Y112.9566 Z-0.6667 I0.0062 J0.0108
G2 X38.0157 Y112.9457 Z-0.7 I0.0063 J-0.0108
G2 X37.9969 Y112.9349 Z-0.7333 I-0.0125 J0.0
G2 Y112.9566 Z-0.7667 I0.0062 J0.0108
G2 X38.0157 Y112.9457 Z-0.8 I0.0063 J-0.0108
G2 X37.9969 Y112.9349 Z-0.8333 I-0.0125 J0.0
G2 Y112.9566 Z-0.8667 I0.0062 J0.0108
G2 X38.0157 Y112.9457 Z-0.9 I0.0063 J-0.0108
G2 X37.9969 Y112.9349 Z-0.9333 I-0.0125 J0.0
G2 Y112.9566 Z-0.9667 I0.0062 J0.0108
G2 X38.0157 Y112.9457 Z-1.0 I0.0063 J-0.0108
G2 X37.9969 Y112.9349 Z-1.0333 I-0.0125 J0.0
G2 Y112.9566 Z-1.0667 I0.0062 J0.0108
G2 X38.0157 Y112.9457 Z-1.1 I0.0063 J-0.0108
G2 X37.9969 Y112.9349 Z-1.1333 I-0.0125 J0.0
G2 Y112.9566 Z-1.1667 I0.0062 J0.0108
G2 X38.0157 Y112.9457 Z-1.2 I0.0063 J-0.0108
G2 X37.9969 Y112.9349 Z-1.2333 I-0.0125 J0.0
G2 Y112.9566 Z-1.2667 I0.0062 J0.0108
G2 X38.0157 Y112.9457 Z-1.3 I0.0063 J-0.0108
G2 X37.9969 Y112.9349 Z-1.3333 I-0.0125 J0.0
G2 Y112.9566 Z-1.3667 I0.0062 J0.0108
G2 X38.0157 Y112.9457 Z-1.4 I0.0063 J-0.0108
G2 X37.9969 Y112.9349 Z-1.4333 I-0.0125 J0.0
G2 Y112.9566 Z-1.4667 I0.0062 J0.0108
G2 X38.0157 Y112.9457 Z-1.5 I0.0063 J-0.0108
G2 X37.9969 Y112.9349 Z-1.5333 I-0.0125 J0.0
G2 Y112.9566 Z-1.5667 I0.0062 J0.0108
G2 X38.0157 Y112.9457 Z-1.6 I0.0063 J-0.0108
G2 X37.9969 Y112.9349 Z-1.6333 I-0.0125 J0.0
G2 Y112.9566 Z-1.6667 I0.0062 J0.0108
G2 X38.0157 Y112.9457 Z-1.7 I0.0063 J-0.0108
G2 X37.9969 Y112.9349 Z-1.7333 I-0.0125 J0.0
G2 Y112.9566 Z-1.7667 I0.0062 J0.0108
G2 X38.0157 Y112.9457 Z-1.8 I0.0063 J-0.0108
G2 X37.9969 Y112.9349 Z-1.8333 I-0.0125 J0.0
G2 Y112.9566 Z-1.8667 I0.0062 J0.0108
G2 X38.0157 Y112.9457 Z-1.9 I0.0063 J-0.0108
G2 X37.9969 Y112.9349 Z-1.9333 I-0.0125 J0.0
G2 Y112.9566 Z-1.9667 I0.0062 J0.0108
G2 X38.0157 Y112.9457 Z-2.0 I0.0063 J-0.0108
G2 X37.9969 Y112.9349 Z-2.0333 I-0.0125 J0.0
G2 Y112.9566 Z-2.0667 I0.0062 J0.0108
G2 X38.0157 Y112.9457 Z-2.1 I0.0063 J-0.0108
G2 X37.9969 Y112.9349 Z-2.1333 I-0.0125 J0.0
G2 Y112.9566 Z-2.1667 I0.0062 J0.0108
G2 X38.0157 Y112.9457 Z-2.2 I0.0063 J-0.0108
G2 X37.9969 Y112.9349 Z-2.2333 I-0.0125 J0.0
G2 Y112.9566 Z-2.2667 I0.0062 J0.0108
G2 X38.0157 Y112.9457 Z-2.3 I0.0063 J-0.0108
G2 X37.9969 Y112.9349 Z-2.3333 I-0.0125 J0.0
G2 Y112.9566 Z-2.3667 I0.0062 J0.0108
G2 X38.0157 Y112.9457 Z-2.4 I0.0063 J-0.0108
G2 X37.9969 Y112.9349 Z-2.4333 I-0.0125 J0.0
G2 Y112.9566 Z-2.4667 I0.0062 J0.0108
G2 X38.0157 Y112.9457 Z-2.5 I0.0063 J-0.0108
G2 X37.9969 Y112.9349 Z-2.5333 I-0.0125 J0.0
G2 Y112.9566 Z-2.5667 I0.0062 J0.0108
G2 X38.0157 Y112.9457 Z-2.6 I0.0063 J-0.0108
G2 X37.9969 Y112.9349 Z-2.6333 I-0.0125 J0.0
G2 Y112.9566 Z-2.6667 I0.0062 J0.0108
G2 X38.0157 Y112.9457 Z-2.7 I0.0063 J-0.0108
G2 X37.9969 Y112.9349 Z-2.7333 I-0.0125 J0.0
G2 Y112.9566 Z-2.7667 I0.0062 J0.0108
G2 X38.0157 Y112.9457 Z-2.8 I0.0063 J-0.0108
G2 X37.9969 Y112.9349 Z-2.8333 I-0.0125 J0.0
G2 Y112.9566 Z-2.8667 I0.0062 J0.0108
G2 X38.0157 Y112.9457 Z-2.9 I0.0063 J-0.0108
G2 X37.9969 Y112.9349 Z-2.9333 I-0.0125 J0.0
G2 Y112.9566 Z-2.9667 I0.0063 J0.0108
G2 X38.0157 Y112.9457 Z-3.0 I0.0063 J-0.0108
G2 X37.9969 Y112.9349 Z-3.0333 I-0.0125 J0.0
G2 Y112.9566 Z-3.0667 I0.0063 J0.0108
G2 X38.0157 Y112.9457 Z-3.1 I0.0063 J-0.0108
G2 X37.9969 Y112.9349 Z-3.1333 I-0.0125 J0.0
G2 Y112.9566 Z-3.1667 I0.0063 J0.0108
G2 X38.0157 Y112.9457 Z-3.2 I0.0063 J-0.0108
G2 X37.9969 Y112.9349 I-0.0125 J0.0
G2 Y112.9566 I0.0063 J0.0108
G2 X38.0157 Y112.9457 I0.0062 J-0.0108
G0 Z3.0
G0 X39.8805 Y102.6167
G0 Z0.01
G1 F1000.0 Z0.0
G2 F2000.0 X39.8617 Y102.6059 Z-0.0333 I-0.0125 J0.0
G2 Y102.6276 Z-0.0667 I0.0062 J0.0108
G2 X39.8805 Y102.6167 Z-0.1 I0.0063 J-0.0108
G2 X39.8617 Y102.6059 Z-0.1333 I-0.0125 J0.0
G2 Y102.6276 Z-0.1667 I0.0062 J0.0108
G2 X39.8805 Y102.6167 Z-0.2 I0.0063 J-0.0108
G2 X39.8617 Y102.6059 Z-0.2333 I-0.0125 J0.0
G2 Y102.6276 Z-0.2667 I0.0062 J0.0108
G2 X39.8805 Y102.6167 Z-0.3 I0.0063 J-0.0108
G2 X39.8617 Y102.6059 Z-0.3333 I-0.0125 J0.0
G2 Y102.6276 Z-0.3667 I0.0062 J0.0108
G2 X39.8805 Y102.6167 Z-0.4 I0.0063 J-0.0108
G2 X39.8617 Y102.6059 Z-0.4333 I-0.0125 J0.0
G2 Y102.6276 Z-0.4667 I0.0062 J0.0108
G2 X39.8805 Y102.6167 Z-0.5 I0.0063 J-0.0108
G2 X39.8617 Y102.6059 Z-0.5333 I-0.0125 J0.0
G2 Y102.6276 Z-0.5667 I0.0062 J0.0108
G2 X39.8805 Y102.6167 Z-0.6 I0.0063 J-0.0108
G2 X39.8617 Y102.6059 Z-0.6333 I-0.0125 J0.0
G2 Y102.6276 Z-0.6667 I0.0062 J0.0108
G2 X39.8805 Y102.6167 Z-0.7 I0.0063 J-0.0108
G2 X39.8617 Y102.6059 Z-0.7333 I-0.0125 J0.0
G2 Y102.6276 Z-0.7667 I0.0062 J0.0108
G2 X39.8805 Y102.6167 Z-0.8 I0.0063 J-0.0108
G2 X39.8617 Y102.6059 Z-0.8333 I-0.0125 J0.0
G2 Y102.6276 Z-0.8667 I0.0062 J0.0108
G2 X39.8805 Y102.6167 Z-0.9 I0.0063 J-0.0108
G2 X39.8617 Y102.6059 Z-0.9333 I-0.0125 J0.0
G2 Y102.6276 Z-0.9667 I0.0062 J0.0108
G2 X39.8805 Y102.6167 Z-1.0 I0.0063 J-0.0108
G2 X39.8617 Y102.6059 Z-1.0333 I-0.0125 J0.0
G2 Y102.6276 Z-1.0667 I0.0062 J0.0108
G2 X39.8805 Y102.6167 Z-1.1 I0.0063 J-0.0108
G2 X39.8617 Y102.6059 Z-1.1333 I-0.0125 J0.0
G2 Y102.6276 Z-1.1667 I0.0062 J0.0108
G2 X39.8805 Y102.6167 Z-1.2 I0.0063 J-0.0108
G2 X39.8617 Y102.6059 Z-1.2333 I-0.0125 J0.0
G2 Y102.6276 Z-1.2667 I0.0062 J0.0108
G2 X39.8805 Y102.6167 Z-1.3 I0.0063 J-0.0108
G2 X39.8617 Y102.6059 Z-1.3333 I-0.0125 J0.0
G2 Y102.6276 Z-1.3667 I0.0062 J0.0108
G2 X39.8805 Y102.6167 Z-1.4 I0.0063 J-0.0108
G2 X39.8617 Y102.6059 Z-1.4333 I-0.0125 J0.0
G2 Y102.6276 Z-1.4667 I0.0062 J0.0108
G2 X39.8805 Y102.6167 Z-1.5 I0.0063 J-0.0108
G2 X39.8617 Y102.6059 Z-1.5333 I-0.0125 J0.0
G2 Y102.6276 Z-1.5667 I0.0062 J0.0108
G2 X39.8805 Y102.6167 Z-1.6 I0.0063 J-0.0108
G2 X39.8617 Y102.6059 Z-1.6333 I-0.0125 J0.0
G2 Y102.6276 Z-1.6667 I0.0062 J0.0108
G2 X39.8805 Y102.6167 Z-1.7 I0.0063 J-0.0108
G2 X39.8617 Y102.6059 Z-1.7333 I-0.0125 J0.0
G2 Y102.6276 Z-1.7667 I0.0062 J0.0108
G2 X39.8805 Y102.6167 Z-1.8 I0.0063 J-0.0108
G2 X39.8617 Y102.6059 Z-1.8333 I-0.0125 J0.0
G2 Y102.6276 Z-1.8667 I0.0062 J0.0108
G2 X39.8805 Y102.6167 Z-1.9 I0.0063 J-0.0108
G2 X39.8617 Y102.6059 Z-1.9333 I-0.0125 J0.0
G2 Y102.6276 Z-1.9667 I0.0062 J0.0108
G2 X39.8805 Y102.6167 Z-2.0 I0.0063 J-0.0108
G2 X39.8617 Y102.6059 Z-2.0333 I-0.0125 J0.0
G2 Y102.6276 Z-2.0667 I0.0062 J0.0108
G2 X39.8805 Y102.6167 Z-2.1 I0.0063 J-0.0108
G2 X39.8617 Y102.6059 Z-2.1333 I-0.0125 J0.0
G2 Y102.6276 Z-2.1667 I0.0062 J0.0108
G2 X39.8805 Y102.6167 Z-2.2 I0.0063 J-0.0108
G2 X39.8617 Y102.6059 Z-2.2333 I-0.0125 J0.0
G2 Y102.6276 Z-2.2667 I0.0062 J0.0108
G2 X39.8805 Y102.6167 Z-2.3 I0.0063 J-0.0108
G2 X39.8617 Y102.6059 Z-2.3333 I-0.0125 J0.0
G2 Y102.6276 Z-2.3667 I0.0062 J0.0108
G2 X39.8805 Y102.6167 Z-2.4 I0.0063 J-0.0108
G2 X39.8617 Y102.6059 Z-2.4333 I-0.0125 J0.0
G2 Y102.6276 Z-2.4667 I0.0062 J0.0108
G2 X39.8805 Y102.6167 Z-2.5 I0.0063 J-0.0108
G2 X39.8617 Y102.6059 Z-2.5333 I-0.0125 J0.0
G2 Y102.6276 Z-2.5667 I0.0062 J0.0108
G2 X39.8805 Y102.6167 Z-2.6 I0.0063 J-0.0108
G2 X39.8617 Y102.6059 Z-2.6333 I-0.0125 J0.0
G2 Y102.6276 Z-2.6667 I0.0062 J0.0108
G2 X39.8805 Y102.6167 Z-2.7 I0.0063 J-0.0108
G2 X39.8617 Y102.6059 Z-2.7333 I-0.0125 J0.0
G2 Y102.6276 Z-2.7667 I0.0062 J0.0108
G2 X39.8805 Y102.6167 Z-2.8 I0.0063 J-0.0108
G2 X39.8617 Y102.6059 Z-2.8333 I-0.0125 J0.0
G2 Y102.6276 Z-2.8667 I0.0062 J0.0108
G2 X39.8805 Y102.6167 Z-2.9 I0.0063 J-0.0108
G2 X39.8617 Y102.6059 Z-2.9333 I-0.0125 J0.0
G2 Y102.6276 Z-2.9667 I0.0063 J0.0108
G2 X39.8805 Y102.6167 Z-3.0 I0.0063 J-0.0108
G2 X39.8617 Y102.6059 Z-3.0333 I-0.0125 J0.0
G2 Y102.6276 Z-3.0667 I0.0063 J0.0108
G2 X39.8805 Y102.6167 Z-3.1 I0.0063 J-0.0108
G2 X39.8617 Y102.6059 Z-3.1333 I-0.0125 J0.0
G2 Y102.6276 Z-3.1667 I0.0063 J0.0108
G2 X39.8805 Y102.6167 Z-3.2 I0.0063 J-0.0108
G2 X39.8617 Y102.6059 I-0.0125 J0.0
G2 Y102.6276 I0.0063 J0.0108
G2 X39.8805 Y102.6167 I0.0062 J-0.0108
G0 Z3.0
G0 X37.9925 Y125.5
G0 Z0.01
G1 F1000.0 Z0.0
G2 F2000.0 X37.9737 Y125.4892 Z-0.0333 I-0.0125 J0.0
G2 Y125.5108 Z-0.0667 I0.0062 J0.0108
G2 X37.9925 Y125.5 Z-0.1 I0.0063 J-0.0108
G2 X37.9737 Y125.4892 Z-0.1333 I-0.0125 J0.0
G2 Y125.5108 Z-0.1667 I0.0062 J0.0108
G2 X37.9925 Y125.5 Z-0.2 I0.0063 J-0.0108
G2 X37.9737 Y125.4892 Z-0.2333 I-0.0125 J0.0
G2 Y125.5108 Z-0.2667 I0.0062 J0.0108
G2 X37.9925 Y125.5 Z-0.3 I0.0063 J-0.0108
G2 X37.9737 Y125.4892 Z-0.3333 I-0.0125 J0.0
G2 Y125.5108 Z-0.3667 I0.0062 J0.0108
G2 X37.9925 Y125.5 Z-0.4 I0.0063 J-0.0108
G2 X37.9737 Y125.4892 Z-0.4333 I-0.0125 J0.0
G2 Y125.5108 Z-0.4667 I0.0062 J0.0108
G2 X37.9925 Y125.5 Z-0.5 I0.0063 J-0.0108
G2 X37.9737 Y125.4892 Z-0.5333 I-0.0125 J0.0
G2 Y125.5108 Z-0.5667 I0.0062 J0.0108
G2 X37.9925 Y125.5 Z-0.6 I0.0063 J-0.0108
G2 X37.9737 Y125.4892 Z-0.6333 I-0.0125 J0.0
G2 Y125.5108 Z-0.6667 I0.0062 J0.0108
G2 X37.9925 Y125.5 Z-0.7 I0.0063 J-0.0108
G2 X37.9737 Y125.4892 Z-0.7333 I-0.0125 J0.0
G2 Y125.5108 Z-0.7667 I0.0062 J0.0108
G2 X37.9925 Y125.5 Z-0.8 I0.0063 J-0.0108
G2 X37.9737 Y125.4892 Z-0.8333 I-0.0125 J0.0
G2 Y125.5108 Z-0.8667 I0.0062 J0.0108
G2 X37.9925 Y125.5 Z-0.9 I0.0063 J-0.0108
G2 X37.9737 Y125.4892 Z-0.9333 I-0.0125 J0.0
G2 Y125.5108 Z-0.9667 I0.0062 J0.0108
G2 X37.9925 Y125.5 Z-1.0 I0.0063 J-0.0108
G2 X37.9737 Y125.4892 Z-1.0333 I-0.0125 J0.0
G2 Y125.5108 Z-1.0667 I0.0062 J0.0108
G2 X37.9925 Y125.5 Z-1.1 I0.0063 J-0.0108
G2 X37.9737 Y125.4892 Z-1.1333 I-0.0125 J0.0
G2 Y125.5108 Z-1.1667 I0.0062 J0.0108
G2 X37.9925 Y125.5 Z-1.2 I0.0063 J-0.0108
G2 X37.9737 Y125.4892 Z-1.2333 I-0.0125 J0.0
G2 Y125.5108 Z-1.2667 I0.0062 J0.0108
G2 X37.9925 Y125.5 Z-1.3 I0.0063 J-0.0108
G2 X37.9737 Y125.4892 Z-1.3333 I-0.0125 J0.0
G2 Y125.5108 Z-1.3667 I0.0062 J0.0108
G2 X37.9925 Y125.5 Z-1.4 I0.0063 J-0.0108
G2 X37.9737 Y125.4892 Z-1.4333 I-0.0125 J0.0
G2 Y125.5108 Z-1.4667 I0.0062 J0.0108
G2 X37.9925 Y125.5 Z-1.5 I0.0063 J-0.0108
G2 X37.9737 Y125.4892 Z-1.5333 I-0.0125 J0.0
G2 Y125.5108 Z-1.5667 I0.0062 J0.0108
G2 X37.9925 Y125.5 Z-1.6 I0.0063 J-0.0108
G2 X37.9737 Y125.4892 Z-1.6333 I-0.0125 J0.0
G2 Y125.5108 Z-1.6667 I0.0062 J0.0108
G2 X37.9925 Y125.5 Z-1.7 I0.0063 J-0.0108
G2 X37.9737 Y125.4892 Z-1.7333 I-0.0125 J0.0
G2 Y125.5108 Z-1.7667 I0.0062 J0.0108
G2 X37.9925 Y125.5 Z-1.8 I0.0063 J-0.0108
G2 X37.9737 Y125.4892 Z-1.8333 I-0.0125 J0.0
G2 Y125.5108 Z-1.8667 I0.0062 J0.0108
G2 X37.9925 Y125.5 Z-1.9 I0.0063 J-0.0108
G2 X37.9737 Y125.4892 Z-1.9333 I-0.0125 J0.0
G2 Y125.5108 Z-1.9667 I0.0062 J0.0108
G2 X37.9925 Y125.5 Z-2.0 I0.0063 J-0.0108
G2 X37.9737 Y125.4892 Z-2.0333 I-0.0125 J0.0
G2 Y125.5108 Z-2.0667 I0.0062 J0.0108
G2 X37.9925 Y125.5 Z-2.1 I0.0063 J-0.0108
G2 X37.9737 Y125.4892 Z-2.1333 I-0.0125 J0.0
G2 Y125.5108 Z-2.1667 I0.0062 J0.0108
G2 X37.9925 Y125.5 Z-2.2 I0.0063 J-0.0108
G2 X37.9737 Y125.4892 Z-2.2333 I-0.0125 J0.0
G2 Y125.5108 Z-2.2667 I0.0062 J0.0108
G2 X37.9925 Y125.5 Z-2.3 I0.0063 J-0.0108
G2 X37.9737 Y125.4892 Z-2.3333 I-0.0125 J0.0
G2 Y125.5108 Z-2.3667 I0.0062 J0.0108
G2 X37.9925 Y125.5 Z-2.4 I0.0063 J-0.0108
G2 X37.9737 Y125.4892 Z-2.4333 I-0.0125 J0.0
G2 Y125.5108 Z-2.4667 I0.0062 J0.0108
G2 X37.9925 Y125.5 Z-2.5 I0.0063 J-0.0108
G2 X37.9737 Y125.4892 Z-2.5333 I-0.0125 J0.0
G2 Y125.5108 Z-2.5667 I0.0062 J0.0108
G2 X37.9925 Y125.5 Z-2.6 I0.0063 J-0.0108
G2 X37.9737 Y125.4892 Z-2.6333 I-0.0125 J0.0
G2 Y125.5108 Z-2.6667 I0.0062 J0.0108
G2 X37.9925 Y125.5 Z-2.7 I0.0063 J-0.0108
G2 X37.9737 Y125.4892 Z-2.7333 I-0.0125 J0.0
G2 Y125.5108 Z-2.7667 I0.0062 J0.0108
G2 X37.9925 Y125.5 Z-2.8 I0.0063 J-0.0108
G2 X37.9737 Y125.4892 Z-2.8333 I-0.0125 J0.0
G2 Y125.5108 Z-2.8667 I0.0062 J0.0108
G2 X37.9925 Y125.5 Z-2.9 I0.0063 J-0.0108
G2 X37.9737 Y125.4892 Z-2.9333 I-0.0125 J0.0
G2 Y125.5108 Z-2.9667 I0.0063 J0.0108
G2 X37.9925 Y125.5 Z-3.0 I0.0063 J-0.0108
G2 X37.9737 Y125.4892 Z-3.0333 I-0.0125 J0.0
G2 Y125.5108 Z-3.0667 I0.0063 J0.0108
G2 X37.9925 Y125.5 Z-3.1 I0.0063 J-0.0108
G2 X37.9737 Y125.4892 Z-3.1333 I-0.0125 J0.0
G2 Y125.5108 Z-3.1667 I0.0063 J0.0108
G2 X37.9925 Y125.5 Z-3.2 I0.0063 J-0.0108
G2 X37.9737 Y125.4892 I-0.0125 J0.0
G2 Y125.5108 I0.0063 J0.0108
G2 X37.9925 Y125.5 I0.0062 J-0.0108
G0 Z3.0
G0 X7.5125
G0 Z0.01
G1 F1000.0 Z0.0
G2 F2000.0 X7.4938 Y125.4892 Z-0.0333 I-0.0125 J0.0
G2 Y125.5108 Z-0.0667 I0.0062 J0.0108
G2 X7.5125 Y125.5 Z-0.1 I0.0063 J-0.0108
G2 X7.4938 Y125.4892 Z-0.1333 I-0.0125 J0.0
G2 Y125.5108 Z-0.1667 I0.0062 J0.0108
G2 X7.5125 Y125.5 Z-0.2 I0.0063 J-0.0108
G2 X7.4938 Y125.4892 Z-0.2333 I-0.0125 J0.0
G2 Y125.5108 Z-0.2667 I0.0062 J0.0108
G2 X7.5125 Y125.5 Z-0.3 I0.0063 J-0.0108
G2 X7.4938 Y125.4892 Z-0.3333 I-0.0125 J0.0
G2 Y125.5108 Z-0.3667 I0.0062 J0.0108
G2 X7.5125 Y125.5 Z-0.4 I0.0063 J-0.0108
G2 X7.4938 Y125.4892 Z-0.4333 I-0.0125 J0.0
G2 Y125.5108 Z-0.4667 I0.0062 J0.0108
G2 X7.5125 Y125.5 Z-0.5 I0.0063 J-0.0108
G2 X7.4938 Y125.4892 Z-0.5333 I-0.0125 J0.0
G2 Y125.5108 Z-0.5667 I0.0062 J0.0108
G2 X7.5125 Y125.5 Z-0.6 I0.0063 J-0.0108
G2 X7.4938 Y125.4892 Z-0.6333 I-0.0125 J0.0
G2 Y125.5108 Z-0.6667 I0.0062 J0.0108
G2 X7.5125 Y125.5 Z-0.7 I0.0063 J-0.0108
G2 X7.4938 Y125.4892 Z-0.7333 I-0.0125 J0.0
G2 Y125.5108 Z-0.7667 I0.0062 J0.0108
G2 X7.5125 Y125.5 Z-0.8 I0.0063 J-0.0108
G2 X7.4938 Y125.4892 Z-0.8333 I-0.0125 J0.0
G2 Y125.5108 Z-0.8667 I0.0062 J0.0108
G2 X7.5125 Y125.5 Z-0.9 I0.0063 J-0.0108
G2 X7.4938 Y125.4892 Z-0.9333 I-0.0125 J0.0
G2 Y125.5108 Z-0.9667 I0.0062 J0.0108
G2 X7.5125 Y125.5 Z-1.0 I0.0063 J-0.0108
G2 X7.4938 Y125.4892 Z-1.0333 I-0.0125 J0.0
G2 Y125.5108 Z-1.0667 I0.0062 J0.0108
G2 X7.5125 Y125.5 Z-1.1 I0.0063 J-0.0108
G2 X7.4938 Y125.4892 Z-1.1333 I-0.0125 J0.0
G2 Y125.5108 Z-1.1667 I0.0062 J0.0108
G2 X7.5125 Y125.5 Z-1.2 I0.0063 J-0.0108
G2 X7.4938 Y125.4892 Z-1.2333 I-0.0125 J0.0
G2 Y125.5108 Z-1.2667 I0.0062 J0.0108
G2 X7.5125 Y125.5 Z-1.3 I0.0063 J-0.0108
G2 X7.4938 Y125.4892 Z-1.3333 I-0.0125 J0.0
G2 Y125.5108 Z-1.3667 I0.0062 J0.0108
G2 X7.5125 Y125.5 Z-1.4 I0.0063 J-0.0108
G2 X7.4938 Y125.4892 Z-1.4333 I-0.0125 J0.0
G2 Y125.5108 Z-1.4667 I0.0062 J0.0108
G2 X7.5125 Y125.5 Z-1.5 I0.0063 J-0.0108
G2 X7.4938 Y125.4892 Z-1.5333 I-0.0125 J0.0
G2 Y125.5108 Z-1.5667 I0.0062 J0.0108
G2 X7.5125 Y125.5 Z-1.6 I0.0063 J-0.0108
G2 X7.4938 Y125.4892 Z-1.6333 I-0.0125 J0.0
G2 Y125.5108 Z-1.6667 I0.0062 J0.0108
G2 X7.5125 Y125.5 Z-1.7 I0.0063 J-0.0108
G2 X7.4938 Y125.4892 Z-1.7333 I-0.0125 J0.0
G2 Y125.5108 Z-1.7667 I0.0062 J0.0108
G2 X7.5125 Y125.5 Z-1.8 I0.0063 J-0.0108
G2 X7.4938 Y125.4892 Z-1.8333 I-0.0125 J0.0
G2 Y125.5108 Z-1.8667 I0.0062 J0.0108
G2 X7.5125 Y125.5 Z-1.9 I0.0063 J-0.0108
G2 X7.4938 Y125.4892 Z-1.9333 I-0.0125 J0.0
G2 Y125.5108 Z-1.9667 I0.0062 J0.0108
G2 X7.5125 Y125.5 Z-2.0 I0.0063 J-0.0108
G2 X7.4938 Y125.4892 Z-2.0333 I-0.0125 J0.0
G2 Y125.5108 Z-2.0667 I0.0062 J0.0108
G2 X7.5125 Y125.5 Z-2.1 I0.0063 J-0.0108
G2 X7.4938 Y125.4892 Z-2.1333 I-0.0125 J0.0
G2 Y125.5108 Z-2.1667 I0.0062 J0.0108
G2 X7.5125 Y125.5 Z-2.2 I0.0063 J-0.0108
G2 X7.4938 Y125.4892 Z-2.2333 I-0.0125 J0.0
G2 Y125.5108 Z-2.2667 I0.0062 J0.0108
G2 X7.5125 Y125.5 Z-2.3 I0.0063 J-0.0108
G2 X7.4938 Y125.4892 Z-2.3333 I-0.0125 J0.0
G2 Y125.5108 Z-2.3667 I0.0062 J0.0108
G2 X7.5125 Y125.5 Z-2.4 I0.0063 J-0.0108
G2 X7.4938 Y125.4892 Z-2.4333 I-0.0125 J0.0
G2 Y125.5108 Z-2.4667 I0.0062 J0.0108
G2 X7.5125 Y125.5 Z-2.5 I0.0063 J-0.0108
G2 X7.4938 Y125.4892 Z-2.5333 I-0.0125 J0.0
G2 Y125.5108 Z-2.5667 I0.0062 J0.0108
G2 X7.5125 Y125.5 Z-2.6 I0.0063 J-0.0108
G2 X7.4938 Y125.4892 Z-2.6333 I-0.0125 J0.0
G2 Y125.5108 Z-2.6667 I0.0062 J0.0108
G2 X7.5125 Y125.5 Z-2.7 I0.0063 J-0.0108
G2 X7.4938 Y125.4892 Z-2.7333 I-0.0125 J0.0
G2 Y125.5108 Z-2.7667 I0.0062 J0.0108
G2 X7.5125 Y125.5 Z-2.8 I0.0063 J-0.0108
G2 X7.4938 Y125.4892 Z-2.8333 I-0.0125 J0.0
G2 Y125.5108 Z-2.8667 I0.0062 J0.0108
G2 X7.5125 Y125.5 Z-2.9 I0.0063 J-0.0108
G2 X7.4938 Y125.4892 Z-2.9333 I-0.0125 J0.0
G2 Y125.5108 Z-2.9667 I0.0062 J0.0108
G2 X7.5125 Y125.5 Z-3.0 I0.0063 J-0.0108
G2 X7.4938 Y125.4892 Z-3.0333 I-0.0125 J0.0
G2 Y125.5108 Z-3.0667 I0.0062 J0.0108
G2 X7.5125 Y125.5 Z-3.1 I0.0062 J-0.0108
G2 X7.4938 Y125.4892 Z-3.1333 I-0.0125 J0.0
G2 Y125.5108 Z-3.1667 I0.0063 J0.0108
G2 X7.5125 Y125.5 Z-3.2 I0.0062 J-0.0108
G2 X7.4938 Y125.4892 I-0.0125 J0.0
G2 Y125.5108 I0.0063 J0.0108
G2 X7.5125 Y125.5 I0.0062 J-0.0108
G0 Z3.0
G0 X7.6005 Y112.7881
G0 Z0.01
G1 F1000.0 Z0.0
G2 F2000.0 X7.5818 Y112.7773 Z-0.0333 I-0.0125 J0.0
G2 Y112.799 Z-0.0667 I0.0062 J0.0108
G2 X7.6005 Y112.7881 Z-0.1 I0.0063 J-0.0108
G2 X7.5818 Y112.7773 Z-0.1333 I-0.0125 J0.0
G2 Y112.799 Z-0.1667 I0.0062 J0.0108
G2 X7.6005 Y112.7881 Z-0.2 I0.0063 J-0.0108
G2 X7.5818 Y112.7773 Z-0.2333 I-0.0125 J0.0
G2 Y112.799 Z-0.2667 I0.0062 J0.0108
G2 X7.6005 Y112.7881 Z-0.3 I0.0063 J-0.0108
G2 X7.5818 Y112.7773 Z-0.3333 I-0.0125 J0.0
G2 Y112.799 Z-0.3667 I0.0062 J0.0108
G2 X7.6005 Y112.7881 Z-0.4 I0.0063 J-0.0108
G2 X7.5818 Y112.7773 Z-0.4333 I-0.0125 J0.0
G2 Y112.799 Z-0.4667 I0.0062 J0.0108
G2 X7.6005 Y112.7881 Z-0.5 I0.0063 J-0.0108
G2 X7.5818 Y112.7773 Z-0.5333 I-0.0125 J0.0
G2 Y112.799 Z-0.5667 I0.0062 J0.0108
G2 X7.6005 Y112.7881 Z-0.6 I0.0063 J-0.0108
G2 X7.5818 Y112.7773 Z-0.6333 I-0.0125 J0.0
G2 Y112.799 Z-0.6667 I0.0062 J0.0108
G2 X7.6005 Y112.7881 Z-0.7 I0.0063 J-0.0108
G2 X7.5818 Y112.7773 Z-0.7333 I-0.0125 J0.0
