( Made using CamBam - http://www.cambam.co.uk )
( adsr_w_leds 1/10/2015 2:03:11 PM )
( T1 : 0.04 )
( T2 : 0.031 )
( T3 : 0.0 )
G20 G90 G64 G40
G0 Z0.125
( T1 : 0.04 )
T1 M6
( .04 Drills )
G17
M3 S1000
G0 X0.4514 Y1.0058
G98
G81 X0.4514 Y1.0058 Z-0.073 R0.125 F20.0
G81 X0.652 Z-0.073
G81 X0.1717 Y0.8672 Z-0.073
G81 X0.173 Y0.4252 Z-0.073
G81 X0.2126 Y0.1864 Z-0.073
G81 X1.1705 Y1.0044 Z-0.073
G81 X1.4506 Y1.0258 Z-0.073
G81 X1.7305 Y0.5066 Z-0.073
G81 X0.8511 Y1.5842 Z-0.073
G81 X0.6515 Y1.5853 Z-0.073
G81 X0.9307 Y1.8044 Z-0.073
G81 X1.1706 Z-0.073
G81 X0.2706 Y2.0035 Z-0.073
G81 X0.3717 Y2.3832 Z-0.073
G81 X0.2839 Y2.622 Z-0.073
G81 X0.2111 Y2.623 Z-0.073
G81 X1.9492 Y2.483 Z-0.073
G81 X2.988 Y2.4026 Z-0.073
G81 Y2.1232 Z-0.073
G80
( mounting holes )
S1000
G0 Z0.125
G0 X0.0013 Y0.0462
G98
G81 X0.0013 Y0.0462 Z-0.073 R0.125 F20.0
G81 Y2.5515 Z-0.073
G80
( .031 Drills )
G0 Z0.125
( T2 : 0.031 )
T2 M6
M3 S1000
G0 X0.4514 Y0.0465
G98
G81 X0.4514 Y0.0465 Z-0.073 R0.125 F20.0
G81 X0.6916 Y0.1468 Z-0.073
G81 Y0.3263 Z-0.073
G81 X0.7707 Y0.3856 Z-0.073
G81 Y0.4463 Z-0.073
G81 X0.652 Z-0.073
G81 Y0.5664 Z-0.073
G81 X0.7509 Y0.5651 Z-0.073
G81 X0.8512 Z-0.073
G81 X0.9502 Y0.5664 Z-0.073
G81 X1.0504 Z-0.073
G81 X1.1705 Y0.4463 Z-0.073
G81 X1.2101 Y0.3263 Z-0.073
G81 X1.2906 Y0.3249 Z-0.073
G81 X1.4494 Y0.466 Z-0.073
G81 X1.5296 Y0.6048 Z-0.073
G81 X1.6494 Y0.6652 Z-0.073
G81 X1.7494 Y0.6661 Z-0.073
G81 X1.8486 Y0.6652 Z-0.073
G81 X1.9495 Y0.6661 Z-0.073
G81 X2.0495 Z-0.073
G81 X2.1488 Y0.6653 Z-0.073
G81 X2.2491 Z-0.073
G81 X2.1496 Y0.5057 Z-0.073
G81 Y0.266 Z-0.073
G81 X2.0694 Y0.1263 Z-0.073
G81 X1.9693 Z-0.073
G81 X1.8486 Y0.2669 Z-0.073
G81 X1.7504 Y0.3858 Z-0.073
G81 X1.8504 Y0.5057 Z-0.073
G81 X1.85 Y0.9646 Z-0.073
G81 X1.9484 Z-0.073
G81 X2.0491 Y0.9658 Z-0.073
G81 X2.1487 Y0.9646 Z-0.073
G81 X2.2482 Z-0.073
G81 X2.1487 Y1.1446 Z-0.073
G81 X2.409 Y1.2453 Z-0.073
G81 X2.5289 Y1.3437 Z-0.073
G81 X2.6489 Z-0.073
G81 Y1.6639 Z-0.073
G81 X2.5289 Y1.6627 Z-0.073
G81 X2.4078 Y1.5656 Z-0.073
G81 X2.3094 Y1.6447 Z-0.073
G81 X2.1487 Y1.544 Z-0.073
G81 X2.0095 Y1.5428 Z-0.073
G81 X1.9088 Y1.6447 Z-0.073
G81 X1.8092 Y1.544 Z-0.073
G81 X1.6497 Z-0.073
G81 X1.5501 Y1.6651 Z-0.073
G81 X1.7301 Y1.7635 Z-0.073
G81 X1.7501 Y1.9636 Z-0.073
G81 X1.8497 Z-0.073
G81 X1.9492 Z-0.073
G81 X2.0488 Z-0.073
G81 X2.1483 Z-0.073
G81 X2.2491 Z-0.073
G81 X2.369 Y2.1232 Z-0.073
G81 X2.5286 Z-0.073
G81 X2.6089 Z-0.073
G81 X2.5082 Y2.2635 Z-0.073
G81 X2.5286 Y2.4038 Z-0.073
G81 X2.6089 Y2.4026 Z-0.073
G81 X2.5094 Y2.543 Z-0.073
G81 X2.369 Y2.4026 Z-0.073
G81 X2.2491 Y2.2623 Z-0.073
G81 X2.1495 Y2.2635 Z-0.073
G81 X2.05 Y2.2623 Z-0.073
G81 X1.9492 Z-0.073
G81 X1.8497 Y2.2635 Z-0.073
G81 X1.7501 Z-0.073
G81 X1.6494 Z-0.073
G81 X1.5504 Y2.402 Z-0.073
G81 X1.4304 Y2.5031 Z-0.073
G81 X1.1905 Y2.402 Z-0.073
G81 X1.0507 Y2.5031 Z-0.073
G81 Y2.2632 Z-0.073
G81 X0.9496 Y2.2622 Z-0.073
G81 X0.8515 Y2.2632 Z-0.073
G81 X0.7514 Y2.2622 Z-0.073
G81 X0.6503 Y2.2632 Z-0.073
G81 X0.5511 Z-0.073
G81 X0.451 Y2.2622 Z-0.073
G81 Y1.9638 Z-0.073
G81 X0.5511 Z-0.073
G81 X0.6513 Z-0.073
G81 X0.7514 Z-0.073
G81 X0.8515 Z-0.073
G81 X0.9506 Z-0.073
G81 X1.0507 Y1.9628 Z-0.073
G81 X1.25 Z-0.073
G81 Y2.1224 Z-0.073
G81 X1.5504 Y2.1234 Z-0.073
G81 X1.6494 Y1.9636 Z-0.073
G81 X1.2513 Y1.6638 Z-0.073
G81 X1.2502 Y1.5449 Z-0.073
G81 X1.0506 Y1.5842 Z-0.073
G81 X0.9111 Y1.3835 Z-0.073
G81 X1.0506 Y1.3039 Z-0.073
G81 X1.0703 Y1.1644 Z-0.073
G81 X0.9503 Y1.2047 Z-0.073
G81 X0.9502 Y0.8659 Z-0.073
G81 X0.8499 Y0.8646 Z-0.073
G81 X0.7509 Z-0.073
G81 X0.6507 Y0.8659 Z-0.073
G81 X0.5517 Y0.8646 Z-0.073
G81 X0.4528 Y0.8659 Z-0.073
G81 X0.3314 Y0.9253 Z-0.073
G81 X0.1704 Y0.9649 Z-0.073
G81 X0.1717 Y0.7445 Z-0.073
G81 Y0.5849 Z-0.073
G81 X0.3314 Y0.5255 Z-0.073
G81 X0.4514 Y0.5651 Z-0.073
G81 X0.5517 Y0.5664 Z-0.073
G81 X0.4514 Y0.4463 Z-0.073
G81 Y0.3447 Z-0.073
G81 X0.813 Y0.3249 Z-0.073
G81 X1.0504 Y0.8646 Z-0.073
G81 X1.1692 Z-0.073
G81 X1.2906 Y0.7247 Z-0.073
G81 X1.5307 Y0.9055 Z-0.073
G81 X1.6497 Y0.9646 Z-0.073
G81 X1.7493 Z-0.073
G81 X1.8488 Y1.1661 Z-0.073
G81 X1.6701 Y1.3053 Z-0.073
G81 X1.5501 Y1.1661 Z-0.073
G81 X1.4698 Z-0.073
G81 X1.3505 Y1.305 Z-0.073
G81 X0.5512 Y1.2058 Z-0.073
G81 X0.392 Y1.1851 Z-0.073
G81 Y1.2854 Z-0.073
G81 Y1.3846 Z-0.073
G81 X0.5109 Z-0.073
G81 X0.4716 Y1.5842 Z-0.073
G81 X0.3528 Z-0.073
G81 X0.3517 Y1.7641 Z-0.073
G81 X0.4716 Z-0.073
G81 X0.1718 Y1.7041 Z-0.073
G81 X0.0322 Z-0.073
G81 X0.1728 Y1.365 Z-0.073
G81 X1.4494 Y0.0659 Z-0.073
G81 X1.5701 Y0.1272 Z-0.073
G81 X2.41 Y0.3849 Z-0.073
G81 X2.4686 Y0.1254 Z-0.073
G81 X2.1295 Y1.7647 Z-0.073
G81 X2.5082 Y1.9828 Z-0.073
G81 X2.9076 Z-0.073
G81 Y2.1232 Z-0.073
G81 Y2.2635 Z-0.073
G81 Y2.4026 Z-0.073
G81 Y2.5418 Z-0.073
G80
( Profile1 )
G0 Z0.125
( T3 : 0.0 )
T3 M6
G61
M3 S1000
G0 X1.8138 Y0.5739
G0 Z0.016
G1 F10.0 Z-0.004
G1 F30.0 X1.8063 Y0.5664
G3 X1.8048 Y0.5629 I0.0035 J-0.0035
G1 Y0.5002
G1 Y0.4376
G3 X1.8072 Y0.4333 I0.005 J0.0
G1 X1.8172 Y0.4272
G1 X1.8248 Y0.4224
G1 Y0.3621
G1 Y0.3028
G1 X1.8078 Y0.2984
G1 X1.7871 Y0.2929
G3 X1.7834 Y0.2875 I0.0013 J-0.0048
G1 X1.7867 Y0.2593
G1 X1.7899 Y0.2311
G3 X1.7942 Y0.2268 I0.005 J0.0006
G1 X1.8151 Y0.2238
G1 X1.8343 Y0.221
G1 X1.8689 Y0.1853
G1 X1.9034 Y0.1496
G1 X1.9065 Y0.1213
G1 X1.9097 Y0.0914
G3 X1.9145 Y0.0869 I0.005 J0.0005
G1 X2.0199 Y0.0841
G1 X2.1253 Y0.0813
G3 X2.1289 Y0.0828 I0.0001 J0.005
G1 X2.1359 Y0.0897
G3 X2.1368 Y0.0909 I-0.0035 J0.0035
G3 X2.1443 Y0.1233 I-0.055 J0.03
G1 Y0.1461
G3 X2.1417 Y0.1505 I-0.005 J0.0
G1 X2.1224 Y0.1609
G1 X2.1031 Y0.1712
G3 X2.1007 Y0.1718 I-0.0024 J-0.0044
G1 X2.027
G1 X1.9555
G1 X1.9293 Y0.1991
G1 X1.9059 Y0.2235
G1 X1.9115 Y0.227
G1 X1.9223 Y0.2336
G3 X1.9247 Y0.2379 I-0.0026 J0.0043
G1 Y0.2631
G1 Y0.2884
G3 X1.9214 Y0.293 I-0.005 J0.0
G1 X1.8915 Y0.3043
G1 X1.8648 Y0.3144
G1 X1.8651 Y0.3662
G1 X1.8654 Y0.4197
G1 X1.879 Y0.4378
G1 X1.8937 Y0.4572
G3 X1.8947 Y0.4602 I-0.004 J0.003
G1 Y0.501
G1 Y0.5418
G3 X1.8938 Y0.5447 I-0.005 J0.0
G1 X1.8776 Y0.5678
G1 X1.8632 Y0.5883
G1 X1.8736 Y0.6078
G1 X1.8855 Y0.6299
G3 X1.8861 Y0.6326 I-0.0044 J0.0024
G1 X1.8829 Y0.677
G1 X1.8797 Y0.7213
G3 X1.8747 Y0.726 I-0.005 J-0.0004
G1 X1.8498
G1 X1.8248
G3 X1.8198 Y0.721 I0.0 J-0.005
G1 Y0.6495
G1 Y0.58
G1 X1.8138 Y0.5739
G0 Z0.125
G0 X1.7662 Y0.5658
G0 Z0.016
G1 F10.0 Z-0.004
G1 F30.0 X1.7626 Y0.587
G1 X1.7737 Y0.6077
G1 X1.7856 Y0.6299
G3 X1.7862 Y0.6326 I-0.0044 J0.0024
G1 X1.783 Y0.677
G1 X1.7799 Y0.7213
G3 X1.7749 Y0.726 I-0.005 J-0.0004
G1 X1.7499
G1 X1.725
G3 X1.72 Y0.721 I0.0 J-0.005
G1 Y0.6411
G1 Y0.5633
G1 X1.6991 Y0.5424
G3 X1.6753 Y0.508 I0.0551 J-0.0634
G3 X1.6754 Y0.5044 I0.0047 J-0.0017
G3 X1.6964 Y0.4729 I0.0848 J0.0337
G3 X1.7284 Y0.4516 I0.0545 J0.0472
G3 X1.7316 Y0.4517 I0.0016 J0.0048
G3 X1.7643 Y0.4737 I-0.0257 J0.0735
G1 X1.785 Y0.4943
G3 X1.786 Y0.4998 I-0.0035 J0.0035
G1 X1.7789 Y0.5164
G2 X1.7672 Y0.5603 I0.1965 J0.0759
G1 Y0.5604
G1 X1.7662 Y0.5658
G0 Z0.125
G0 X1.6738 Y0.5852
G0 Z0.016
G1 F10.0 Z-0.004
G1 F30.0 X1.6753 Y0.5922
G1 X1.6862 Y0.6443
G3 X1.6863 Y0.6457 I-0.0049 J0.001
G1 X1.6831 Y0.6835
G1 X1.68 Y0.7214
G3 X1.675 Y0.726 I-0.005 J-0.0004
G1 X1.6501
G1 X1.6251
G3 X1.6201 Y0.721 I0.0 J-0.005
G1 X1.6199 Y0.6411
G1 X1.6196 Y0.5626
G1 X1.5972 Y0.5264
G1 X1.5754 Y0.4913
G1 X1.5389
G1 X1.5011
G1 X1.4784 Y0.5062
G1 X1.4545 Y0.5219
G3 X1.4494 Y0.5221 I-0.0027 J-0.0042
G1 X1.4299 Y0.5117
G3 X1.4297 Y0.5116 I0.0024 J-0.0044
G3 X1.402 Y0.4825 I0.0363 J-0.0625
G3 X1.4017 Y0.482 I0.0044 J-0.0023
G1 X1.3953 Y0.4653
G3 X1.3958 Y0.4608 I0.0047 J-0.0018
G1 X1.411 Y0.4376
G1 X1.4254 Y0.4156
G1 Y0.3276
G1 Y0.2404
G1 X1.3834 Y0.206
G1 X1.341 Y0.1713
G1 X1.0247 Y0.1754
G1 X0.6916 Y0.1797
G3 X0.6914 I-0.0001 J-0.005
G1 X0.5909 Y0.1777
G1 X0.5657 Y0.1772
G3 X0.4904 Y0.1754 I0.1936 J-9.917
G1 X0.3086 Y0.1711
G1 X0.303 Y0.2009
G1 X0.2967 Y0.2349
G3 X0.2951 Y0.2377 I-0.0049 J-0.0009
G1 X0.2772 Y0.2539
G1 X0.2592 Y0.2701
G3 X0.2569 Y0.2713 I-0.0034 J-0.0037
G1 X0.2251 Y0.2777
G1 X0.1973 Y0.2832
G1 Y0.3282
G1 Y0.3757
G1 X0.2126 Y0.3991
G1 X0.2287 Y0.4237
G3 Y0.4292 I-0.0042 J0.0027
G1 X0.2126 Y0.4538
G1 X0.1973 Y0.4771
G1 Y0.5063
G1 Y0.5355
G1 X0.2117 Y0.5574
G1 X0.2269 Y0.5806
G3 X0.2274 Y0.5852 I-0.0042 J0.0027
G1 X0.221 Y0.6018
G3 X0.2209 Y0.6021 I-0.0047 J-0.0018
G3 X0.1942 Y0.6307 I-0.0562 J-0.0255
G1 Y0.6308
G1 X0.1761 Y0.6404
G3 X0.172 Y0.6407 I-0.0024 J-0.0044
G1 X0.156 Y0.6346
G3 X0.1555 Y0.6344 I0.0018 J-0.0047
G3 X0.127 Y0.6067 I0.0301 J-0.0596
G1 X0.1166 Y0.5872
G3 X0.1168 Y0.5821 I0.0044 J-0.0024
G1 X0.1325 Y0.5582
G1 X0.1473 Y0.5355
G1 Y0.5063
G1 Y0.4771
G1 X0.132 Y0.4538
G1 X0.1159 Y0.4292
G3 Y0.4237 I0.0042 J-0.0027
G1 X0.132 Y0.3991
G1 X0.1473 Y0.3757
G1 Y0.3189
G1 Y0.2618
G1 X0.1353 Y0.2359
G1 X0.1242 Y0.2119
G1 X0.0898 Y0.2118
G1 X0.0573
G1 X0.0616 Y0.8932
G1 X0.066 Y1.5795
G1 X0.0724 Y1.666
G1 X0.0789 Y1.7527
G3 X0.0783 Y1.7554 I-0.005 J0.0004
G1 X0.0669 Y1.7767
G1 X0.0556 Y1.7979
G3 X0.0506 Y1.8005 I-0.0044 J-0.0024
G1 X0.0238 Y1.7974
G1 X-0.003 Y1.7943
G3 X-0.0074 Y1.7895 I0.0006 J-0.005
G1 X-0.0103 Y1.6855
G1 X-0.0131 Y1.5815
G3 X-0.0117 Y1.5779 I0.005 J-0.0001
G1 X-0.0013 Y1.5675
G1 X0.0076 Y1.5586
G1 Y0.8638
G1 Y0.1668
G3 X0.0126 Y0.1618 I0.005 J0.0
G1 X0.0725
G1 X0.1274
G1 Y0.1534
G1 Y0.1399
G3 X0.129 Y0.1362 I0.005 J0.0
G1 X0.1465 Y0.1205
G3 X0.1467 Y0.1203 I0.0033 J0.0037
G3 X0.1927 Y0.097 I0.0773 J0.0953
G1 X0.2193 Y0.0903
G3 X0.2227 Y0.0907 I0.0012 J0.0049
G1 X0.257 Y0.1069
G1 X0.2902 Y0.1227
G1 X0.4827 Y0.1183
G1 X0.5868 Y0.116
G3 X0.6136 Y0.1154 I0.0156 J0.103
G1 X0.6327 Y0.115
G3 X0.6917 Y0.114 I0.0367 J0.423
G1 X1.0347 Y0.1183
G1 X1.3629 Y0.1224
G3 X1.366 Y0.1235 I-0.0001 J0.005
G1 X1.4078 Y0.1578
G1 X1.4461 Y0.1892
G1 X1.4823 Y0.1534
G1 X1.4824
G2 X1.5389 Y0.0943 I-0.5955 J-0.6267
G3 X1.5684 Y0.0723 I0.0537 J0.0411
G3 X1.572 I0.0018 J0.0047
G3 X1.6036 Y0.0933 I-0.0338 J0.085
G3 X1.6249 Y0.1253 I-0.0472 J0.0545
G3 X1.6248 Y0.1287 I-0.0048 J0.0016
G3 X1.6031 Y0.1609 I-0.0842 J-0.0332
G1 X1.5827 Y0.1813
G3 X1.5777 Y0.1826 I-0.0035 J-0.0035
G1 X1.5604 Y0.1771
G1 X1.5458 Y0.1725
G1 X1.5107 Y0.2014
G1 X1.4754 Y0.2305
G1 Y0.2973
G1 Y0.3615
G1 X1.5397
G1 X1.6062
G1 X1.6109 Y0.3539
G1 X1.617 Y0.3439
G3 X1.6213 Y0.3415 I0.0043 J0.0026
G1 X1.6952
G1 X1.7692
G3 X1.7736 Y0.3442 I0.0 J0.005
G1 X1.7839 Y0.3634
G1 X1.7942 Y0.3827
G3 X1.7945 Y0.3868 I-0.0044 J0.0024
G1 X1.7884 Y0.4026
G1 X1.7823 Y0.4184
G3 X1.7789 Y0.4215 I-0.0047 J-0.0018
G1 X1.7553 Y0.4274
G1 X1.7316 Y0.4333
G3 X1.7298 Y0.4334 I-0.0012 J-0.0048
G1 X1.6822 Y0.4272
G1 X1.6173 Y0.4205
G3 X1.6171 Y0.4204 I0.0005 J-0.005
G2 X1.5526 Y0.4152 I-0.0811 J0.5987
G3 X1.5524 I0.0001 J-0.005
G1 X1.4754 Y0.4098
G1 Y0.4129
G2 X1.4857 Y0.4307 I0.0332 J-0.0073
G3 X1.4859 Y0.4309 I-0.0034 J0.0037
G1 X1.4964 Y0.4414
G1 X1.5472
G1 X1.6001
G3 X1.6044 Y0.4437 I0.0 J0.005
G1 X1.634 Y0.4912
G1 X1.6637 Y0.5386
G3 X1.6644 Y0.5402 I-0.0042 J0.0027
G1 X1.6738 Y0.5852
G0 Z0.125
G0 X1.5777 Y0.6085
G0 Z0.016
G1 F10.0 Z-0.004
G3 F30.0 X1.5778 Y0.6101 I-0.0049 J0.0012
G1 X1.5727 Y0.6757
G3 Y0.6758 I-0.005 J-0.0004
G2 X1.5722 Y0.7523 I0.4138 J0.0411
G1 X1.5753 Y0.7609
G1 X1.7901
G1 X2.0056
G1 X2.0086 Y0.756
G2 X2.0161 Y0.6698 I-0.8547 J-0.1181
G1 Y0.6697
G1 X2.0205 Y0.5817
G1 X2.0276 Y0.414
G3 X2.0299 Y0.41 I0.005 J0.0002
G1 X2.0828 Y0.3762
G1 X2.1357 Y0.3423
G3 X2.1384 Y0.3415 I0.0027 J0.0042
G1 X2.1816
G1 X2.2173 Y0.303
G1 X2.2061 Y0.0521
G1 X1.859 Y0.042
G1 X1.4958
G1 X1.4999 Y0.055
G1 X1.5061 Y0.0744
G3 X1.5049 Y0.0795 I-0.0048 J0.0015
G1 X1.4845 Y0.0998
G3 X1.452 Y0.1216 I-0.0573 J-0.0504
G3 X1.4485 Y0.1215 I-0.0016 J-0.0047
G3 X1.4163 Y0.0999 I0.0332 J-0.0842
G1 X1.3959 Y0.0795
G3 X1.3947 Y0.0744 I0.0035 J-0.0035
G1 X1.4008 Y0.055
G1 X1.405 Y0.042
G1 X1.0067
G1 X0.6067
G1 Y0.0516
G1 Y0.0663
G3 X0.604 Y0.0707 I-0.005 J0.0
G1 X0.5847 Y0.081
G1 X0.5654 Y0.0913
G3 X0.563 Y0.0919 I-0.0024 J-0.0044
G1 X0.5044
G1 X0.4457
G3 X0.4428 Y0.091 I0.0 J-0.005
G1 X0.4249 Y0.0779
G1 X0.4071 Y0.0649
G3 X0.4051 Y0.0601 I0.003 J-0.004
G1 X0.4085 Y0.0357
G1 X0.412 Y0.0113
G3 X0.4122 Y0.0105 I0.005 J0.0007
G1 X0.4174 Y-0.0057
G3 X0.4222 Y-0.0092 I0.0048 J0.0015
G1 X2.2571 Y-0.011
G3 X2.2621 Y-0.0061 I0.0 J0.005
G1 X2.2677 Y0.3058
G3 X2.2676 Y0.3065 I-0.005 J0.0001
G1 X2.2591 Y0.3721
G3 X2.2546 Y0.3765 I-0.005 J-0.0006
G1 X2.1997 Y0.3815
G1 X2.1459 Y0.3864
G1 X2.1044 Y0.4101
G1 X2.0645 Y0.433
G1 Y0.5175
G1 Y0.6022
G1 X2.0721 Y0.6069
G1 X2.0821 Y0.6131
G3 X2.0844 Y0.6173 I-0.0026 J0.0043
G1 Y0.6661
G1 Y0.715
G3 X2.0821 Y0.7192 I-0.005 J0.0
G1 X2.0699 Y0.7269
G2 X2.0489 Y0.7623 I0.0571 J0.0578
G3 Y0.7625 I-0.0048 J-0.0014
G1 X2.0388 Y0.7925
G3 X2.0341 Y0.7959 I-0.0047 J-0.0016
G1 X1.7968 Y0.7985
G1 X1.5596 Y0.8012
G3 X1.5552 Y0.7987 I-0.0001 J-0.005
G1 X1.5382 Y0.7691
G1 X1.5222 Y0.7413
G1 X1.5062 Y0.7372
G1 X1.4882 Y0.7324
G3 X1.4845 Y0.7274 I0.0013 J-0.0048
G1 X1.4874 Y0.6492
G1 X1.4903 Y0.571
G3 X1.4947 Y0.5662 I0.005 J0.0002
G1 X1.5215 Y0.5631
G1 X1.5483 Y0.56
G3 X1.5533 Y0.5626 I0.0006 J0.005
G1 X1.5653 Y0.585
G1 X1.5772 Y0.6073
G3 X1.5777 Y0.6085 I-0.0044 J0.0024
G0 Z0.125
G0 X1.4619 Y0.6114
G0 Z0.016
G1 F10.0 Z-0.004
G1 F30.0 X1.4631 Y0.6609
G1 X1.4659 Y0.7708
G3 X1.4645 Y0.7744 I-0.005 J0.0001
G1 X1.3843 Y0.8541
G1 X1.3056 Y0.9323
G1 X1.3054 Y0.9804
G1 X1.3052 Y1.0305
G3 X1.3041 Y1.0336 I-0.005 J0.0
G1 X1.2846 Y1.0585
G1 X1.2661 Y1.0822
G1 X1.2659 Y1.2933
G1 X1.2657 Y1.5041
G1 X1.2792 Y1.5176
G3 X1.2953 Y1.543 I-0.0478 J0.0482
G3 Y1.5464 I-0.0047 J0.0017
G3 X1.2785 Y1.5724 I-0.0628 J-0.022
G3 X1.2522 Y1.5894 I-0.0438 J-0.0391
G3 X1.2488 Y1.5893 I-0.0015 J-0.0048
G3 X1.2223 Y1.5719 I0.0287 J-0.0728
G1 X1.2061 Y1.5557
G3 X1.2051 Y1.5499 I0.0035 J-0.0035
G1 X1.2132 Y1.5337
G1 X1.2207 Y1.5186
G1 X1.2236 Y1.2961
G1 X1.2265 Y1.0724
G3 X1.2274 Y1.0696 I0.005 J0.0001
G1 X1.247 Y1.0421
G1 X1.2657 Y1.0158
G1 Y0.9688
G1 Y0.9202
G3 X1.2671 Y0.9167 I0.005 J0.0
G1 X1.347 Y0.8372
G1 X1.4253 Y0.7594
G1 X1.4136 Y0.5949
G1 X1.2562 Y0.5812
G1 X1.0867
G1 X1.0841 Y0.5994
G1 X1.0809 Y0.6218
G3 X1.0759 Y0.6261 I-0.005 J-0.0007
G1 X1.051
G1 X1.026
G3 X1.021 Y0.6211 I0.0 J-0.005
G1 Y0.5662
G1 Y0.5113
G3 X1.0253 Y0.5063 I0.005 J0.0
G1 X1.0485 Y0.503
G1 X1.0717 Y0.4998
G3 X1.0772 Y0.5034 I0.0007 J0.005
G1 X1.0826 Y0.524
G1 X1.087 Y0.5409
G1 X1.2693 Y0.5435
G1 X1.4554 Y0.5462
G3 X1.4604 Y0.5511 I-0.0001 J0.005
G1 X1.4619 Y0.6114
G0 Z0.125
G0 X1.335 Y0.7043
G0 Z0.016
G1 F10.0 Z-0.004
G3 F30.0 X1.3453 Y0.7244 I-0.0581 J0.0425
G3 X1.3452 Y0.7278 I-0.0048 J0.0016
G3 X1.3242 Y0.7594 I-0.0848 J-0.0337
G3 X1.2889 Y0.7807 I-0.0542 J-0.0498
G3 X1.2876 Y0.7809 I-0.0013 J-0.0048
G1 X1.2767
G1 X1.2459 Y0.8126
G1 X1.2159 Y0.8436
G1 X1.2208 Y0.8565
G1 X1.2269 Y0.8724
G3 X1.2258 Y0.8777 I-0.0047 J0.0018
G1 X1.2051 Y0.8985
G1 X1.1858 Y0.9177
G1 Y0.9356
G1 Y0.9535
G1 X1.2042 Y0.9719
G3 X1.2255 Y1.004 I-0.0472 J0.0545
G3 X1.2254 Y1.0074 I-0.0048 J0.0016
G3 X1.2044 Y1.0389 I-0.0848 J-0.0337
G3 X1.1724 Y1.0602 I-0.0545 J-0.0472
G3 X1.169 Y1.0601 I-0.0016 J-0.0048
G3 X1.1373 Y1.039 I0.0337 J-0.0848
G1 X1.1188 Y1.0205
G1 X1.0442
G1 X0.9773 Y1.1631
G3 X0.9955 Y1.183 I-0.0242 J0.0405
G1 X1.0062 Y1.2029
G3 Y1.2076 I-0.0044 J0.0024
G1 X0.9961 Y1.2264
G3 X0.9679 Y1.2534 I-0.0573 J-0.0316
G3 X0.9675 Y1.2536 I-0.0022 J-0.0045
G1 X0.9515 Y1.2598
G3 X0.9473 Y1.2595 I-0.0018 J-0.0047
G1 X0.9293 Y1.2498
G3 X0.929 Y1.2497 I0.0024 J-0.0044
G3 X0.9027 Y1.2213 I0.0357 J-0.0596
G3 X0.9025 Y1.2209 I0.0045 J-0.0022
G1 X0.8961 Y1.2042
G3 X0.8966 Y1.1997 I0.0047 J-0.0018
G1 X0.9114 Y1.1771
G1 X0.9254 Y1.1557
G1 X0.9282 Y1.0739
G1 X0.925 Y0.9832
G3 X0.9301 Y0.9781 I0.005 J-0.0002
G1 X1.123 Y0.9798
G1 X1.1346 Y0.9701
G1 X1.1458 Y0.9608
G1 Y0.9364
G1 Y0.9118
G1 X1.1353 Y0.9012
G1 X1.1248 Y0.8907
G1 X1.1051
G1 X1.0871
G1 X1.0829 Y0.907
G1 X1.0777 Y0.9269
G3 X1.0728 Y0.9307 I-0.0048 J-0.0013
G1 X1.051
G1 X1.0291
G3 X1.0243 Y0.9269 I0.0 J-0.005
G1 X1.0191 Y0.907
G1 X1.0148 Y0.8907
G1 X1.0011
G1 X0.9873
G1 X0.9828 Y0.9077
G1 X0.9774 Y0.9285
G3 X0.9719 Y0.9322 I-0.0048 J-0.0013
G1 X0.9487 Y0.9289
G1 X0.9255 Y0.9256
G3 X0.9212 Y0.9207 I0.0007 J-0.005
G1 Y0.8657
G1 Y0.8108
G3 X0.9255 Y0.8059 I0.005 J0.0
G1 X0.9487 Y0.8026
G1 X0.9719 Y0.7993
G3 X0.9774 Y0.803 I0.0007 J0.005
G1 X0.9828 Y0.8238
G1 X0.9873 Y0.8408
G1 X1.0011
G1 X1.0148
G1 X1.0191 Y0.8245
G1 X1.0243 Y0.8046
G3 X1.0291 Y0.8008 I0.0048 J0.0013
G1 X1.051
G1 X1.0728
G3 X1.0777 Y0.8046 I0.0 J0.005
G1 X1.0829 Y0.8245
G1 X1.0871 Y0.8408
G1 X1.1024
G1 X1.1201
G1 X1.143 Y0.8258
G1 X1.1672 Y0.8099
G3 X1.1726 I0.0027 J0.0042
G1 X1.1814 Y0.8153
G1 X1.1868 Y0.8187
G1 X1.2165 Y0.788
G1 X1.247 Y0.7566
G1 X1.2414 Y0.739
G1 X1.2349 Y0.7185
G3 X1.2361 Y0.7135 I0.0048 J-0.0015
G1 X1.2565 Y0.6931
G3 X1.289 Y0.6713 I0.0574 J0.0504
G3 X1.2925 Y0.6714 I0.0016 J0.0047
G3 X1.324 Y0.6924 I-0.0337 J0.0849
G3 X1.335 Y0.7043 I-0.0472 J0.0544
G0 Z0.125
G0 X1.4914 Y0.8277
G0 Z0.016
G1 F10.0 Z-0.004
G3 F30.0 X1.4952 Y0.8258 I0.0039 J0.0031
G1 X1.6119 Y0.8229
G1 X1.7287 Y0.82
G3 X1.7332 Y0.8226 I0.0001 J0.005
G1 X1.7438 Y0.8423
G3 X1.7549 Y0.8784 I-0.0819 J0.045
G3 Y0.8788 I-0.005 J0.0005
G1 Y0.8909
G1 X1.7681 Y0.9018
G1 X1.7831 Y0.9143
G3 X1.7849 Y0.9181 I-0.0032 J0.0038
G1 Y0.9648
G1 Y1.0115
G3 X1.7834 Y1.0151 I-0.005 J0.0
G1 X1.7739 Y1.0245
G1 X1.7658 Y1.0327
G1 X1.7629 Y1.1006
G1 X1.7599 Y1.1705
G3 X1.7551 Y1.1753 I-0.005 J-0.0002
G1 X1.676 Y1.1782
G1 X1.5993 Y1.1811
G1 X1.5892 Y1.195
G1 X1.5776 Y1.2108
G3 X1.5737 Y1.2128 I-0.004 J-0.003
G1 X1.5149 Y1.2143
G1 X1.456 Y1.2158
G3 X1.4524 Y1.2143 I-0.0001 J-0.005
G1 X1.4346 Y1.1966
G3 X1.4158 Y1.1692 I0.0607 J-0.0618
G3 X1.4156 Y1.1659 I0.0046 J-0.002
G3 X1.4297 Y1.1379 I0.0764 J0.0211
G1 X1.443 Y1.1198
G3 X1.4469 Y1.1178 I0.004 J0.003
G1 X1.5047 Y1.1163
G1 X1.5624 Y1.1149
G3 X1.5656 Y1.1159 I0.0001 J0.005
G1 X1.5819 Y1.1283
G1 X1.5966 Y1.1395
G1 X1.679 Y1.1301
G1 X1.7203 Y1.0084
G1 X1.7164 Y0.9368
G3 Y0.9365 I0.005 J-0.0003
G2 X1.7094 Y0.8662 I-0.3611 J0.0007
G1 X1.706 Y0.8608
G1 X1.6395
G1 X1.5752
G1 Y0.8888
G1 Y0.9218
G3 X1.5742 Y0.9248 I-0.005 J0.0
G1 X1.5612 Y0.9426
G1 X1.5482 Y0.9605
G3 X1.5434 Y0.9625 I-0.004 J-0.003
G1 X1.519 Y0.959
G1 X1.4946 Y0.9556
G3 X1.4903 Y0.9506 I0.0007 J-0.005
G1 Y0.8907
G1 Y0.8308
G3 X1.4914 Y0.8277 I0.005 J0.0
G0 Z0.125
G0 X1.4517 Y0.9708
G0 Z0.016
G1 F10.0 Z-0.004
G3 F30.0 X1.452 Y0.9709 I-0.0013 J0.0048
G3 X1.4848 Y0.9929 I-0.0258 J0.0736
G1 X1.5054 Y1.0135
G3 X1.5065 Y1.0189 I-0.0035 J0.0035
G1 X1.5011 Y1.0331
G1 X1.4982 Y1.0405
G1 X1.5588
G1 X1.6216
G1 X1.6209 Y0.9781
G1 X1.6201 Y0.9107
G3 X1.6244 Y0.9057 I0.005 J-0.0001
G1 X1.6448 Y0.9028
G1 X1.6652 Y0.8999
G3 X1.6694 Y0.9013 I0.0007 J0.0049
G1 X1.6765 Y0.9084
G1 X1.6836 Y0.9155
G3 X1.685 Y0.919 I-0.0035 J0.0035
G1 Y0.9624
G1 Y1.0058
G3 X1.6844 Y1.0082 I-0.005 J0.0
G1 X1.6752 Y1.0255
G2 X1.6607 Y1.06 I0.2098 J0.1086
G1 X1.6551 Y1.078
G3 X1.6502 Y1.0815 I-0.0048 J-0.0015
G1 X1.5436 Y1.0793
G1 X1.4369 Y1.0771
G3 X1.4335 Y1.0756 I0.0001 J-0.005
G1 X1.4153 Y1.0574
G3 X1.3957 Y1.027 I0.0455 J-0.0509
G3 X1.3958 Y1.0237 I0.0048 J-0.0015
G3 X1.4168 Y0.9921 I0.0848 J0.0337
G3 X1.4488 Y0.9708 I0.0544 J0.0471
G3 X1.4517 I0.0016 J0.0048
G0 Z0.125
G0 X1.3706 Y1.2392
G0 Z0.016
G1 F10.0 Z-0.004
G3 F30.0 X1.3736 Y1.2416 I-0.0014 J0.0048
G1 X1.3842 Y1.2615
G1 X1.3949 Y1.2814
G3 X1.3955 Y1.2838 I-0.0044 J0.0024
G1 Y1.3125
G1 Y1.3412
G3 X1.3945 Y1.3442 I-0.005 J0.0
G1 X1.3798 Y1.3636
G1 X1.3662 Y1.3817
G1 X1.3658 Y1.9716
G1 X1.3655 Y2.5582
G1 X1.6964
G1 X2.0271
G1 X2.0234 Y2.3861
G1 X2.0195 Y2.2088
G3 X2.0245 Y2.2037 I0.005 J-0.0001
G1 X2.0495
G1 X2.0744
G3 X2.0794 Y2.2084 I0.0 J0.005
G1 X2.0826 Y2.2527
G1 X2.0858 Y2.297
G3 X2.0852 Y2.2997 I-0.005 J0.0004
G1 X2.0752 Y2.3191
G1 X2.0819 Y2.5929
G3 X2.0768 Y2.5981 I-0.005 J0.0001
G1 X1.695 Y2.5931
G1 X1.3356
G3 X1.3306 Y2.5882 I0.0 J-0.005
G1 X1.3282 Y1.9891
G1 X1.3258 Y1.3912
G1 X1.3156 Y1.3718
G1 X1.3049 Y1.3513
G3 X1.3043 Y1.3487 I0.0044 J-0.0023
G1 X1.3075 Y1.2993
G1 X1.3106 Y1.2499
G3 X1.315 Y1.2452 I0.005 J0.0003
G1 X1.3418 Y1.2421
G1 X1.3686 Y1.239
G3 X1.3706 Y1.2392 I0.0006 J0.005
G0 Z0.125
G0 X1.4535 Y1.3072
G0 Z0.016
G1 F10.0 Z-0.004
G1 F30.0 X1.4578 Y1.3019
G3 X1.4617 Y1.3001 I0.0039 J0.0032
G1 X1.4994
G1 X1.5348
G1 X1.5754 Y1.2519
G1 X1.6175 Y1.202
G3 X1.6213 Y1.2002 I0.0038 J0.0032
G1 X1.6843
G1 X1.7472
G3 X1.7478 Y1.2003 I0.0 J0.005
G1 X1.7689 Y1.2027
G3 X1.7722 Y1.2046 I-0.0006 J0.005
G1 X1.8004 Y1.2402
G1 X1.8652
G1 X1.9272
G1 X1.9235 Y1.078
G1 X1.9197 Y0.9108
G3 X1.924 Y0.9057 I0.005 J-0.0001
G1 X1.9443 Y0.9028
G1 X1.9647 Y0.8999
G3 X1.969 Y0.9013 I0.0007 J0.0049
G1 X1.976 Y0.9084
G1 X1.9831 Y0.9155
G3 X1.9846 Y0.919 I-0.0035 J0.0035
G1 Y0.9653
G1 Y1.0115
G3 X1.9831 Y1.0151 I-0.005 J0.0
G1 X1.9735 Y1.0247
G1 X1.9654 Y1.0328
G1 X1.9767 Y1.2557
G3 X1.9749 Y1.2598 I-0.005 J0.0003
G1 X1.9578 Y1.274
G3 X1.9548 Y1.2751 I-0.0032 J-0.0039
G1 X1.8693 Y1.278
G1 X1.7838 Y1.2809
G3 X1.7799 Y1.2792 I-0.0002 J-0.005
G1 X1.7615 Y1.2589
G1 X1.7446 Y1.2402
G1 X1.69
G1 X1.6356
G1 X1.595 Y1.2883
G1 X1.5529 Y1.3383
G3 X1.549 Y1.34 I-0.0038 J-0.0032
G1 X1.5109
G1 X1.4752
G1 X1.4505 Y1.3724
G1 X1.4254 Y1.4053
G1 Y1.8935
G1 Y2.3785
G1 X1.4648
G1 X1.5063
G1 X1.511 Y2.3708
G1 X1.5172 Y2.3609
G3 X1.5215 Y2.3585 I0.0043 J0.0026
G1 X1.5852
G1 X1.6489
G3 X1.6532 Y2.3609 I0.0 J0.005
G1 X1.6593 Y2.3708
G1 X1.6639 Y2.3782
G1 X1.8109 Y2.3644
G1 X1.8223 Y2.2957
G1 X1.8198 Y2.2089
G3 X1.8248 Y2.2037 I0.005 J-0.0001
G1 X1.8498
G1 X1.8747
G3 X1.8797 Y2.2084 I0.0 J0.005
G1 X1.8829 Y2.2527
G1 X1.8861 Y2.297
G3 X1.8855 Y2.2996 I-0.005 J0.0004
G1 X1.8752 Y2.3201
G2 X1.8626 Y2.3737 I0.1422 J0.0619
G3 Y2.3739 I-0.005 J-0.0003
G1 X1.8598 Y2.4088
G3 X1.8549 Y2.4134 I-0.005 J-0.0004
G1 X1.7612 Y2.4163
G1 X1.669 Y2.4191
G1 X1.6494 Y2.4329
G1 X1.6285 Y2.4475
G3 X1.6257 Y2.4484 I-0.0029 J-0.0041
G1 X1.5852
G1 X1.5447
G3 X1.5418 Y2.4475 I0.0 J-0.005
G1 X1.5213 Y2.4331
G1 X1.5019 Y2.4195
G1 X1.4492 Y2.4165
G1 X1.3952 Y2.4134
G3 X1.3905 Y2.4084 I0.0003 J-0.005
G1 X1.3879 Y1.9004
G1 X1.3853 Y1.3923
G3 X1.3864 Y1.3891 I0.005 J0.0
G1 X1.4221 Y1.3455
G1 X1.4535 Y1.3072
G0 Z0.125
G0 X1.4981 Y1.3611
G0 Z0.016
G1 F10.0 Z-0.004
G3 F30.0 X1.5013 Y1.36 I0.0032 J0.0039
G1 X1.8153
G1 X2.1244
G1 Y1.3107
G1 Y1.2591
G1 X2.1167 Y1.2544
G1 X2.1068 Y1.2483
G3 X2.1044 Y1.244 I0.0026 J-0.0043
G1 Y1.1603
G1 Y1.0766
G3 X2.1068 Y1.0724 I0.005 J0.0
G1 X2.1149 Y1.0673
G1 X2.1207 Y1.0638
G1 X2.1193 Y0.8239
G1 X2.1178 Y0.5823
G1 X2.111 Y0.5671
G1 X2.1037 Y0.551
G3 X2.1033 Y0.5487 I0.0046 J-0.0021
G1 X2.1063 Y0.4899
G1 X2.1094 Y0.4311
G3 X2.1138 Y0.4264 I0.005 J0.0003
G1 X2.1406 Y0.4233
G1 X2.1674 Y0.4203
G3 X2.1724 Y0.4229 I0.0006 J0.005
G1 X2.183 Y0.4428
G1 X2.1937 Y0.4627
G3 X2.1943 Y0.465 I-0.0044 J0.0024
G1 Y0.5034
G1 Y0.5418
G3 X2.1934 Y0.5447 I-0.005 J0.0
G1 X2.1768 Y0.5682
G1 X2.1622 Y0.5891
G1 X2.172 Y0.6047
G1 X2.1835 Y0.6232
G3 X2.1843 Y0.6258 I-0.0042 J0.0026
G1 Y0.6703
G1 Y0.7148
G3 X2.1819 Y0.7191 I-0.005 J0.0
G1 X2.1719 Y0.7252
G1 X2.1643 Y0.7299
G1 Y0.8158
G1 Y0.9017
G1 X2.1719 Y0.9064
G1 X2.1819 Y0.9126
G3 X2.1843 Y0.9169 I-0.0026 J0.0043
G1 Y0.9613
G1 Y1.0058
G3 X2.1835 Y1.0085 I-0.005 J0.0
G1 X2.1713 Y1.0281
G1 X2.1606 Y1.0451
G1 X2.1763 Y1.0717
G1 X2.1936 Y1.1009
G3 X2.1943 Y1.1035 I-0.0043 J0.0025
G1 Y1.1621
G1 Y1.2208
G3 X2.1934 Y1.2236 I-0.005 J0.0
G1 X2.1789 Y1.2443
G1 X2.1653 Y1.2637
G1 X2.1623 Y1.3262
G1 X2.1593 Y1.3902
G3 X2.1544 Y1.395 I-0.005 J-0.0002
G1 X1.8348 Y1.3976
G1 X1.5178 Y1.4002
G1 X1.502 Y1.4206
G1 X1.4858 Y1.4416
G1 X1.4856 Y1.8418
G1 X1.4853 Y2.2387
G1 X1.5491
G1 X1.6139
G1 X1.6184 Y2.2216
G1 X1.6238 Y2.2009
G3 X1.6294 Y2.1972 I0.0048 J0.0013
G1 X1.6525 Y2.2005
G1 X1.6757 Y2.2038
G3 X1.68 Y2.2087 I-0.0007 J0.005
G1 Y2.2636
G1 Y2.3186
G3 X1.675 Y2.3236 I-0.005 J0.0
G1 X1.6501
G1 X1.6251
G3 X1.6202 Y2.3193 I0.0 J-0.005
G1 X1.617 Y2.2972
G1 X1.6145 Y2.2793
G1 X1.5369 Y2.2765
G1 X1.4552 Y2.2736
G3 X1.4504 Y2.2687 I0.0002 J-0.005
G1 X1.4478 Y1.8504
G1 X1.4452 Y1.4321
G3 X1.4462 Y1.429 I0.005 J0.0
G1 X1.4718 Y1.3955
G1 X1.4973 Y1.362
G3 X1.4981 Y1.3611 I0.004 J0.003
G0 Z0.125
G0 X1.528 Y1.4204
G0 Z0.016
G1 F10.0 Z-0.004
G3 F30.0 X1.5303 Y1.4199 I0.0022 J0.0045
G1 X1.9176
G1 X2.305
G3 X2.3086 Y1.4214 I0.0 J0.005
G1 X2.3478 Y1.4615
G1 X2.3863 Y1.501
G1 X2.4286 Y1.5215
G1 X2.4706 Y1.5418
G1 X2.7287 Y1.5345
G1 X2.9879 Y1.5272
G3 X2.9931 Y1.5322 I0.0001 J0.005
G1 Y1.7681
G1 Y2.004
G3 X2.9881 Y2.009 I-0.005 J0.0
G1 X2.9731
G2 X2.9357 Y2.0242 I0.0112 J0.0812
G3 X2.9355 Y2.0243 I-0.003 J-0.004
G1 X2.9109 Y2.0405
G3 X2.9054 I-0.0027 J-0.0042
G1 X2.8808 Y2.0243
G1 X2.8575 Y2.009
G1 X2.8037
G1 Y2.2387
G1 X2.8575
G1 X2.8794 Y2.2243
G1 X2.9026 Y2.2091
G3 X2.9072 Y2.2086 I0.0027 J0.0042
G1 X2.9238 Y2.215
G3 X2.9242 Y2.2151 I-0.0018 J0.0047
G3 X2.9531 Y2.2424 I-0.0276 J0.0583
G1 X2.9532 Y2.2425
G1 X2.9632 Y2.2613
G3 Y2.266 I-0.0044 J0.0024
G1 X2.9532 Y2.2848
G1 X2.9531
G3 X2.9249 Y2.3118 I-0.0573 J-0.0316
G3 X2.9245 Y2.312 I-0.0022 J-0.0045
G1 X2.9085 Y2.3182
G3 X2.9044 Y2.3179 I-0.0018 J-0.0047
G1 X2.8853 Y2.3077
G3 X2.8636 Y2.2851 I0.0175 J-0.0385
G3 X2.8632 Y2.2833 I0.0046 J-0.0019
G1 Y2.2786
G1 X2.8082
G1 X2.8038 Y2.5182
G1 X2.8575
G1 X2.8802 Y2.5034
G1 X2.9041 Y2.4877
G3 X2.9092 Y2.4875 I0.0027 J0.0042
G1 X2.9286 Y2.4979
G3 X2.9561 Y2.5257 I-0.0287 J0.0557
G3 X2.9563 Y2.5262 I-0.0045 J0.0022
G1 X2.9621 Y2.5414
G3 Y2.545 I-0.0047 J0.0018
G1 X2.9563 Y2.5603
G3 X2.956 Y2.5609 I-0.0047 J-0.0018
G3 X2.9295 Y2.5881 I-0.0631 J-0.0349
G3 X2.9293 Y2.5882 I-0.0025 J-0.0043
G1 X2.9105 Y2.5982
G3 X2.9058 I-0.0024 J-0.0044
G1 X2.886 Y2.5877
G3 X2.8636 Y2.5652 I0.0168 J-0.0392
G3 X2.8632 Y2.5633 I0.0046 J-0.002
G1 Y2.5589
G1 X2.7907 Y2.5561
G1 X2.7133 Y2.5532
G3 X2.7085 Y2.5482 I0.0002 J-0.005
G1 X2.7115 Y2.0664
G1 X2.7144 Y1.5897
G1 X2.5888
G1 X2.4596
G1 X2.4367 Y1.6047
G1 X2.4125 Y1.6205
G3 X2.4072 Y1.6206 I-0.0027 J-0.0042
G1 X2.397 Y1.6143
G1 X2.3892 Y1.6095
G1 X2.3719 Y1.6187
G1 X2.356 Y1.6272
G1 X2.3598 Y1.6372
G1 X2.3652 Y1.6512
G3 X2.3641 Y1.6565 I-0.0047 J0.0018
G1 X2.3434 Y1.6772
G3 X2.3109 Y1.6991 I-0.0663 J-0.0632
G3 X2.3072 I-0.0018 J-0.0046
G3 X2.2756 Y1.678 I0.0336 J-0.0847
G1 X2.2588 Y1.6613
G1 X2.1742 Y1.7313
G1 X2.1781 Y1.7466
G1 X2.1828 Y1.7651
G3 X2.1826 Y1.7681 I-0.0048 J0.0012
G1 X2.1771 Y1.7824
G3 X2.1769 Y1.7829 I-0.0047 J-0.0018
G3 X2.1512 Y1.809 I-0.0549 J-0.0283
G1 X2.1332 Y1.8187
G3 X2.129 Y1.8189 I-0.0024 J-0.0044
G1 X2.113 Y1.8128
G3 X2.1126 Y1.8126 I0.0018 J-0.0047
G3 X2.0844 Y1.7856 I0.0299 J-0.0595
G1 Y1.7855
G1 X2.0743 Y1.7667
G3 Y1.762 I0.0044 J-0.0024
G1 X2.0846 Y1.7427
G1 X2.095 Y1.7234
G3 X2.0979 Y1.721 I0.0044 J0.0024
G1 X2.1192 Y1.7143
G1 X2.2175 Y1.621
G3 X2.2209 Y1.6196 I0.0034 J0.0036
G1 X2.236
G2 X2.3023 Y1.5954 I-0.0837 J-0.3323
G1 X2.3527 Y1.5715
G1 X2.3574 Y1.5595
G1 X2.3615 Y1.5486
G1 X2.3219 Y1.5096
G1 X2.2813 Y1.4698
G1 X1.9259
G1 X1.574
G1 X1.5799 Y1.5267
G3 X1.5861 Y1.6696 I-1.0707 J0.1181
G1 X1.5854 Y1.714
G1 Y1.7141
G1 X1.5831 Y1.7804
G3 X1.5816 Y1.814 I-0.26 J0.0051
G1 X1.5808 Y1.83
G3 X1.5798 Y1.8475 I-0.0479 J0.006
G1 X1.5741 Y1.9391
G1 X1.5933
G1 X1.6139
G1 X1.6184 Y1.9221
G1 X1.6238 Y1.9013
G3 X1.6294 Y1.8976 I0.0048 J0.0013
G1 X1.6525 Y1.9009
G1 X1.6757 Y1.9042
G3 X1.68 Y1.9092 I-0.0007 J0.005
G1 Y1.9641
G1 Y2.019
G3 X1.6757 Y2.024 I-0.005 J0.0
G1 X1.6525 Y2.0272
G1 X1.6294 Y2.0305
G3 X1.6238 Y2.0268 I-0.0007 J-0.005
G1 X1.6185 Y2.0066
G1 X1.6141 Y1.9898
G1 X1.5763 Y1.9871
G1 X1.5349 Y1.9841
G3 X1.5303 Y1.9792 I0.0004 J-0.005
G1 X1.5274 Y1.8795
G1 X1.5245 Y1.7817
G1 X1.5163 Y1.7735
G1 X1.5068 Y1.7639
G3 X1.5053 Y1.7604 I0.0035 J-0.0035
G1 Y1.6681
G1 Y1.5759
G3 X1.5077 Y1.5716 I0.005 J0.0
G1 X1.5176 Y1.5654
G1 X1.5253 Y1.5607
G1 Y1.4942
G1 Y1.4249
G3 X1.528 Y1.4204 I0.005 J0.0
G0 Z0.125
G0 X1.6116 Y1.5062
G0 Z0.016
G1 F10.0 Z-0.004
G3 F30.0 X1.615 Y1.5048 I0.0035 J0.0036
G1 X1.7304 Y1.502
G1 X1.8457 Y1.4992
G3 X1.8494 Y1.5006 I0.0001 J0.005
G1 X1.8563 Y1.5076
G3 X1.8572 Y1.5088 I-0.0035 J0.0035
G3 X1.8648 Y1.5411 I-0.0566 J0.0303
G1 Y1.564
G3 X1.8621 Y1.5684 I-0.005 J0.0
G1 X1.8428 Y1.5787
G1 X1.8235 Y1.5891
G3 X1.8211 Y1.5897 I-0.0024 J-0.0044
G1 X1.7846
G1 X1.7553 Y1.7217
G3 X1.7747 Y1.7429 I-0.0222 J0.0399
G1 X1.7857 Y1.7634
G3 X1.7855 Y1.7685 I-0.0044 J0.0024
G1 X1.7698 Y1.7924
G1 X1.7549 Y1.8151
G1 Y1.8399
G1 Y1.8651
G1 X1.77 Y1.897
G1 X1.7857 Y1.9298
G3 X1.7861 Y1.9323 I-0.0045 J0.0021
G1 X1.783 Y1.9758
G1 X1.7799 Y2.0194
G3 X1.7749 Y2.024 I-0.005 J-0.0004
G1 X1.7499
G1 X1.725
G3 X1.72 Y2.0191 I0.0 J-0.005
G1 X1.7185 Y1.9228
G1 X1.7171 Y1.8281
G1 X1.6956 Y1.7989
G1 X1.673 Y1.7684
G3 X1.6729 Y1.7627 I0.004 J-0.003
G1 X1.6893 Y1.7376
G1 X1.705 Y1.7137
G1 Y1.6499
G1 Y1.5897
G1 X1.6769
G1 X1.6439
G3 X1.641 Y1.5887 I0.0 J-0.005
G1 X1.6231 Y1.5757
G1 X1.6053 Y1.5626
G3 X1.6033 Y1.5579 I0.003 J-0.004
G1 X1.6067 Y1.5335
G1 X1.6102 Y1.5091
G3 X1.6116 Y1.5062 I0.005 J0.0007
G0 Z0.125
G0 X1.6635 Y1.3459
G0 Z0.016
G1 F10.0 Z-0.004
G3 F30.0 X1.6629 Y1.3457 I0.0015 J-0.0048
G1 X1.6448 Y1.3369
G1 X1.6267 Y1.3282
G3 X1.6239 Y1.3231 I0.0022 J-0.0045
G1 X1.627 Y1.2964
G1 X1.6301 Y1.2696
G3 X1.6348 Y1.2651 I0.005 J0.0006
G1 X1.683 Y1.2621
G1 X1.7312 Y1.259
G3 X1.7364 Y1.2627 I0.0003 J0.005
G1 X1.7417 Y1.2833
G1 X1.7461 Y1.3001
G1 X1.8871
G1 X2.0054 Y1.2933
G1 X2.0233 Y1.1077
G1 X2.0195 Y0.9108
G3 X2.0238 Y0.9057 I0.005 J-0.0001
G1 X2.0442 Y0.9028
G1 X2.0646 Y0.8999
G3 X2.0688 Y0.9013 I0.0007 J0.0049
G1 X2.0759 Y0.9084
G1 X2.083 Y0.9155
G3 X2.0844 Y0.919 I-0.0035 J0.0035
G1 Y0.9653
G1 Y1.0115
G3 X2.083 Y1.0151 I-0.005 J0.0
G1 X2.0733 Y1.0248
G1 X2.065 Y1.033
G1 X2.0622 Y1.1806
G1 X2.0595 Y1.3301
G3 X2.0546 Y1.335 I-0.005 J-0.0001
G1 X1.8599 Y1.3406
G1 X1.6652 Y1.3462
G3 X1.6635 Y1.3459 I-0.0001 J-0.005
G0 Z0.125
G0 X1.815 Y1.2002
G0 Z0.016
G1 F10.0 Z-0.004
G3 F30.0 X1.8045 Y1.1858 I0.0481 J-0.0463
G1 X1.8044
G1 X1.794 Y1.1663
G3 X1.7942 Y1.1612 I0.0044 J-0.0024
G1 X1.8105 Y1.1363
G1 X1.826 Y1.1128
G1 X1.8229 Y1.0126
G1 X1.8198 Y0.9108
G3 X1.8241 Y0.9057 I0.005 J-0.0002
G1 X1.8456 Y0.9027
G1 X1.8672 Y0.8996
G3 X1.8721 Y0.9019 I0.0007 J0.0049
G1 X1.8789 Y0.913
G1 X1.8858 Y0.924
G3 X1.8865 Y0.927 I-0.0043 J0.0026
G1 X1.8795 Y1.0201
G1 X1.8727 Y1.1114
G1 X1.888 Y1.1349
G1 X1.9043 Y1.1597
G3 X1.9048 Y1.1643 I-0.0042 J0.0027
G1 X1.8984 Y1.1809
G3 X1.8983 Y1.1812 I-0.0047 J-0.0018
G3 X1.8717 Y1.2099 I-0.0562 J-0.0255
G1 X1.8536 Y1.2196
G3 X1.8494 Y1.2198 I-0.0024 J-0.0044
G1 X1.8335 Y1.2137
G3 X1.833 Y1.2135 I0.0018 J-0.0047
G3 X1.815 Y1.2002 I0.0301 J-0.0596
G0 Z0.125
G0 X1.9526 Y1.5052
G0 Z0.016
G1 F10.0 Z-0.004
G3 F30.0 X1.9545 Y1.5048 I0.0021 J0.0046
G1 X2.0699 Y1.502
G1 X2.1852 Y1.4992
G3 X2.1889 Y1.5006 I0.0001 J0.005
G1 X2.1958 Y1.5076
G3 X2.1967 Y1.5088 I-0.0035 J0.0035
G3 X2.2042 Y1.5411 I-0.0566 J0.0303
G1 Y1.564
G3 X2.2016 Y1.5684 I-0.005 J0.0
G1 X2.1823 Y1.5787
G1 X2.163 Y1.5891
G3 X2.1606 Y1.5897 I-0.0024 J-0.0044
G1 X2.0716
G1 X1.9849
G1 X1.9696 Y1.6065
G1 X1.9549 Y1.6228
G1 X1.9598 Y1.6356
G1 X1.9658 Y1.6512
G3 X1.9647 Y1.6565 I-0.0047 J0.0018
G1 X1.944 Y1.6772
G3 X1.9115 Y1.6991 I-0.0663 J-0.0633
G3 X1.9078 I-0.0018 J-0.0046
G3 X1.8763 Y1.6782 I0.0337 J-0.0848
G3 X1.855 Y1.6461 I0.0472 J-0.0545
G3 Y1.6429 I0.0048 J-0.0016
G3 X1.8771 Y1.6102 I0.0735 J0.0257
G1 X1.8977 Y1.5896
G1 Y1.5895
G1 X1.949 Y1.5393
G1 X1.9496 Y1.5097
G3 X1.9526 Y1.5052 I0.005 J0.0001
G0 Z0.125
G0 X1.9509 Y1.8094
G0 Z0.016
G1 F10.0 Z-0.004
G1 F30.0 X2.0448 Y1.8099
G3 X2.0482 Y1.8113 I0.0 J0.005
G1 X2.0667 Y1.8287
G3 X2.0683 Y1.8326 I-0.0034 J0.0036
G1 X2.0646 Y1.8982
G1 X2.0736 Y1.9072
G1 X2.0842 Y1.9178
G3 X2.0856 Y1.9217 I-0.0035 J0.0035
G1 X2.0825 Y1.9705
G1 X2.0794 Y2.0193
G3 X2.0744 Y2.024 I-0.005 J-0.0003
G1 X2.0495
G1 X2.0245
G3 X2.0195 Y2.0189 I0.0 J-0.005
G1 X2.0217 Y1.9365
G1 X2.0238 Y1.8593
G1 X1.9443
G1 X1.8648
G1 Y1.8772
G1 Y1.8981
G1 X1.8739 Y1.9072
G1 X1.8845 Y1.9178
G3 X1.8859 Y1.9217 I-0.0035 J0.0035
G1 X1.8828 Y1.9705
G1 X1.8797 Y2.0193
G3 X1.8747 Y2.024 I-0.005 J-0.0003
G1 X1.8498
G1 X1.8248
G3 X1.8198 Y2.0189 I0.0 J-0.005
G1 X1.8222 Y1.9342
G1 X1.8206 Y1.8266
G3 X1.8216 Y1.8236 I0.005 J-0.0001
G1 X1.8309 Y1.8108
G3 X1.8349 Y1.8088 I0.004 J0.0029
G1 X1.9509 Y1.8094
G0 Z0.125
G0 Y1.9042
G0 Z0.016
G1 F10.0 Z-0.004
G1 F30.0 X1.9746
G3 X1.9796 Y1.9089 I0.0 J0.005
G1 X1.9827 Y1.9577
G1 X1.9858 Y2.0065
G3 X1.9843 Y2.0103 I-0.005 J0.0003
G1 X1.9737 Y2.0209
G1 X1.9646 Y2.0301
G1 Y2.0659
G1 Y2.0989
G1 X2.0454
G2 X2.1195 Y2.0164 I-0.0041 J-0.0783
G1 X2.1126 Y1.9286
G3 X2.1127 Y1.9269 I0.005 J-0.0004
G1 X2.138 Y1.8339
G3 X2.1419 Y1.8303 I0.0048 J0.0013
G1 X2.1748 Y1.8244
G3 X2.1756 Y1.8243 I0.0009 J0.0049
G1 X2.3261 Y1.8215
G1 X2.4729 Y1.8189
G1 X2.4789 Y1.7955
G2 X2.4873 Y1.6995 I-0.4907 J-0.0913
G3 Y1.6994 I0.005 J0.0
G1 X2.4888 Y1.6295
G3 X2.4932 Y1.6246 I0.005 J0.0001
G1 X2.52 Y1.6215
G1 X2.5468 Y1.6184
G3 X2.5518 Y1.621 I0.0006 J0.005
G1 X2.5624 Y1.641
G1 X2.5731 Y1.6609
G3 X2.5737 Y1.6632 I-0.0044 J0.0024
G1 Y1.7038
G1 Y1.7444
G3 X2.5732 Y1.7466 I-0.005 J0.0
G1 X2.5187 Y1.8597
G3 X2.516 Y1.8622 I-0.0045 J-0.0022
G1 X2.4872 Y1.873
G3 X2.4856 Y1.8733 I-0.0018 J-0.0047
G1 X2.1865 Y1.8819
G1 X2.1804 Y1.8999
G1 X2.1832 Y1.9552
G1 X2.186 Y2.0115
G3 X2.1836 Y2.016 I-0.005 J0.0002
G1 X2.1728 Y2.0227
G1 X2.1643 Y2.028
G1 Y2.1125
G1 Y2.1977
G1 X2.1734 Y2.2068
G1 X2.184 Y2.2174
G3 X2.1855 Y2.2212 I-0.0035 J0.0035
G1 X2.1824 Y2.27
G1 X2.1793 Y2.3189
G3 X2.1743 Y2.3236 I-0.005 J-0.0003
G1 X2.1493
G1 X2.1244
G3 X2.1194 Y2.3184 I0.0 J-0.005
G1 X2.1221 Y2.2267
G1 X2.1043 Y2.1504
G1 X1.7875 Y2.1487
G1 X1.7759 Y2.2087
G1 X1.7846 Y2.2174
G3 X1.7861 Y2.2212 I-0.0035 J0.0035
G1 X1.783 Y2.27
G1 X1.7799 Y2.3189
G3 X1.7749 Y2.3236 I-0.005 J-0.0003
G1 X1.7499
G1 X1.725
G3 X1.72 Y2.3184 I0.0 J-0.005
G1 X1.7227 Y2.226
G1 X1.7253 Y2.1389
G1 X1.7078 Y2.1391
G1 X1.6867 Y2.1394
G1 X1.6687 Y2.1531
G1 X1.6493 Y2.1678
G3 X1.6463 Y2.1688 I-0.003 J-0.004
G1 X1.5952
G1 X1.5441
G3 X1.5411 Y2.1678 I0.0 J-0.005
G1 X1.5233 Y2.1548
G1 X1.5054 Y2.1417
G3 X1.5034 Y2.137 I0.003 J-0.004
G1 X1.5069 Y2.1126
G1 X1.5103 Y2.0882
G3 X1.5151 Y2.0839 I0.005 J0.0007
G1 X1.589 Y2.0809
G1 X1.6629 Y2.078
G3 X1.6667 Y2.0794 I0.0002 J0.005
G1 X1.6771 Y2.0899
G1 X1.6861 Y2.0989
G1 X1.8073
G1 X1.9255
G1 X1.9226 Y2.0067
G1 X1.9197 Y1.9093
G3 X1.9247 Y1.9042 I0.005 J-0.0002
G1 X1.9496
G1 X1.9509
G0 Z0.125
G0 X2.2192 Y1.9091
G0 Z0.016
G1 F10.0 Z-0.004
G3 F30.0 X2.2235 Y1.9042 I0.005 J0.0001
G1 X2.2467 Y1.9009
G1 X2.2699 Y1.8976
G3 X2.2754 Y1.9013 I0.0007 J0.005
G1 X2.2798 Y1.9179
G1 X2.4012 Y1.9187
G3 X2.4062 Y1.9238 I0.0 J0.005
G1 X2.4045 Y2.0923
G3 X2.4236 Y2.122 I-0.0644 J0.0624
G3 Y2.1257 I-0.0047 J0.0018
G3 X2.4025 Y2.1574 I-0.0849 J-0.0337
G1 X2.384 Y2.1758
G1 Y2.2636
G1 Y2.3514
G1 X2.4024 Y2.3698
G3 X2.4237 Y2.4019 I-0.0472 J0.0545
G3 X2.4236 Y2.4053 I-0.0048 J0.0016
G3 X2.4025 Y2.4369 I-0.0847 J-0.0336
G1 X2.384 Y2.4554
G1 Y2.4883
G1 Y2.5182
G1 X2.4193
G1 X2.4581
G1 X2.4808 Y2.5034
G1 X2.5047 Y2.4877
G3 X2.5098 Y2.4875 I0.0027 J0.0042
G1 X2.5292 Y2.4979
G3 X2.5567 Y2.5257 I-0.0287 J0.0558
G3 X2.5569 Y2.5262 I-0.0045 J0.0022
G1 X2.5627 Y2.5414
G3 Y2.545 I-0.0047 J0.0018
G1 X2.5569 Y2.5603
G3 X2.5566 Y2.5609 I-0.0047 J-0.0018
G3 X2.5301 Y2.5881 I-0.063 J-0.0349
G3 X2.5299 Y2.5882 I-0.0025 J-0.0043
G1 X2.5111 Y2.5982
G3 X2.5064 I-0.0024 J-0.0044
G1 X2.4866 Y2.5876
G3 X2.4658 Y2.5683 I0.0194 J-0.0417
G1 X2.3399 Y2.5676
G3 X2.335 Y2.5622 I0.0 J-0.005
G1 X2.3427 Y2.4521
G1 X2.3281 Y2.4299
G1 X2.3126 Y2.4062
G3 Y2.4007 I0.0042 J-0.0027
G1 X2.3287 Y2.3761
G1 X2.344 Y2.3527
G1 Y2.2636
G1 Y2.1746
G1 X2.3287 Y2.1512
G1 X2.3126 Y2.1266
G3 Y2.1211 I0.0042 J-0.0027
G1 X2.3287 Y2.0965
G1 X2.344 Y2.0731
G1 Y2.0243
G1 Y1.9791
G1 X2.3148
G1 X2.2849
G1 X2.2823 Y1.9972
G1 X2.2791 Y2.0197
G3 X2.2741 Y2.024 I-0.005 J-0.0007
G1 X2.2492
G1 X2.2242
G3 X2.2192 Y2.019 I0.0 J-0.005
G1 Y1.9641
G1 Y1.9092
G1 Y1.9091
G0 Z0.125
G0 X2.4527 Y1.9839
G0 Z0.016
G1 F10.0 Z-0.004
G3 F30.0 X2.453 Y1.983 I0.0048 J0.0015
G1 X2.4637 Y1.9631
G1 X2.4744 Y1.9431
G3 X2.4773 Y1.9407 I0.0044 J0.0024
G1 X2.4947 Y1.935
G1 X2.5104 Y1.9299
G1 X2.5543 Y1.8542
G1 X2.5985 Y1.7779
G1 X2.6035 Y1.7041
G1 X2.6086 Y1.6293
G3 X2.613 Y1.6246 I0.005 J0.0003
G1 X2.6398 Y1.6215
G1 X2.6666 Y1.6184
G3 X2.6716 Y1.621 I0.0006 J0.005
G1 X2.6823 Y1.641
G1 X2.6929 Y1.6609
G3 X2.6935 Y1.6632 I-0.0044 J0.0024
G1 Y1.6995
G1 Y1.7357
G3 X2.6929 Y1.7381 I-0.005 J0.0
G1 X2.6826 Y1.7574
G1 X2.6722 Y1.7767
G3 X2.6678 Y1.7794 I-0.0044 J-0.0024
G1 X2.654
G1 X2.6431
G1 X2.5946 Y1.8639
G1 X2.546 Y1.9484
G1 X2.5543 Y1.9638
G1 X2.5638 Y1.9817
G3 Y1.9864 I-0.0044 J0.0024
G1 X2.5532 Y2.0062
G3 X2.5302 Y2.0286 I-0.0383 J-0.0162
G3 X2.5284 Y2.029 I-0.0018 J-0.0046
G1 X2.5238
G1 Y2.0474
G1 Y2.0675
G1 X2.5464 Y2.0778
G1 X2.5697 Y2.0884
G1 X2.5869 Y2.0792
G1 X2.6063 Y2.0688
G3 X2.611 I0.0024 J0.0044
G1 X2.6298 Y2.0789
G3 X2.6568 Y2.1071 I-0.0316 J0.0573
G3 X2.657 Y2.1075 I-0.0045 J0.0022
G1 X2.6631 Y2.1235
G3 X2.6629 Y2.1277 I-0.0047 J0.0018
G1 X2.6532 Y2.1457
G3 Y2.1458 I-0.0044 J-0.0024
G3 X2.6254 Y2.172 I-0.0567 J-0.0322
G3 X2.625 Y2.1722 I-0.0022 J-0.0045
G1 X2.609 Y2.1784
G3 X2.6048 Y2.1781 I-0.0018 J-0.0047
G1 X2.5856 Y2.1678
G1 X2.5687 Y2.1588
G1 X2.5511 Y2.1682
G1 X2.5311 Y2.1789
G3 X2.5264 I-0.0024 J-0.0044
G1 X2.5064 Y2.1682
G1 X2.4865 Y2.1575
G3 X2.4838 Y2.1536 I0.0024 J-0.0044
G1 X2.4825 Y2.1415
G3 Y2.1409 I0.005 J-0.0005
G1 X2.4834 Y2.0823
G3 Y2.0821 I0.005 J0.0001
G1 X2.4854 Y2.0373
G1 X2.4698 Y2.0134
G1 X2.4533 Y1.9881
G3 X2.4527 Y1.9839 I0.0042 J-0.0027
G0 Z0.125
G0 X2.5076 Y2.2089
G0 Z0.016
G1 F10.0 Z-0.004
G3 F30.0 X2.5106 Y2.2091 I0.0012 J0.0049
G3 X2.5422 Y2.23 I-0.0337 J0.0849
G3 X2.5635 Y2.2621 I-0.0472 J0.0545
G3 X2.5634 Y2.2655 I-0.0048 J0.0016
G3 X2.5439 Y2.2955 I-0.0848 J-0.0337
G1 X2.549 Y2.3586
G1 X2.5697 Y2.368
G1 X2.5861 Y2.3592
G1 X2.6048 Y2.3492
G3 X2.609 Y2.3489 I0.0024 J0.0044
G1 X2.625 Y2.355
G3 X2.6253 Y2.3552 I-0.0018 J0.0047
G3 X2.6532 Y2.3815 I-0.0276 J0.0572
G1 X2.6629 Y2.3996
G3 X2.6631 Y2.4038 I-0.0044 J0.0024
G1 X2.657 Y2.4197
G3 X2.6568 Y2.4202 I-0.0047 J-0.0018
G3 X2.6299 Y2.4484 I-0.0594 J-0.0299
G1 X2.6298
G1 X2.611 Y2.4585
G3 X2.6063 I-0.0024 J-0.0044
G1 X2.5863 Y2.4478
G1 X2.5687 Y2.4383
G1 X2.5511 Y2.4478
G1 X2.5311 Y2.4585
G3 X2.5264 I-0.0024 J-0.0044
G1 X2.5064 Y2.4478
G1 X2.4865 Y2.4371
G3 X2.4838 Y2.4332 I0.0024 J-0.0044
G1 X2.4825 Y2.4211
G3 Y2.4209 I0.005 J-0.0005
G3 X2.4834 Y2.3611 I0.3936 J-0.024
G1 X2.4855 Y2.3159
G1 X2.4706 Y2.2947
G1 Y2.2946
G3 X2.4542 Y2.2632 I0.1329 J-0.0893
G3 X2.4544 Y2.2592 I0.0047 J-0.0018
G3 X2.4752 Y2.2303 I0.0941 J0.0457
G3 X2.5072 Y2.209 I0.0544 J0.0472
G3 X2.5076 Y2.2089 I0.0016 J0.0048
G0 Z0.125
G0 X2.2801 Y2.2233
G0 Z0.016
G1 F10.0 Z-0.004
G1 F30.0 X2.2822 Y2.2572
G1 X2.2853 Y2.306
G3 X2.2839 Y2.3099 I-0.005 J0.0003
G1 X2.2733 Y2.3205
G1 X2.2642 Y2.3296
G1 Y2.4853
G1 Y2.6381
G1 X2.6635
G1 X3.0629
G1 Y2.0639
G1 Y1.4898
G1 X2.7557
G1 X2.4435
G3 X2.44 Y1.4883 I0.0 J-0.005
G1 X2.3338 Y1.381
G1 X2.2277 Y1.2737
G3 X2.2262 Y1.2702 I0.0036 J-0.0035
G1 X2.2227 Y1.0905
G1 X2.2192 Y0.9108
G3 X2.2242 Y0.9057 I0.005 J-0.0001
G1 X2.2492
G1 X2.2741
G3 X2.2791 Y0.9108 I0.0 J0.005
G1 X2.2753 Y1.079
G1 X2.2714 Y1.245
G1 X2.3685 Y1.3424
G1 X2.4655 Y1.4399
G1 X2.7857
G1 X3.1079
G3 X3.1129 Y1.4449 I0.0 J0.005
G1 Y2.064
G1 Y2.6831
G3 X3.1079 Y2.6881 I-0.005 J0.0
G1 X1.6326 Y2.6855
G1 X0.1573 Y2.683
G3 X0.1523 Y2.678 I0.0 J-0.005
G1 X0.1497 Y2.2591
G1 X0.1471 Y1.8421
G1 X0.1387 Y1.8337
G1 X0.1288 Y1.8238
G3 X0.1274 Y1.8203 I0.0035 J-0.0035
G1 Y1.7081
G1 Y1.5958
G3 X0.1297 Y1.5916 I0.005 J0.0
G1 X0.1397 Y1.5854
G1 X0.1473 Y1.5807
G1 Y1.4988
G1 Y1.4157
G1 X0.132 Y1.3923
G1 X0.1159 Y1.3677
G3 Y1.3623 I0.0042 J-0.0027
G1 X0.1317 Y1.3382
G1 X0.1467 Y1.3152
G1 X0.1495 Y1.2035
G1 X0.1523 Y1.0903
G3 X0.1573 Y1.0854 I0.005 J0.0001
G1 X0.4456 Y1.0828
G1 X0.7288 Y1.0802
G1 X0.7252 Y0.9481
G1 X0.7215 Y0.811
G3 X0.7258 Y0.8059 I0.005 J-0.0001
G1 X0.7461 Y0.803
G1 X0.7665 Y0.8
G3 X0.7708 Y0.8015 I0.0007 J0.0049
G1 X0.7779 Y0.8085
G1 X0.7849 Y0.8156
G3 X0.7864 Y0.8192 I-0.0035 J0.0035
G1 Y0.8654
G1 Y0.9117
G3 X0.7849 Y0.9152 I-0.005 J0.0
G1 X0.7754 Y0.9248
G1 X0.7673 Y0.9328
G1 X0.7721 Y1.1057
G3 X0.7691 Y1.1105 I-0.005 J0.0001
G1 X0.7584 Y1.115
G3 X0.7565 Y1.1154 I-0.0019 J-0.0046
G1 X0.4694 Y1.118
G1 X0.1873 Y1.1206
G1 Y1.2204
G1 Y1.3201
G1 X0.1919
G3 X0.194 Y1.3205 I0.0 J0.005
G3 X0.2172 Y1.3437 I-0.0185 J0.0418
G3 X0.2176 Y1.3463 I-0.0046 J0.002
G1 X0.2123 Y1.3919
G3 X0.2115 Y1.394 I-0.005 J-0.0006
G1 X0.196 Y1.4176
G1 X0.202 Y1.5126
G3 X0.2075 Y1.7095 I-2.3612 J0.1645
G1 X0.2049 Y1.9504
G1 X0.2034 Y2.0709
G1 X0.2019 Y2.1913
G1 X0.1969 Y2.5682
G1 X0.2999
G1 X0.408
G3 X0.4115 Y2.5696 I0.0 J0.005
G1 X0.4235 Y2.5816
G1 X0.4355 Y2.5936
G3 X0.4369 Y2.5971 I-0.0035 J0.0035
G1 Y2.6201
G1 Y2.6381
G1 X0.8413
G1 X1.2457
G1 Y2.4583
G1 Y2.2786
G1 X1.1665
G1 X1.0867
G1 X1.0841 Y2.2968
G1 X1.0809 Y2.3193
G3 X1.0759 Y2.3236 I-0.005 J-0.0007
G1 X1.051
G1 X1.026
G3 X1.021 Y2.3186 I0.0 J-0.005
G1 Y2.2636
G1 Y2.2087
G3 X1.0253 Y2.2038 I0.005 J0.0
G1 X1.0485 Y2.2005
G1 X1.0717 Y2.1972
G3 X1.0772 Y2.2009 I0.0007 J0.005
G1 X1.0826 Y2.2213
G1 X1.0869 Y2.2379
G1 X1.2871 Y2.2364
G3 X1.2921 Y2.2415 I0.0 J0.005
G1 X1.2861 Y2.6381
G1 X1.7564
G1 X2.2036 Y2.6325
G1 X2.2192 Y2.2085
G3 X2.2242 Y2.2037 I0.005 J0.0002
G1 X2.2492
G1 X2.2741
G3 X2.2791 Y2.2084 I0.0 J0.005
G1 X2.2801 Y2.2233
G0 Z0.125
G0 X1.9846
G0 Z0.016
G1 F10.0 Z-0.004
G1 F30.0 Y2.2647
G1 Y2.3124
G3 X1.9822 Y2.3166 I-0.005 J0.0
G1 X1.9722 Y2.3228
G1 X1.9646 Y2.3275
G1 Y2.379
G1 Y2.4313
G1 X1.983 Y2.4497
G3 X2.0043 Y2.4817 I-0.0472 J0.0545
G3 Y2.485 I-0.0048 J0.0016
G3 X1.9822 Y2.5177 I-0.0735 J-0.0257
G1 X1.9616 Y2.5383
G3 X1.9558 Y2.5393 I-0.0035 J-0.0035
G1 X1.9391 Y2.531
G1 X1.9235 Y2.5232
G1 X1.7272 Y2.5204
G1 X1.5313 Y2.5175
G1 X1.5107 Y2.5319
G1 X1.4887 Y2.5473
G3 X1.4859 Y2.5482 I-0.0029 J-0.0041
G1 X1.4551
G1 X1.4242
G3 X1.4213 Y2.5472 I0.0 J-0.005
G1 X1.4035 Y2.5342
G1 X1.3856 Y2.5212
G3 X1.3836 Y2.5164 I0.003 J-0.004
G1 X1.3871 Y2.492
G1 X1.3905 Y2.4676
G3 X1.3952 Y2.4633 I0.005 J0.0007
G1 X1.449 Y2.4603
G1 X1.5029 Y2.4572
G3 X1.5067 Y2.4587 I0.0003 J0.005
G1 X1.5172 Y2.4692
G1 X1.5263 Y2.4783
G1 X1.7108
G1 X1.8947
G1 X1.9095 Y2.4557
G1 X1.923 Y2.3199
G1 X1.9197 Y2.2089
G3 X1.924 Y2.2038 I0.005 J-0.0001
G1 X1.9443 Y2.2009
G1 X1.9647 Y2.1979
G3 X1.969 Y2.1993 I0.0007 J0.0049
G1 X1.976 Y2.2064
G1 X1.9831 Y2.2135
G3 X1.9846 Y2.217 I-0.0035 J0.0035
G1 Y2.2233
G0 Z0.125
G0 X1.2967 Y2.1319
G0 Z0.016
G1 F10.0 Z-0.004
G3 F30.0 X1.2953 Y2.1348 I-0.005 J-0.0007
G1 X1.2803 Y2.1498
G1 X1.2652 Y2.1649
G3 X1.2618 Y2.1663 I-0.0035 J-0.0035
G1 X0.8918 Y2.1757
G1 X0.8874 Y2.2213
G1 X0.8843 Y2.27
G1 X0.8812 Y2.3189
G3 X0.8762 Y2.3236 I-0.005 J-0.0003
G1 X0.8513
G1 X0.8263
G3 X0.8213 Y2.3184 I0.0 J-0.005
G1 X0.8237 Y2.2336
G3 X0.8309 Y2.1358 I0.9713 J0.0224
G3 X0.8312 Y2.1346 I0.005 J0.0006
G1 X0.836 Y2.1221
G3 X0.8407 Y2.1188 I0.0047 J0.0018
G1 X0.9846
G1 X1.1247
G1 X1.1289 Y2.1026
G1 X1.1341 Y2.0826
G3 X1.139 Y2.0789 I0.0048 J0.0013
G1 X1.1848
G1 X1.2257
G1 X1.2254 Y2.0465
G1 X1.2251 Y2.0107
G1 X1.2114 Y1.9927
G3 X1.196 Y1.9638 I0.0779 J-0.0601
G3 X1.1962 Y1.9601 I0.0047 J-0.0016
G3 X1.2171 Y1.9307 I0.0865 J0.0393
G3 X1.2491 Y1.9094 I0.0544 J0.0472
G3 X1.2525 Y1.9095 I0.0016 J0.0048
G3 X1.2841 Y1.9305 I-0.0337 J0.0848
G3 X1.3052 Y1.96 I-0.0509 J0.0589
G3 X1.3054 Y1.9633 I-0.0046 J0.0019
G3 X1.2887 Y1.9954 I-0.0915 J-0.0273
G1 X1.2739 Y2.0165
G1 X1.278 Y2.0565
G1 Y2.0566
G2 X1.2892 Y2.1133 I0.2725 J-0.0244
G1 X1.2963 Y2.1292
G3 X1.2967 Y2.1319 I-0.0046 J0.002
G0 Z0.125
G0 X1.2118 Y2.3588
G0 Z0.016
G1 F10.0 Z-0.004
G3 F30.0 X1.2144 Y2.3611 I-0.0018 J0.0047
G1 X1.2247 Y2.3803
G3 X1.2356 Y2.4059 I-0.072 J0.0457
G3 X1.2352 Y2.4092 I-0.0049 J0.0012
G3 X1.2184 Y2.4313 I-0.0634 J-0.0307
G1 X1.2029 Y2.4469
G3 X1.1993 Y2.4484 I-0.0035 J-0.0035
G1 X1.1676 Y2.4483
G1 X1.1358 Y2.4482
G3 X1.1335 Y2.4477 I0.0 J-0.005
G1 X1.1049 Y2.4328
G1 X1.0774 Y2.4184
G1 X1.0096
G1 X0.9405
G1 X0.9404
G1 X0.9184 Y2.418
G3 X0.9135 Y2.4125 I0.0001 J-0.005
G1 X0.9237 Y2.2984
G1 X0.9212 Y2.2089
G3 X0.9255 Y2.2038 I0.005 J-0.0001
G1 X0.9458 Y2.2009
G1 X0.9662 Y2.1979
G3 X0.9705 Y2.1993 I0.0007 J0.0049
G1 X0.9775 Y2.2064
G1 X0.9846 Y2.2135
G3 X0.9861 Y2.217 I-0.0035 J0.0035
G1 Y2.2647
G1 Y2.3124
G3 X0.9837 Y2.3166 I-0.005 J0.0
G1 X0.9737 Y2.3228
G1 X0.9661 Y2.3275
G1 Y2.3541
G1 Y2.3785
G1 X1.0254
G1 X1.087
G1 X1.0917 Y2.3708
G1 X1.0978 Y2.3609
G3 X1.1021 Y2.3585 I0.0043 J0.0026
G1 X1.1561
G1 X1.21
G3 X1.2118 Y2.3588 I0.0 J0.005
G0 Z0.125
G0 X1.0743 Y2.4604
G0 Z0.016
G1 F10.0 Z-0.004
G3 F30.0 X1.0747 Y2.461 I-0.004 J0.003
G1 X1.0849 Y2.4801
G3 X1.0958 Y2.5057 I-0.072 J0.0457
G3 X1.0954 Y2.5091 I-0.0049 J0.0012
G3 X1.0787 Y2.5312 I-0.0635 J-0.0307
G1 X1.0631 Y2.5467
G3 X1.0595 Y2.5482 I-0.0035 J-0.0035
G1 X1.0193
G1 X0.9791
G3 X0.977 Y2.5477 I0.0 J-0.005
G1 X0.9465 Y2.5333
G1 X0.2374 Y2.5274
G3 X0.2325 Y2.5224 I0.0 J-0.005
G1 X0.2302 Y2.0947
G3 X0.2339 Y2.0898 I0.005 J0.0
G1 X0.2559 Y2.0841
G3 X0.2569 Y2.0839 I0.0013 J0.0048
G1 X0.614 Y2.0652
G1 X0.6241 Y1.996
G1 X0.6216 Y1.9093
G3 X0.6259 Y1.9042 I0.005 J-0.0001
G1 X0.6463 Y1.9013
G1 X0.6667 Y1.8984
G3 X0.6709 Y1.8998 I0.0007 J0.0049
G1 X0.678 Y1.9069
G1 X0.6851 Y1.914
G3 X0.6865 Y1.9175 I-0.0035 J0.0035
G1 Y1.9638
G1 Y2.01
G3 X0.6851 Y2.0135 I-0.005 J0.0
G1 X0.6758 Y2.023
G1 X0.6677 Y2.0312
G1 X0.6647 Y2.0693
G1 X0.6616 Y2.1093
G3 X0.6569 Y2.1139 I-0.005 J-0.0004
G1 X0.6095 Y2.1169
G1 X0.5667 Y2.1196
G1 Y2.1573
G1 Y2.1977
G1 X0.5758 Y2.2068
G1 X0.5864 Y2.2174
G3 X0.5879 Y2.2212 I-0.0035 J0.0035
G1 X0.5848 Y2.27
G1 X0.5817 Y2.3189
G3 X0.5767 Y2.3236 I-0.005 J-0.0003
G1 X0.5517
G1 X0.5268
G3 X0.5218 Y2.3184 I0.0 J-0.005
G1 X0.5247 Y2.2218
G1 X0.4878 Y2.2255
G1 X0.4849 Y2.27
G1 X0.4818 Y2.3189
G3 X0.4769 Y2.3236 I-0.005 J-0.0003
G1 X0.4519
G1 X0.4269
G3 X0.4219 Y2.3184 I0.0 J-0.005
G1 X0.4251 Y2.2161
G1 X0.4281 Y2.1189
G1 X0.3577
G1 X0.2871
G1 Y2.2986
G1 Y2.4783
G1 X0.6061
G1 X0.9272
G1 X0.9319 Y2.4707
G1 X0.9381 Y2.4607
G3 X0.9423 Y2.4583 I0.0043 J0.0026
G1 X1.0063
G1 X1.0703
G3 X1.0743 Y2.4604 I0.0 J0.005
G0 Z0.125
G0 X0.7809 Y2.3207
G0 Z0.016
G1 F10.0 Z-0.004
G3 F30.0 X0.7764 Y2.3236 I-0.0045 J-0.0021
G1 X0.7514
G1 X0.7265
G3 X0.7215 Y2.3185 I0.0 J-0.005
G1 X0.7234 Y2.0467
G1 X0.7136 Y1.9618
G3 X0.7135 Y1.9611 I0.005 J-0.0006
G1 X0.718 Y1.8115
G1 X0.5148 Y1.7894
G3 X0.4948 Y1.8084 I-0.0376 J-0.0195
G1 X0.4757 Y1.8187
G3 X0.4715 Y1.8189 I-0.0024 J-0.0044
G1 X0.4555 Y1.8128
G3 X0.4552 Y1.8126 I0.0018 J-0.0047
G3 X0.4273 Y1.7863 I0.0276 J-0.0572
G1 X0.4176 Y1.7682
G3 X0.4173 Y1.764 I0.0044 J-0.0024
G1 X0.4235 Y1.7481
G3 X0.4237 Y1.7476 I0.0047 J0.0018
G3 X0.4513 Y1.7191 I0.0596 J0.0301
G1 X0.4514
G1 X0.4708 Y1.7086
G3 X0.4759 Y1.7089 I0.0024 J0.0044
G1 X0.4999 Y1.7246
G1 X0.5226 Y1.7394
G1 X0.6259
G1 X0.7259
G1 X0.7286 Y1.6569
G1 X0.7315 Y1.5695
G3 X0.736 Y1.5647 I0.005 J0.0002
G1 X0.7699 Y1.5615
G1 X0.8026 Y1.5583
G1 X0.8251 Y1.5436
G1 X0.8485 Y1.5283
G3 X0.854 I0.0027 J0.0042
G1 X0.8786 Y1.5444
G1 X0.902 Y1.5597
G1 X0.9533 Y1.5594
G1 X1.0044 Y1.5591
G1 X1.0224 Y1.5454
G3 X1.0513 Y1.53 I0.0602 J0.078
G3 X1.055 Y1.5302 I0.0016 J0.0047
G3 X1.0844 Y1.5511 I-0.0393 J0.0865
G3 X1.1057 Y1.5831 I-0.0472 J0.0544
G3 X1.1056 Y1.5865 I-0.0048 J0.0016
G3 X1.0846 Y1.618 I-0.0849 J-0.0337
G3 X1.0525 Y1.6393 I-0.0545 J-0.0472
G3 X1.0491 Y1.6392 I-0.0016 J-0.0048
G3 X1.0175 Y1.6181 I0.0336 J-0.0847
G1 X0.999 Y1.5996
G1 X0.9511
G1 X0.9033
G1 X0.8849 Y1.618
G3 X0.8528 Y1.6393 I-0.0545 J-0.0472
G3 X0.8494 Y1.6392 I-0.0016 J-0.0048
G3 X0.8178 Y1.6181 I0.0337 J-0.0848
G1 X0.8053 Y1.6057
G1 X0.7767 Y1.9066
G1 X0.784 Y1.9111
G3 X0.7864 Y1.9153 I-0.0026 J0.0043
G1 Y1.9641
G1 Y2.0128
G3 X0.784 Y2.0171 I-0.005 J0.0
G1 X0.774 Y2.0233
G1 X0.7664 Y2.028
G1 Y2.0446
G1 Y2.0589
G1 X0.8456
G2 X0.923 Y1.9865 I0.0001 J-0.0775
G1 X0.9212 Y1.9093
G3 X0.9262 Y1.9042 I0.005 J-0.0001
G1 X0.9511
G1 X0.9761
G3 X0.9811 Y1.9088 I0.0 J0.005
G1 X0.9842 Y1.9532
G1 X0.9874 Y1.9975
G3 Y1.9982 I-0.005 J0.0004
G1 X0.9821 Y2.0764
G3 X0.9797 Y2.0803 I-0.005 J-0.0003
G1 X0.9587 Y2.0932
G3 X0.9566 Y2.0939 I-0.0026 J-0.0043
G1 X0.7675 Y2.1119
G1 X0.7664 Y2.1472
G1 Y2.1977
G1 X0.7755 Y2.2068
G1 X0.7861 Y2.2174
G3 X0.7876 Y2.2212 I-0.0035 J0.0035
G1 X0.7845 Y2.27
G1 X0.7814 Y2.3189
G3 X0.7809 Y2.3207 I-0.005 J-0.0003
G0 Z0.125
G0 X0.6865 Y2.3101
G0 Z0.016
G1 F10.0 Z-0.004
G3 F30.0 X0.6851 Y2.313 I-0.005 J-0.0006
G1 X0.6773 Y2.3211
G1 X0.676 Y2.3834
G3 X0.6727 Y2.388 I-0.005 J-0.0001
G1 X0.6583 Y2.3932
G3 X0.6567 Y2.3934 I-0.0017 J-0.0047
G1 X0.5344 Y2.3962
G1 X0.417 Y2.3989
G1 Y2.4034
G3 X0.4165 Y2.4054 I-0.005 J0.0
G3 X0.3942 Y2.4279 I-0.0405 J-0.0179
G1 X0.3744 Y2.4385
G3 X0.3697 I-0.0024 J-0.0044
G1 X0.3509 Y2.4284
G1 X0.3508
G3 X0.3238 Y2.4002 I0.0316 J-0.0573
G3 X0.3236 Y2.3998 I0.0045 J-0.0022
G1 X0.3175 Y2.3838
G3 X0.3178 Y2.3796 I0.0047 J-0.0018
G1 X0.3274 Y2.3616
G3 X0.3275 Y2.3614 I0.0044 J0.0024
G3 X0.3559 Y2.335 I0.0597 J0.0358
G3 X0.3564 Y2.3348 I0.0022 J0.0045
G1 X0.373 Y2.3284
G3 X0.3776 Y2.3289 I0.0018 J0.0047
G1 X0.4008 Y2.3441
G1 X0.4227 Y2.3585
G1 X0.5258
G1 X0.6252
G1 X0.6235 Y2.2862
G1 X0.6216 Y2.2088
G3 X0.6259 Y2.2038 I0.005 J-0.0001
G1 X0.6463 Y2.2009
G1 X0.6667 Y2.1979
G3 X0.6709 Y2.1993 I0.0007 J0.0049
G1 X0.678 Y2.2064
G1 X0.6851 Y2.2135
G3 X0.6865 Y2.217 I-0.0035 J0.0035
G1 Y2.2633
G1 Y2.3096
G3 Y2.3101 I-0.005 J0.0
G0 Z0.125
G0 X0.5785 Y2.0237
G0 Z0.016
G1 F10.0 Z-0.004
G3 F30.0 X0.5767 Y2.024 I-0.0018 J-0.0047
G1 X0.5517
G1 X0.5268
G1 X0.4769
G1 X0.4519
G1 X0.4269
G3 X0.4219 Y2.0193 I0.0 J-0.005
G1 X0.419 Y1.9738
G1 X0.4162 Y1.9315
G1 X0.3773 Y1.9174
G1 X0.3354 Y1.9021
G3 X0.3321 Y1.8978 I0.0017 J-0.0047
G1 X0.3289 Y1.8549
G1 X0.3259 Y1.8133
G1 X0.3111 Y1.7908
G1 X0.2956 Y1.7671
G3 Y1.7616 I0.0042 J-0.0027
G1 X0.3118 Y1.737
G1 X0.3271 Y1.7137
G1 Y1.6745
G1 Y1.6354
G1 X0.3118 Y1.612
G1 X0.2956 Y1.5874
G3 Y1.5819 I0.0042 J-0.0027
G1 X0.3118 Y1.5573
G1 X0.3271 Y1.5339
G1 Y1.5001
G1 Y1.4648
G3 X0.3321 Y1.4598 I0.005 J0.0
G1 X0.6012
G1 X0.8655
G1 X0.8683 Y1.4072
G1 X0.8713 Y1.3498
G3 X0.8756 Y1.3451 I0.005 J0.0003
G1 X0.9 Y1.3416
G1 X0.9244 Y1.3382
G3 X0.9291 Y1.3402 I0.0007 J0.005
G1 X0.9421 Y1.358
G1 X0.9552 Y1.3758
G3 X0.9561 Y1.3788 I-0.004 J0.003
G1 Y1.4218
G1 Y1.4598
G1 X1.051
G1 X1.1458
G1 Y1.3251
G1 Y1.1904
G1 X1.1338 Y1.1906
G2 X1.0995 Y1.2046 I0.0132 J0.0815
G3 X1.0706 Y1.22 I-0.0601 J-0.0781
G3 X1.067 Y1.2198 I-0.0016 J-0.0047
G3 X1.0375 Y1.1989 I0.0393 J-0.0865
G3 X1.0163 Y1.1669 I0.0472 J-0.0544
G3 X1.0164 Y1.1635 I0.0048 J-0.0016
G3 X1.0374 Y1.1319 I0.0847 J0.0336
G3 X1.0668 Y1.1107 I0.0589 J0.0509
G3 X1.0703 Y1.1106 I0.0019 J0.0046
G3 X1.0997 Y1.1255 I-0.0342 J0.1039
G1 X1.1188 Y1.1389
G1 X1.1519 Y1.1421
G1 X1.1863 Y1.1453
G3 X1.1908 Y1.1503 I-0.0005 J0.005
G1 X1.1935 Y1.3874
G1 X1.1961 Y1.6196
G1 X1.2305
G1 X1.2699
G3 X1.2744 Y1.6222 I0.0 J0.005
G1 X1.2846 Y1.6414
G3 X1.2955 Y1.667 I-0.0719 J0.0456
G3 X1.2951 Y1.6703 I-0.0049 J0.0012
G3 X1.2784 Y1.6924 I-0.0635 J-0.0308
G1 X1.2628 Y1.708
G3 X1.2592 Y1.7095 I-0.0035 J-0.0035
G1 X1.2207
G1 X1.1821
G3 X1.1803 Y1.7092 I0.0 J-0.005
G1 X1.1547 Y1.6994
G1 X1.1291 Y1.6897
G3 X1.1259 Y1.685 I0.0018 J-0.0047
G1 Y1.6604
G1 Y1.6358
G3 X1.1282 Y1.6315 I0.005 J0.0
G1 X1.1382 Y1.6253
G1 X1.1458 Y1.6206
G1 Y1.5641
G1 Y1.5098
G1 X0.7614
G1 X0.377
G1 Y1.5198
G2 X0.3922 Y1.5571 I0.081 J-0.0112
G3 X0.3923 Y1.5573 I-0.004 J0.003
G1 X0.4084 Y1.5819
G3 Y1.5874 I-0.0042 J0.0027
G1 X0.3923 Y1.612
G1 X0.377 Y1.6354
G1 Y1.6745
G1 Y1.7137
G1 X0.3923 Y1.737
G1 X0.4084 Y1.7616
G3 Y1.7671 I-0.0042 J0.0027
G1 X0.3923 Y1.7917
G1 X0.377 Y1.8151
G1 Y1.8391
G1 Y1.8612
G1 X0.429 Y1.8842
G1 X0.4824 Y1.9078
G1 X0.5293 Y1.8977
G3 X0.531 Y1.8976 I0.0011 J0.0049
G1 X0.5542 Y1.9009
G1 X0.5774 Y1.9042
G3 X0.5817 Y1.9092 I-0.0007 J0.005
G1 Y1.9641
G1 Y2.019
G3 X0.5785 Y2.0237 I-0.005 J0.0
G0 Z0.125
G0 X0.8151 Y2.0071
G0 Z0.016
G1 F10.0 Z-0.004
G3 F30.0 Y2.0065 I0.005 J-0.0003
G1 X0.8221 Y1.8953
G1 X0.8292 Y1.784
G3 X0.8341 Y1.7794 I0.005 J0.0003
G1 X0.8601 Y1.779
G1 X0.8845 Y1.7787
G1 X0.9026 Y1.7651
G3 X0.9315 Y1.7497 I0.0601 J0.0777
G3 X0.9351 Y1.7499 I0.0016 J0.0047
G3 X0.9646 Y1.7707 I-0.0394 J0.0867
G3 X0.9858 Y1.8028 I-0.0472 J0.0544
G3 X0.9857 Y1.8062 I-0.0048 J0.0016
G3 X0.9647 Y1.8377 I-0.0848 J-0.0337
G3 X0.935 Y1.8589 I-0.0601 J-0.053
G3 X0.9317 Y1.8591 I-0.0019 J-0.0046
G3 X0.9025 Y1.8435 I0.0211 J-0.0749
G2 X0.8773 Y1.8296 I-0.06 J0.0789
G1 X0.8755 Y1.8295
G1 X0.8783 Y1.9212
G1 X0.8812 Y2.0182
G3 X0.8772 Y2.0233 I-0.005 J0.0002
G1 X0.8587 Y2.027
G1 X0.8402 Y2.0308
G3 X0.8356 Y2.0294 I-0.001 J-0.0049
G1 X0.8261 Y2.0199
G1 X0.8166 Y2.0103
G3 X0.8151 Y2.0071 I0.0035 J-0.0035
G0 Z0.125
G0 X1.0148 Y2.0068
G0 Z0.016
G1 F10.0 Z-0.004
G3 F30.0 Y2.0065 I0.005 J0.0
G1 X1.0218 Y1.8953
G1 X1.0289 Y1.784
G3 X1.0338 Y1.7794 I0.005 J0.0003
G1 X1.0798 Y1.779
G1 X1.1242 Y1.7787
G1 X1.1422 Y1.7651
G3 X1.1711 Y1.7497 I0.0603 J0.0781
G3 X1.1748 Y1.7499 I0.0016 J0.0047
G3 X1.2042 Y1.7708 I-0.0393 J0.0866
G3 X1.2255 Y1.8028 I-0.0472 J0.0544
G3 X1.2254 Y1.8062 I-0.0048 J0.0016
G3 X1.2044 Y1.8377 I-0.0848 J-0.0337
G3 X1.1746 Y1.8589 I-0.0601 J-0.0531
G3 X1.1714 Y1.8591 I-0.0019 J-0.0046
G3 X1.1421 Y1.8435 I0.021 J-0.0746
G1 X1.1242 Y1.8299
G1 X1.0979 Y1.8296
G1 X1.0752 Y1.8294
G1 X1.078 Y1.9212
G1 X1.0809 Y2.0182
G3 X1.0769 Y2.0233 I-0.005 J0.0002
G1 X1.0584 Y2.027
G1 X1.0399 Y2.0308
G3 X1.0353 Y2.0294 I-0.001 J-0.0049
G1 X1.0258 Y2.0199
G1 X1.0162 Y2.0103
G3 X1.0148 Y2.0068 I0.0035 J-0.0035
G0 Z0.125
G0 X0.6781 Y1.6251
G0 Z0.016
G1 F10.0 Z-0.004
G3 F30.0 X0.6554 Y1.6392 I-0.053 J-0.0601
G3 X0.6521 Y1.6394 I-0.0019 J-0.0046
G3 X0.6229 Y1.6238 I0.0211 J-0.0749
G1 X0.605 Y1.6103
G1 X0.5638 Y1.6099
G1 X0.5226 Y1.6096
G1 X0.5006 Y1.624
G1 X0.4774 Y1.6392
G3 X0.4729 Y1.6397 I-0.0027 J-0.0042
G1 X0.4562 Y1.6333
G3 X0.4559 Y1.6332 I0.0018 J-0.0047
G3 X0.4273 Y1.6066 I0.0255 J-0.0562
G1 Y1.6065
G1 X0.4176 Y1.5885
G3 X0.4173 Y1.5843 I0.0044 J-0.0024
G1 X0.4235 Y1.5683
G3 X0.4237 Y1.5679 I0.0047 J0.0018
G3 X0.4513 Y1.5393 I0.0596 J0.0301
G1 X0.4514
G1 X0.4708 Y1.5289
G3 X0.4759 Y1.5291 I0.0024 J0.0044
G1 X0.4999 Y1.5448
G1 X0.5226 Y1.5597
G1 X0.5638 Y1.5594
G1 X0.605 Y1.5591
G1 X0.623 Y1.5454
G3 X0.6519 Y1.53 I0.0601 J0.0779
G3 X0.6556 Y1.5302 I0.0016 J0.0047
G3 X0.685 Y1.5511 I-0.0393 J0.0866
G3 X0.7063 Y1.5831 I-0.0472 J0.0544
G3 X0.7062 Y1.5865 I-0.0048 J0.0016
G3 X0.6852 Y1.6181 I-0.085 J-0.0338
G3 X0.6781 Y1.6251 I-0.0601 J-0.0531
G0 Z0.125
G0 X0.5337 Y1.4292
G0 Z0.016
G1 F10.0 Z-0.004
G3 F30.0 X0.5134 Y1.4396 I-0.0428 J-0.058
G3 X0.5103 I-0.0016 J-0.0048
G3 X0.4807 Y1.4205 I0.021 J-0.0648
G1 X0.466 Y1.4055
G1 X0.443 Y1.4185
G1 X0.4167 Y1.4333
G3 X0.413 Y1.4338 I-0.0025 J-0.0044
G1 X0.3744 Y1.4243
G1 X0.3359 Y1.4148
G3 X0.3321 Y1.4099 I0.0012 J-0.0049
G1 Y1.38
G1 Y1.35
G3 X0.3368 Y1.345 I0.005 J0.0
G1 X0.39 Y1.342
G1 X0.4432 Y1.3389
G3 X0.4467 Y1.3401 I0.0003 J0.005
G1 X0.4584 Y1.3498
G1 X0.4671 Y1.357
G1 X0.4832 Y1.3452
G3 X0.5123 Y1.3302 I0.0517 J0.0647
G3 X0.5158 Y1.3305 I0.0014 J0.0048
G3 X0.5452 Y1.3514 I-0.0394 J0.0866
G3 X0.5665 Y1.3834 I-0.0472 J0.0544
G3 X0.5664 Y1.3868 I-0.0048 J0.0016
G3 X0.5454 Y1.4183 I-0.0848 J-0.0337
G3 X0.5337 Y1.4292 I-0.0545 J-0.0472
G0 Z0.125
G0 X0.5124 Y1.3
G0 Z0.016
G1 F10.0 Z-0.004
G3 F30.0 X0.5116 Y1.3001 I-0.0008 J-0.0049
G1 X0.4929
G2 X0.4464 Y1.3164 I0.0173 J0.1239
G1 X0.4463
G1 X0.4167 Y1.3335
G3 X0.413 Y1.334 I-0.0025 J-0.0043
G1 X0.3744 Y1.3245
G1 X0.3359 Y1.3149
G3 X0.3321 Y1.3101 I0.0012 J-0.0049
G1 Y1.2801
G1 Y1.2502
G3 X0.3368 Y1.2452 I0.005 J0.0
G1 X0.3906 Y1.2421
G1 X0.4445 Y1.239
G3 X0.4483 Y1.2405 I0.0003 J0.005
G1 X0.4587 Y1.2509
G2 X0.4816 Y1.26 I0.0266 J-0.0333
G1 X0.5021 Y1.2436
G1 X0.507 Y1.2282
G1 X0.5016 Y1.2142
G1 X0.4956 Y1.1986
G3 X0.4967 Y1.1933 I0.0047 J-0.0018
G1 X0.5174 Y1.1726
G3 X0.5499 Y1.1507 I0.0664 J0.0634
G3 X0.5536 I0.0018 J0.0046
G3 X0.5851 Y1.1716 I-0.0337 J0.0849
G3 X0.6064 Y1.2037 I-0.0472 J0.0545
G3 X0.6063 Y1.2071 I-0.0048 J0.0016
G3 X0.5852 Y1.2387 I-0.0848 J-0.0337
G3 X0.5507 Y1.2599 I-0.0597 J-0.0586
G3 X0.5491 Y1.2602 I-0.0015 J-0.0048
G1 X0.5393
G1 X0.5283 Y1.2778
G1 X0.5159 Y1.2977
G3 X0.5124 Y1.3 I-0.0042 J-0.0026
G0 Z0.125
G0 X0.4642 Y1.2101
G0 Z0.016
G1 F10.0 Z-0.004
G3 F30.0 X0.4639 Y1.2102 I-0.0024 J-0.0044
G1 X0.4384 Y1.2219
G1 X0.4128 Y1.2335
G3 X0.4094 Y1.2338 I-0.0021 J-0.0045
G1 X0.3685 Y1.2229
G1 X0.3293 Y1.2124
G1 X0.3076 Y1.2223
G1 X0.2871 Y1.2316
G1 Y1.5962
G1 Y1.9591
G1 X0.2918
G3 X0.2939 Y1.9595 I0.0 J0.005
G3 X0.3166 Y1.9818 I-0.0198 J0.0429
G1 X0.3272 Y2.0017
G3 Y2.0064 I-0.0044 J0.0024
G1 X0.3172 Y2.0251
G3 X0.2896 Y2.052 I-0.0535 J-0.0274
G3 X0.2892 Y2.0521 I-0.0022 J-0.0045
G1 X0.274 Y2.058
G3 X0.2704 I-0.0018 J-0.0047
G1 X0.2551 Y2.0521
G3 X0.2545 Y2.0518 I0.0018 J-0.0047
G3 X0.2269 Y2.0246 I0.0348 J-0.0629
G3 X0.2268 Y2.0245 I0.0043 J-0.0025
G1 X0.2164 Y2.005
G3 X0.2166 Y1.9999 I0.0044 J-0.0024
G1 X0.2315 Y1.9772
G1 X0.2406 Y1.1819
G3 X0.2445 Y1.177 I0.005 J0.0001
G1 X0.3281 Y1.1583
G1 X0.3428 Y1.142
G3 X0.3465 Y1.1403 I0.0037 J0.0033
G1 X0.3975
G1 X0.4486
G3 X0.4521 Y1.1418 I0.0 J0.005
G1 X0.4588 Y1.1484
G3 X0.4596 Y1.1496 I-0.0035 J0.0035
G3 X0.4669 Y1.1823 I-0.0552 J0.0294
G1 Y1.2057
G3 X0.4642 Y1.2101 I-0.005 J0.0
G0 Z0.125
G0 X0.4523 Y1.0605
G0 Z0.016
G1 F10.0 Z-0.004
G3 F30.0 X0.45 Y1.0601 I-0.0004 J-0.005
G3 X0.4184 Y1.039 I0.0337 J-0.0849
G1 X0.3999 Y1.0205
G1 X0.3617
G1 X0.3215
G3 X0.3167 Y1.017 I0.0 J-0.005
G1 X0.3112 Y0.9996
G2 X0.2915 Y0.9558 I-0.2524 J0.0871
G1 Y0.9557
G1 X0.2768 Y0.9284
G3 Y0.9237 I0.0044 J-0.0024
G1 X0.287 Y0.9047
G3 X0.2871 Y0.9045 I0.0044 J0.0024
G3 X0.3152 Y0.8775 I0.0617 J0.0361
G3 X0.3158 Y0.8773 I0.0024 J0.0044
G1 X0.3317 Y0.8711
G3 X0.3359 Y0.8714 I0.0018 J0.0047
G1 X0.354 Y0.8811
G3 X0.3541 I-0.0024 J0.0044
G3 X0.3803 Y0.9089 I-0.0322 J0.0567
G3 X0.3805 Y0.9093 I-0.0045 J0.0022
G1 X0.3866 Y0.9253
G3 X0.3863 Y0.9295 I-0.0047 J0.0018
G1 X0.3761 Y0.9486
G3 X0.3536 Y0.9702 I-0.0385 J-0.0175
G3 X0.3518 Y0.9706 I-0.0019 J-0.0046
G2 X0.3471 Y0.9755 I0.0001 J0.0048
G3 Y0.9756 I-0.005 J0.0001
G1 Y0.9806
G1 X0.3764
G1 X0.4081
G1 X0.4147 Y0.9704
G1 X0.4219 Y0.9591
G1 Y0.8857
G1 Y0.8108
G3 X0.4262 Y0.8059 I0.005 J0.0
G1 X0.4494 Y0.8026
G1 X0.4726 Y0.7993
G3 X0.4782 Y0.803 I0.0007 J0.005
G1 X0.4836 Y0.8238
G1 X0.488 Y0.8408
G1 X0.5018
G1 X0.5156
G1 X0.5198 Y0.8245
G1 X0.5251 Y0.8046
G3 X0.5299 Y0.8008 I0.0048 J0.0013
G1 X0.5511
G1 X0.5723
G3 X0.577 Y0.804 I0.0 J0.005
G1 X0.5823 Y0.8179
G3 X0.5826 Y0.8189 I-0.0047 J0.0018
G3 X0.5848 Y0.8775 I-0.2379 J0.0384
G1 X0.5817 Y0.921
G3 X0.5774 Y0.9256 I-0.005 J-0.0004
G1 X0.5542 Y0.9289
G1 X0.531 Y0.9322
G3 X0.5255 Y0.9285 I-0.0007 J-0.005
G1 X0.52 Y0.9077
G1 X0.5156 Y0.8907
G1 X0.5032 Y0.8908
G1 X0.49 Y0.8909
G1 X0.4789 Y0.9149
G3 X0.4788 Y0.9151 I-0.0045 J-0.0021
G2 X0.4671 Y0.9472 I0.1148 J0.06
G2 X0.4851 Y0.9718 I0.0598 J-0.0249
G3 X0.5066 Y1.004 I-0.047 J0.0546
G3 X0.5065 Y1.0074 I-0.0048 J0.0016
G3 X0.4855 Y1.0389 I-0.0849 J-0.0337
G3 X0.4534 Y1.0602 I-0.0545 J-0.0472
G3 X0.4523 Y1.0605 I-0.0016 J-0.0048
G0 Z0.125
G0 X0.5963 Y1.0073
G0 Z0.016
G1 F10.0 Z-0.004
G3 F30.0 X0.5966 Y1.0031 I0.0047 J-0.0017
G1 X0.6095 Y0.9806
G1 X0.6216 Y0.9593
G1 Y0.8857
G1 Y0.8108
G3 X0.6259 Y0.8059 I0.005 J0.0
G1 X0.6463 Y0.803
G1 X0.6667 Y0.8
G3 X0.6709 Y0.8015 I0.0007 J0.0049
G1 X0.678 Y0.8085
G1 X0.6851 Y0.8156
G3 X0.6865 Y0.8192 I-0.0035 J0.0035
G1 Y0.8668
G1 Y0.9145
G3 X0.6842 Y0.9187 I-0.005 J0.0
G1 X0.6742 Y0.9249
G1 X0.6666 Y0.9296
G1 Y0.9462
G1 Y0.9606
G1 X0.6712
G3 X0.6731 Y0.961 I0.0 J0.005
G3 X0.6956 Y0.9826 I-0.016 J0.0392
G1 X0.7059 Y1.0017
G3 X0.7061 Y1.0059 I-0.0044 J0.0024
G1 X0.7 Y1.0219
G3 X0.6998 Y1.0222 I-0.0047 J-0.0018
G3 X0.6735 Y1.0501 I-0.0572 J-0.0277
G1 X0.6554 Y1.0598
G3 X0.6512 Y1.0601 I-0.0024 J-0.0044
G1 X0.6353 Y1.0539
G3 X0.6348 Y1.0537 I0.0018 J-0.0047
G3 X0.6067 Y1.0268 I0.0299 J-0.0594
G1 X0.6066 Y1.0267
G1 X0.5966 Y1.0079
G3 X0.5963 Y1.0073 I0.0044 J-0.0024
G0 Z0.125
G0 X0.8242 Y1.0039
G0 Z0.016
G1 F10.0 Z-0.004
G1 F30.0 X0.8213 Y0.8109
G3 X0.8256 Y0.8059 I0.005 J-0.0001
G1 X0.846 Y0.803
G1 X0.8664 Y0.8
G3 X0.8706 Y0.8015 I0.0007 J0.0049
G1 X0.8777 Y0.8085
G1 X0.8848 Y0.8156
G3 X0.8862 Y0.8192 I-0.0035 J0.0035
G1 Y0.8668
G1 Y0.9145
G3 X0.8839 Y0.9187 I-0.005 J0.0
G1 X0.8739 Y0.9249
G1 X0.8663 Y0.9296
G1 Y1.106
G1 Y1.2801
G1 X0.9315
G1 X1.0003
G1 X1.0222 Y1.2657
G1 X1.0454 Y1.2505
G3 X1.05 Y1.25 I0.0027 J0.0042
G1 X1.0666 Y1.2564
G3 X1.067 Y1.2566 I-0.0018 J0.0047
G3 X1.0959 Y1.2839 I-0.0276 J0.0583
G1 X1.096
G1 X1.106 Y1.3027
G3 Y1.3074 I-0.0044 J0.0024
G1 X1.096 Y1.3262
G1 X1.0959 Y1.3263
G3 X1.0677 Y1.3533 I-0.0573 J-0.0316
G3 X1.0673 Y1.3535 I-0.0022 J-0.0045
G1 X1.0513 Y1.3596
G3 X1.0472 Y1.3593 I-0.0018 J-0.0047
G1 X1.0281 Y1.3491
G3 X1.0078 Y1.3296 I0.0175 J-0.0385
G1 X0.8205 Y1.3263
G3 X0.8156 Y1.3211 I0.0001 J-0.005
G1 X0.825 Y1.0554
G1 X0.8242 Y1.0039
G0 Z0.125
G0 X0.8231 Y0.7747
G0 Z0.016
G1 F10.0 Z-0.004
G1 F30.0 X0.2205 Y0.7778
G1 X0.2056 Y0.7852
G1 X0.1942 Y0.8065
G1 X0.2105 Y0.8341
G1 X0.2282 Y0.8641
G3 X0.2281 Y0.8694 I-0.0043 J0.0025
G1 X0.2121 Y0.8939
G1 X0.1978 Y0.9157
G1 X0.2119 Y0.9372
G1 X0.2278 Y0.9615
G3 X0.2281 Y0.9666 I-0.0042 J0.0027
G1 X0.2176 Y0.9861
G3 X0.1891 Y1.0138 I-0.0597 J-0.0331
G3 X0.1886 Y1.014 I-0.0023 J-0.0044
G1 X0.1727 Y1.0201
G3 X0.1685 Y1.0199 I-0.0018 J-0.0047
G1 X0.1504 Y1.0102
G3 X0.1502 Y1.0101 I0.0024 J-0.0044
G3 X0.1239 Y0.9817 I0.0357 J-0.0596
G3 X0.1237 Y0.9812 I0.0045 J-0.0022
G1 X0.1173 Y0.9646
G3 X0.1178 Y0.96 I0.0047 J-0.0018
G1 X0.1332 Y0.9365
G1 X0.1468 Y0.9157
G1 X0.1326 Y0.8939
G1 X0.1165 Y0.8694
G3 X0.1164 Y0.8641 I0.0042 J-0.0027
G1 X0.1344 Y0.8337
G1 X0.1508 Y0.8058
G1 X0.1352 Y0.7793
G1 X0.118 Y0.7503
G3 X0.1177 Y0.7459 I0.0043 J-0.0025
G1 X0.1239 Y0.7298
G3 X0.1241 Y0.7292 I0.0047 J0.0018
G3 X0.1517 Y0.7007 I0.0635 J0.0338
G3 X0.1518 Y0.7006 I0.0025 J0.0043
G1 X0.1713 Y0.6902
G3 X0.1764 Y0.6904 I0.0024 J0.0044
G1 X0.2003 Y0.7061
G1 X0.223 Y0.721
G1 X0.5771
G1 X0.9276
G1 X0.9245 Y0.6188
G1 X0.9212 Y0.5114
G3 X0.9255 Y0.5063 I0.005 J-0.0002
G1 X0.9458 Y0.5034
G1 X0.9662 Y0.5005
G3 X0.9705 Y0.5019 I0.0007 J0.0049
G1 X0.9775 Y0.509
G1 X0.9846 Y0.5161
G3 X0.9861 Y0.5196 I-0.0035 J0.0035
G1 Y0.5659
G1 Y0.6121
G3 X0.9846 Y0.6157 I-0.005 J0.0
G1 X0.9768 Y0.6236
G1 X0.984 Y0.7687
G3 X0.9791 Y0.774 I-0.005 J0.0003
G1 X0.8231 Y0.7747
G0 Z0.125
G0 X0.8262 Y0.6261
G0 Z0.016
G1 F10.0 Z-0.004
G3 F30.0 X0.8213 Y0.6214 I0.0001 J-0.005
G1 X0.8183 Y0.5739
G1 X0.8152 Y0.5263
G3 X0.8168 Y0.5223 I0.005 J-0.0003
G1 X0.8695 Y0.4732
G1 X0.91 Y0.4235
G3 X0.9141 Y0.4217 I0.0039 J0.0032
G1 X0.9263 Y0.4222
G1 X1.026 Y0.4215
G1 X1.1242 Y0.4208
G1 X1.1422 Y0.4071
G3 X1.1711 Y0.3917 I0.0603 J0.0783
G3 X1.1748 Y0.3919 I0.0016 J0.0047
G3 X1.2042 Y0.4128 I-0.0393 J0.0866
G3 X1.2255 Y0.4448 I-0.0473 J0.0545
G3 X1.2254 Y0.4482 I-0.0048 J0.0016
G3 X1.2044 Y0.4798 I-0.0848 J-0.0337
G3 X1.1724 Y0.5011 I-0.0545 J-0.0472
G3 X1.169 Y0.501 I-0.0016 J-0.0048
G3 X1.1373 Y0.4799 I0.0337 J-0.0848
G1 X1.1188 Y0.4614
G1 X1.0279
G1 X0.937
G1 X0.9123 Y0.4873
G1 X0.8873 Y0.5134
G1 X0.8843 Y0.5665
G1 X0.8812 Y0.6214
G3 X0.8762 Y0.6261 I-0.005 J-0.0003
G1 X0.8513
G1 X0.8263
G3 X0.8262 I0.0 J-0.005
G0 Z0.125
G0 X0.7814 Y0.6216
G0 Z0.016
G1 F10.0 Z-0.004
G3 F30.0 X0.7764 Y0.6261 I-0.005 J-0.0005
G1 X0.7514
G1 X0.7265
G3 X0.7215 Y0.621 I0.0 J-0.005
G1 X0.7251 Y0.4937
G1 X0.7286 Y0.3715
G1 X0.7083
G3 X0.7081 I0.0 J-0.005
G3 X0.6549 Y0.3612 I0.0073 J-0.1805
G3 X0.6548 I0.0017 J-0.0047
G1 X0.6285 Y0.3512
G3 X0.6253 Y0.346 I0.0018 J-0.0047
G1 X0.6285 Y0.3185
G1 X0.6316 Y0.291
G3 X0.6365 Y0.2866 I0.005 J0.0006
G1 X0.7418 Y0.2838
G1 X0.8472 Y0.281
G3 X0.8509 Y0.2825 I0.0001 J0.005
G1 X0.8578 Y0.2894
G3 X0.8587 Y0.2906 I-0.0035 J0.0035
G3 X0.8663 Y0.3236 I-0.0567 J0.0304
G1 Y0.347
G3 X0.8633 Y0.3515 I-0.005 J0.0
G1 X0.8384 Y0.3629
G1 X0.8163 Y0.3729
G1 Y0.418
G1 Y0.4664
G3 X0.8149 Y0.4699 I-0.005 J0.0
G1 X0.7974 Y0.4874
G1 X0.7814 Y0.5034
G1 Y0.5612
G1 Y0.6211
G3 Y0.6216 I-0.005 J0.0
G0 Z0.125
G0 X0.688 Y0.608
G0 Z0.016
G1 F10.0 Z-0.004
G3 F30.0 X0.6869 Y0.6104 I-0.0049 J-0.0007
G1 X0.6782 Y0.621
G1 X0.6759 Y0.6913
G3 X0.6709 Y0.6962 I-0.005 J-0.0002
G1 X0.6566 Y0.696
G1 X0.4868
G1 X0.3171
G3 X0.3121 Y0.6913 I0.0 J-0.005
G1 X0.3091 Y0.6327
G1 X0.3061 Y0.5755
G1 X0.2917 Y0.5535
G1 X0.2765 Y0.5303
G3 X0.2763 Y0.5252 I0.0042 J-0.0027
G1 X0.2867 Y0.5058
G1 X0.2868 Y0.5057
G3 X0.3153 Y0.4781 I0.0597 J0.0331
G3 X0.3158 Y0.4779 I0.0023 J0.0044
G1 X0.3317 Y0.4717
G3 X0.3359 Y0.472 I0.0018 J0.0047
G1 X0.354 Y0.4817
G3 X0.3541 I-0.0024 J0.0044
G3 X0.3803 Y0.5095 I-0.0322 J0.0566
G3 X0.3805 Y0.5099 I-0.0045 J0.0022
G1 X0.3866 Y0.5259
G3 X0.3863 Y0.5301 I-0.0047 J0.0018
G1 X0.3761 Y0.5492
G3 X0.3536 Y0.5708 I-0.0385 J-0.0175
G3 X0.3517 Y0.5712 I-0.0019 J-0.0046
G1 X0.3471
G1 Y0.6161
G1 Y0.6611
G1 X0.4867
G1 X0.6259
G1 X0.6191 Y0.5892
G3 X0.6117 Y0.4614 I1.0975 J-0.1276
G1 X0.6116 Y0.4114
G3 X0.6161 Y0.4065 I0.005 J0.0
G1 X0.6434 Y0.4033
G1 X0.6708 Y0.4002
G3 X0.6759 Y0.4031 I0.0006 J0.005
G1 X0.6873 Y0.4279
G1 X0.6986 Y0.4528
G3 X0.6989 Y0.4562 I-0.0045 J0.0021
G1 X0.6913 Y0.4844
G1 X0.684 Y0.5118
G1 X0.686 Y0.559
G1 X0.6881 Y0.607
G3 X0.688 Y0.608 I-0.005 J0.0002
G0 Z0.125
G0 X0.583 Y0.6013
G0 Z0.016
G1 F10.0 Z-0.004
G1 F30.0 X0.5817 Y0.6214
G3 X0.5767 Y0.6261 I-0.005 J-0.0003
G1 X0.5517
G1 X0.5268
G3 X0.5218 Y0.621 I0.0 J-0.005
G1 X0.5255 Y0.4213
G1 X0.528 Y0.3177
G1 Y0.3176
G1 X0.5299 Y0.2658
G3 X0.5336 Y0.2137 I0.884 J0.0366
G3 X0.5343 Y0.2117 I0.005 J0.0005
G1 X0.5386 Y0.2042
G3 X0.5429 Y0.2017 I0.0043 J0.0025
G1 X0.8752
G1 X1.2074
G3 X1.211 Y0.2032 I0.0 J0.005
G1 X1.2176 Y0.2099
G3 X1.2186 Y0.2114 I-0.0035 J0.0035
G3 X1.2257 Y0.2525 I-0.0781 J0.0346
G1 Y0.2811
G1 X1.2382 Y0.2858
G1 X1.2518 Y0.2911
G1 X1.2683 Y0.2822
G1 X1.2868 Y0.2723
G3 X1.291 Y0.272 I0.0024 J0.0044
G1 X1.3069 Y0.2782
G3 X1.3074 Y0.2784 I-0.0018 J0.0047
G3 X1.3356 Y0.3053 I-0.0299 J0.0594
G1 Y0.3054
G1 X1.3457 Y0.3242
G3 Y0.3289 I-0.0044 J0.0024
G1 X1.3356 Y0.3477
G1 Y0.3478
G3 X1.3074 Y0.3748 I-0.0573 J-0.0316
G3 X1.3069 Y0.375 I-0.0022 J-0.0045
G1 X1.291 Y0.3811
G3 X1.2868 Y0.3808 I-0.0018 J-0.0047
G1 X1.2676 Y0.3705
G1 X1.2507 Y0.3615
G1 X1.2338 Y0.3705
G1 X1.2145 Y0.3808
G3 X1.2104 Y0.3811 I-0.0024 J-0.0044
G1 X1.1944 Y0.375
G3 X1.194 Y0.3748 I0.0018 J-0.0047
G3 X1.1654 Y0.3471 I0.0301 J-0.0596
G1 X1.155 Y0.3276
G3 X1.1552 Y0.3225 I0.0044 J-0.0024
G1 X1.1709 Y0.2985
G1 X1.1858 Y0.2759
G1 Y0.257
G1 Y0.2417
G1 X0.8763
G1 X0.5864 Y0.2494
G1 X0.5667 Y0.3699
G1 Y0.5002
G1 X0.5758 Y0.5094
G1 X0.5864 Y0.5199
G3 X0.5879 Y0.5238 I-0.0035 J0.0035
G1 X0.5848 Y0.5726
G1 X0.583 Y0.6013
G0 Z0.125
G0 X0.4838 Y0.5942
G0 Z0.016
G1 F10.0 Z-0.004
G1 F30.0 X0.4818 Y0.6215
G3 X0.4769 Y0.6261 I-0.005 J-0.0004
G1 X0.4519
G1 X0.4269
G3 X0.4219 Y0.6211 I0.0 J-0.005
G1 Y0.5512
G1 Y0.4828
G1 X0.416 Y0.4737
G3 X0.4153 Y0.4721 I0.0042 J-0.0027
G3 X0.4054 Y0.3929 I0.4562 J-0.0973
G1 X0.4023 Y0.3249
G3 X0.4044 Y0.3206 I0.005 J-0.0002
G1 X0.4235 Y0.3066
G3 X0.4523 Y0.2918 I0.0565 J0.0745
G3 X0.456 Y0.2921 I0.0015 J0.0048
G3 X0.4862 Y0.3138 I-0.0457 J0.0953
G1 X0.5069 Y0.3346
G3 X0.508 Y0.3399 I-0.0035 J0.0035
G1 X0.5024 Y0.3545
G2 X0.4968 Y0.4115 I0.2442 J0.0526
G1 Y0.4549
G3 X0.4954 Y0.4585 I-0.005 J0.0
G1 X0.479 Y0.4748
G1 X0.4653 Y0.4885
G1 X0.4756 Y0.5077
G1 X0.4876 Y0.5301
G3 X0.4882 Y0.5328 I-0.0044 J0.0024
G1 X0.485 Y0.5771
G1 X0.4838 Y0.5942
G0 Z0.125
G0 X1.9192 Y0.6163
G0 Z0.016
G1 F10.0 Z-0.004
G3 F30.0 X1.9226 Y0.5261 I2.1003 J0.0323
G1 X1.9297 Y0.3515
G3 X1.9319 Y0.3476 I0.005 J0.0002
G1 X1.9965 Y0.3053
G1 X2.0596 Y0.264
G1 X2.0666 Y0.2453
G1 X2.0741 Y0.225
G3 X2.0788 Y0.2217 I0.0047 J0.0017
G1 X2.1324
G1 X2.1859
G3 X2.1895 Y0.2232 I0.0 J0.005
G1 X2.1961 Y0.2298
G3 X2.197 Y0.231 I-0.0035 J0.0035
G3 X2.2042 Y0.2631 I-0.0542 J0.0291
G1 Y0.2859
G3 X2.2016 Y0.2903 I-0.005 J0.0
G1 X2.1803 Y0.3017
G1 X2.159 Y0.3131
G3 X2.1559 Y0.3137 I-0.0024 J-0.0044
G1 X2.1166 Y0.3074
G1 X2.0792 Y0.3014
G1 X2.0215 Y0.337
G1 X1.9646 Y0.3721
G1 Y0.4857
G1 Y0.6001
G1 X1.9737 Y0.6092
G1 X1.9843 Y0.6198
G3 X1.9858 Y0.6236 I-0.0035 J0.0035
G1 X1.9827 Y0.6725
G1 X1.9796 Y0.7213
G3 X1.9753 Y0.7259 I-0.005 J-0.0003
G1 X1.9528 Y0.7291
G1 X1.9303 Y0.7323
G3 X1.9248 Y0.729 I-0.0007 J-0.005
G1 X1.9203 Y0.7158
G3 X1.92 Y0.7143 I0.0047 J-0.0016
G3 X1.9192 Y0.6163 I2.0995 J-0.0657
G0 Z0.125
G0 X2.2221 Y0.6256
G0 Z0.016
G1 F10.0 Z-0.004
G1 F30.0 X2.2223 Y0.621
G1 X2.2253 Y0.5211
G3 X2.2254 Y0.5206 I0.005 J0.0002
G1 X2.228 Y0.5023
G3 X2.2295 Y0.4995 I0.0049 J0.0007
G1 X2.2771 Y0.4519
G1 X2.2817 Y-0.0046
G3 X2.2867 Y-0.0095 I0.005 J0.0001
G1 X2.6148
G3 X2.6198 Y-0.0044 I0.0 J0.005
G1 X2.619 Y0.0194
G1 X2.6215 Y0.0873
G3 Y0.0874 I-0.005 J0.0002
G3 X2.6213 Y0.2918 I-20.9942 J0.0758
G1 X2.6186 Y0.5512
G3 X2.6166 Y0.5552 I-0.005 J-0.0001
G1 X2.5492 Y0.6049
G1 X2.4838 Y0.653
G1 Y0.8312
G1 Y1.0093
G1 X2.569 Y1.067
G1 X2.6564 Y1.1262
G3 X2.6585 Y1.13 I-0.0028 J0.0041
G1 X2.6617 Y1.1742
G1 X2.6648 Y1.217
G1 X2.6783 Y1.2363
G1 X2.6926 Y1.2567
G3 X2.6935 Y1.2596 I-0.0041 J0.0029
G1 Y1.3066
G1 Y1.3536
G3 X2.692 Y1.3571 I-0.005 J0.0
G1 X2.6764 Y1.3728
G3 X2.6546 Y1.3894 I-0.0646 J-0.0624
G3 X2.6502 Y1.3896 I-0.0024 J-0.0044
G1 X2.626 Y1.3792
G3 X2.6256 Y1.379 I0.002 J-0.0046
G1 X2.6063 Y1.3687
G3 X2.6036 Y1.3643 I0.0024 J-0.0044
G1 Y1.3003
G1 Y1.2364
G3 X2.606 Y1.2321 I0.005 J0.0
G1 X2.616 Y1.2259
G1 X2.6236 Y1.2212
G1 Y1.1865
G1 Y1.1516
G1 X2.5384 Y1.0939
G1 X2.4511 Y1.0346
G3 X2.4489 Y1.0306 I0.0028 J-0.0041
G1 X2.4462 Y0.8334
G1 X2.4434 Y0.6362
G3 X2.4455 Y0.6321 I0.005 J-0.0001
G1 X2.5156 Y0.5809
G1 X2.5837 Y0.5313
G1 Y0.2854
G1 Y0.042
G1 X2.4539
G1 X2.3241
G1 Y0.2548
G1 Y0.4726
G3 X2.3225 Y0.4762 I-0.005 J0.0
G1 X2.2926 Y0.5049
G1 X2.2642 Y0.5321
G1 Y0.5661
G1 Y0.6001
G1 X2.2733 Y0.6092
G1 X2.2839 Y0.6198
G3 X2.2853 Y0.6236 I-0.0035 J0.0035
G1 X2.2822 Y0.6725
G1 X2.2791 Y0.7213
G3 X2.2741 Y0.726 I-0.005 J-0.0003
G1 X2.2492
G1 X2.2242
G3 X2.2192 Y0.7208 I0.0 J-0.005
G1 X2.2221 Y0.6256
G0 Z0.125
G0 X2.3241
G0 Z0.016
G1 F10.0 Z-0.004
G1 F30.0 Y0.5393
G3 X2.3243 Y0.5378 I0.005 J0.0
G1 X2.3662 Y0.4069
G1 X2.369 Y0.3114
G3 X2.3734 Y0.3066 I0.005 J0.0001
G1 X2.4002 Y0.3035
G1 X2.427 Y0.3004
G3 X2.432 Y0.303 I0.0006 J0.005
G1 X2.4426 Y0.323
G1 X2.4533 Y0.3429
G3 X2.4539 Y0.3452 I-0.0044 J0.0024
G1 Y0.4114
G1 Y0.4777
G3 X2.4533 Y0.48 I-0.005 J0.0
G1 X2.4429 Y0.4993
G1 X2.4326 Y0.5186
G3 X2.4282 Y0.5213 I-0.0044 J-0.0024
G1 X2.4101
G1 X2.3943
G1 X2.3792 Y0.5379
G1 X2.364 Y0.5547
G1 Y0.8325
G1 Y1.1101
G1 X2.3806 Y1.1251
G1 X2.3975 Y1.1403
G1 X2.4119
G1 X2.4282
G3 X2.4326 Y1.143 I0.0 J0.005
G1 X2.4429 Y1.1623
G1 X2.4533 Y1.1816
G3 X2.4539 Y1.184 I-0.0044 J0.0024
G1 Y1.2188
G1 Y1.2537
G3 X2.4524 Y1.2573 I-0.005 J0.0
G1 X2.4367 Y1.2729
G3 X2.4149 Y1.2895 I-0.0647 J-0.0625
G3 X2.4106 Y1.2897 I-0.0024 J-0.0044
G1 X2.3863 Y1.2794
G3 X2.3859 Y1.2792 I0.002 J-0.0046
G1 X2.3666 Y1.2689
G3 X2.364 Y1.2644 I0.0024 J-0.0044
G1 Y1.2114
G1 Y1.1606
G1 X2.3457 Y1.144
G1 X2.3257 Y1.126
G3 X2.3241 Y1.1223 I0.0034 J-0.0037
G1 Y0.8308
G1 Y0.6256
G0 Z0.125
G0 X2.389
G0 Z0.016
G1 F10.0 Z-0.004
G1 F30.0 Y0.5915
G3 X2.3911 Y0.5874 I0.005 J0.0
G1 X2.4476 Y0.5485
G1 X2.4791 Y0.4959
G1 X2.4936 Y0.2943
G1 X2.4862 Y0.2897
G3 X2.4838 Y0.2854 I0.0026 J-0.0043
G1 Y0.2261
G1 Y0.1718
G1 X2.4645
G3 X2.4641 I0.0 J-0.005
G3 X2.4124 Y0.1616 I0.0176 J-0.2254
G3 X2.4121 Y0.1615 I0.0015 J-0.0048
G1 X2.3859 Y0.1515
G3 X2.3827 Y0.1463 I0.0018 J-0.0047
G1 X2.3858 Y0.1188
G1 X2.389 Y0.0913
G3 X2.3938 Y0.0869 I0.005 J0.0006
G1 X2.4706 Y0.084
G1 X2.5474 Y0.0811
G3 X2.552 Y0.0838 I0.0002 J0.005
G1 X2.5625 Y0.1035
G1 X2.5731 Y0.1232
G3 X2.5737 Y0.1256 I-0.0044 J0.0024
G1 Y0.1939
G1 Y0.2622
G3 X2.5728 Y0.2651 I-0.005 J0.0
G1 X2.5581 Y0.286
G1 X2.5444 Y0.3056
G1 X2.5416 Y0.4176
G1 X2.5387 Y0.5311
G3 X2.5366 Y0.5351 I-0.005 J-0.0001
G1 X2.4792 Y0.5745
G1 X2.4239 Y0.6125
G1 Y0.8308
G1 Y1.0491
G1 X2.4792 Y1.087
G1 X2.5366 Y1.1264
G3 X2.5387 Y1.1302 I-0.0028 J0.0041
G1 X2.5419 Y1.1743
G1 X2.5449 Y1.217
G1 X2.5585 Y1.2363
G1 X2.5728 Y1.2567
G3 X2.5737 Y1.2596 I-0.0041 J0.0029
G1 Y1.3066
G1 Y1.3536
G3 X2.5722 Y1.3571 I-0.005 J0.0
G1 X2.5566 Y1.3728
G3 X2.5348 Y1.3894 I-0.0647 J-0.0625
G3 X2.5304 Y1.3896 I-0.0024 J-0.0044
G1 X2.5062 Y1.3792
G3 X2.5058 Y1.379 I0.002 J-0.0046
G1 X2.4865 Y1.3687
G3 X2.4838 Y1.3643 I0.0024 J-0.0044
G1 Y1.3003
G1 Y1.2364
G3 X2.4862 Y1.2321 I0.005 J0.0
G1 X2.4962 Y1.2259
G1 X2.5038 Y1.2212
G1 Y1.1865
G1 Y1.1517
G1 X2.4485 Y1.1137
G1 X2.3911 Y1.0742
G3 X2.389 Y1.0701 I0.0028 J-0.0041
G1 Y0.8308
G1 Y0.6256
G0 Z0.125
G0 X2.8981 Y2.0677
G0 Z0.016
G1 F10.0 Z-0.004
G3 F30.0 X2.9017 Y2.0678 I0.0017 J0.0047
G1 X2.9183 Y2.075
G2 X2.9482 Y2.0818 I0.0385 J-0.0998
G2 X2.9778 Y2.075 I-0.0033 J-0.0821
G1 X2.9945 Y2.0678
G3 X3.0 Y2.0688 I0.002 J0.0046
G1 X3.0207 Y2.0895
G3 X3.0426 Y2.122 I-0.0632 J0.0663
G3 X3.0427 Y2.1255 I-0.0046 J0.0018
G3 X3.0207 Y2.1582 I-0.0735 J-0.0257
G1 X3.0 Y2.1789
G3 X2.9945 Y2.1799 I-0.0035 J-0.0035
G1 X2.9779 Y2.1727
G2 X2.948 Y2.1659 I-0.0385 J0.0995
G2 X2.9184 Y2.1727 I0.0032 J0.0818
G1 X2.9017 Y2.1799
G3 X2.8962 Y2.1789 I-0.002 J-0.0046
G1 X2.8755 Y2.1582
G3 X2.8536 Y2.1257 I0.0633 J-0.0663
G3 X2.8535 Y2.1222 I0.0046 J-0.0018
G3 X2.8756 Y2.0895 I0.0736 J0.0258
G1 X2.8962 Y2.0688
G3 X2.8981 Y2.0677 I0.0035 J0.0035
G0 Z0.125
G0 X2.8997 Y2.347
G0 Z0.016
G1 F10.0 Z-0.004
G3 F30.0 X2.9017 Y2.3474 I0.0 J0.005
G1 X2.9183 Y2.3545
G2 X2.9482 Y2.3614 I0.0385 J-0.0998
G2 X2.9778 Y2.3546 I-0.0033 J-0.0821
G1 X2.9945 Y2.3474
G3 X3.0 Y2.3484 I0.002 J0.0046
G1 X3.0207 Y2.3691
G3 X3.0426 Y2.4016 I-0.0632 J0.0663
G3 X3.0427 Y2.4051 I-0.0046 J0.0018
G3 X3.0207 Y2.4378 I-0.0735 J-0.0257
G1 X3.0 Y2.4584
G3 X2.9945 Y2.4595 I-0.0035 J-0.0035
G1 X2.9779 Y2.4523
G2 X2.948 Y2.4455 I-0.0385 J0.0996
G2 X2.9184 Y2.4523 I0.0032 J0.0818
G1 X2.9017 Y2.4595
G3 X2.8962 Y2.4584 I-0.002 J-0.0046
G1 X2.8755 Y2.4377
G3 X2.8536 Y2.4053 I0.0633 J-0.0663
G3 X2.8535 Y2.4018 I0.0046 J-0.0018
G3 X2.8756 Y2.369 I0.0736 J0.0258
G1 X2.8962 Y2.3484
G3 X2.8997 Y2.347 I0.0035 J0.0035
( Profile2 )
S1000
G0 Z0.125
G0 X1.8131 Y0.5746
G0 Z0.016
G1 F10.0 Z-0.004
G1 F30.0 X1.8056 Y0.5671
G3 X1.8038 Y0.5629 I0.0043 J-0.0042
G1 Y0.5002
G1 Y0.4376
G3 X1.8067 Y0.4325 I0.006 J0.0
G1 X1.8167 Y0.4263
G1 X1.8238 Y0.4219
G1 Y0.3621
G1 Y0.3036
G1 X1.8076 Y0.2993
G1 X1.7869 Y0.2939
G3 X1.7824 Y0.2874 I0.0015 J-0.0058
G1 X1.7857 Y0.2592
G1 X1.7889 Y0.231
G3 X1.794 Y0.2258 I0.006 J0.0007
G1 X1.8149 Y0.2228
G1 X1.8338 Y0.2201
G1 X1.8681 Y0.1846
G1 X1.9025 Y0.1491
G1 X1.9055 Y0.1212
G1 X1.9087 Y0.0913
G3 X1.9145 Y0.0859 I0.006 J0.0006
G1 X2.0199 Y0.0831
G1 X2.1252 Y0.0803
G3 X2.1296 Y0.0821 I0.0002 J0.006
G1 X2.1366 Y0.089
G3 X2.1376 Y0.0904 I-0.0042 J0.0042
G3 X2.1453 Y0.1233 I-0.0559 J0.0304
G1 Y0.1461
G3 X2.1422 Y0.1514 I-0.006 J0.0
G1 X2.1229 Y0.1618
G1 X2.1035 Y0.1721
G3 X2.1007 Y0.1728 I-0.0028 J-0.0053
G1 X2.027
G1 X1.9559
G1 X1.93 Y0.1998
G1 X1.9075 Y0.2233
G1 X1.912 Y0.2261
G1 X1.9228 Y0.2328
G3 X1.9257 Y0.2379 I-0.0032 J0.0051
G1 Y0.2631
G1 Y0.2884
G3 X1.9218 Y0.294 I-0.006 J0.0
G1 X1.8918 Y0.3053
G1 X1.8658 Y0.3151
G1 X1.8661 Y0.3662
G1 X1.8664 Y0.4194
G1 X1.8798 Y0.4372
G1 X1.8945 Y0.4566
G3 X1.8957 Y0.4602 I-0.0048 J0.0036
G1 Y0.501
G1 Y0.5418
G3 X1.8946 Y0.5452 I-0.006 J0.0
G1 X1.8785 Y0.5683
G1 X1.8644 Y0.5884
G1 X1.8745 Y0.6073
G1 X1.8864 Y0.6295
G3 X1.8871 Y0.6327 I-0.0053 J0.0028
G1 X1.8839 Y0.6771
G1 X1.8807 Y0.7214
G3 X1.8747 Y0.727 I-0.006 J-0.0004
G1 X1.8498
G1 X1.8248
G3 X1.8188 Y0.721 I0.0 J-0.006
G1 Y0.6495
G1 Y0.5804
G1 X1.8131 Y0.5746
G0 Z0.125
G0 X1.7671 Y0.5668
G0 Z0.016
G1 F10.0 Z-0.004
G1 F30.0 X1.7637 Y0.5868
G1 X1.7746 Y0.6072
G1 X1.7865 Y0.6295
G3 X1.7872 Y0.6327 I-0.0053 J0.0028
G1 X1.784 Y0.6771
G1 X1.7809 Y0.7214
G3 X1.7749 Y0.727 I-0.006 J-0.0004
G1 X1.7499
G1 X1.725
G3 X1.719 Y0.721 I0.0 J-0.006
G1 Y0.6411
G1 Y0.5637
G1 X1.6984 Y0.5431
G3 X1.6744 Y0.5084 I0.0558 J-0.0642
G3 X1.6745 Y0.5041 I0.0056 J-0.0021
G3 X1.6956 Y0.4722 I0.0858 J0.034
G3 X1.7281 Y0.4507 I0.0552 J0.0479
G3 X1.7319 I0.0019 J0.0057
G3 X1.7651 Y0.473 I-0.0261 J0.0745
G1 X1.7857 Y0.4936
G3 X1.7869 Y0.5002 I-0.0042 J0.0042
G1 X1.7798 Y0.5168
G2 X1.7682 Y0.5604 I0.1956 J0.0755
G1 Y0.5605
G1 X1.7671 Y0.5668
G0 Z0.125
G0 X1.675 Y0.5861
G0 Z0.016
G1 F10.0 Z-0.004
G1 F30.0 X1.6762 Y0.592
G1 X1.6872 Y0.6441
G3 X1.6873 Y0.6458 I-0.0059 J0.0012
G1 X1.6841 Y0.6836
G1 X1.681 Y0.7215
G3 X1.675 Y0.727 I-0.006 J-0.0005
G1 X1.6501
G1 X1.6251
G3 X1.6191 Y0.721 I0.0 J-0.006
G1 X1.6189 Y0.6411
G1 X1.6186 Y0.5629
G1 X1.5963 Y0.5269
G1 X1.5749 Y0.4923
G1 X1.5389
G1 X1.5014
G1 X1.4789 Y0.507
G1 X1.455 Y0.5227
G3 X1.4489 Y0.523 I-0.0033 J-0.005
G1 X1.4294 Y0.5126
G3 X1.4292 Y0.5125 I0.0028 J-0.0053
G3 X1.4011 Y0.483 I0.0368 J-0.0633
G3 X1.4008 Y0.4824 I0.0053 J-0.0028
G1 X1.3944 Y0.4657
G3 X1.395 Y0.4603 I0.0056 J-0.0021
G1 X1.4102 Y0.437
G1 X1.4244 Y0.4153
G1 Y0.3276
G1 Y0.2409
G1 X1.3828 Y0.2068
G1 X1.3407 Y0.1723
G1 X1.0247 Y0.1764
G1 X0.6916 Y0.1807
G3 X0.6914 I-0.0001 J-0.006
G1 X0.5909 Y0.1787
G1 X0.5908
G1 X0.5657 Y0.1782
G3 X0.4904 Y0.1764 I0.1936 J-9.918
G1 X0.3095 Y0.1721
G1 X0.304 Y0.2011
G1 X0.2976 Y0.2351
G3 X0.2958 Y0.2384 I-0.0059 J-0.0011
G1 X0.2778 Y0.2546
G1 X0.2599 Y0.2709
G3 X0.2571 Y0.2723 I-0.004 J-0.0044
G1 X0.2253 Y0.2787
G1 X0.1983 Y0.2841
G1 Y0.3282
G1 Y0.3754
G1 X0.2134 Y0.3985
G1 X0.2296 Y0.4231
G3 Y0.4297 I-0.005 J0.0033
G1 X0.2134 Y0.4543
G1 X0.1983 Y0.4774
G1 Y0.5063
G1 Y0.5352
G1 X0.2125 Y0.5569
G1 X0.2277 Y0.5801
G3 X0.2283 Y0.5855 I-0.005 J0.0033
G1 X0.2219 Y0.6022
G3 X0.2218 Y0.6025 I-0.0056 J-0.0021
G3 X0.1947 Y0.6316 I-0.0571 J-0.0259
G1 X0.1766 Y0.6413
G3 X0.1716 Y0.6416 I-0.0028 J-0.0053
G1 X0.1556 Y0.6355
G3 X0.1551 Y0.6352 I0.0021 J-0.0056
G3 X0.1261 Y0.6072 I0.0306 J-0.0605
G1 Y0.6071
G1 X0.1157 Y0.5877
G3 X0.116 Y0.5815 I0.0053 J-0.0028
G1 X0.1316 Y0.5576
G1 X0.1463 Y0.5352
G1 Y0.5063
G1 Y0.4774
G1 X0.1312 Y0.4543
G1 X0.1151 Y0.4297
G3 Y0.4231 I0.005 J-0.0033
G1 X0.1312 Y0.3985
G1 X0.1463 Y0.3754
G1 Y0.3189
G1 Y0.262
G1 X0.1344 Y0.2363
G1 X0.1236 Y0.2129
G1 X0.0898 Y0.2128
G1 X0.0583
G1 X0.0626 Y0.8932
G1 X0.067 Y1.5794
G1 X0.0734 Y1.6659
G1 X0.0799 Y1.7526
G3 X0.0792 Y1.7559 I-0.006 J0.0004
G1 X0.0678 Y1.7771
G1 X0.0564 Y1.7984
G3 X0.0505 Y1.8015 I-0.0053 J-0.0028
G1 X0.0237 Y1.7984
G1 X-0.0031 Y1.7953
G3 X-0.0084 Y1.7895 I0.0007 J-0.006
G1 X-0.0113 Y1.6855
G1 X-0.0141 Y1.5816
G3 X-0.0124 Y1.5772 I0.006 J-0.0002
G1 X-0.002 Y1.5668
G1 X0.0066 Y1.5582
G1 Y0.8638
G1 Y0.1668
G3 X0.0126 Y0.1608 I0.006 J0.0
G1 X0.0725
G1 X0.1264
G1 Y0.1534
G1 Y0.1399
G3 X0.1284 Y0.1355 I0.006 J0.0
G1 X0.1458 Y0.1197
G3 X0.1461 Y0.1195 I0.004 J0.0045
G3 X0.1924 Y0.096 I0.0779 J0.0961
G1 X0.1925
G1 X0.2191 Y0.0894
G3 X0.2231 Y0.0898 I0.0015 J0.0058
G1 X0.2574 Y0.106
G1 X0.2904 Y0.1217
G1 X0.4827 Y0.1173
G1 X0.5867 Y0.115
G3 X0.6136 Y0.1144 I0.0157 J0.104
G1 X0.6326 Y0.114
G3 X0.6917 Y0.113 I0.0368 J0.424
G1 X1.0347 Y0.1173
G1 X1.3629 Y0.1214
G3 X1.3666 Y0.1228 I-0.0001 J0.006
G1 X1.4084 Y0.157
G1 X1.446 Y0.1878
G1 X1.4816 Y0.1527
G3 X1.4817 Y0.1526 I0.0042 J0.0043
G2 X1.5381 Y0.0937 I-0.5948 J-0.626
G3 X1.5681 Y0.0713 I0.0545 J0.0417
G3 X1.5724 Y0.0714 I0.0021 J0.0056
G3 X1.6043 Y0.0925 I-0.0341 J0.0859
G3 X1.6258 Y0.125 I-0.0479 J0.0552
G3 X1.6257 Y0.1291 I-0.0057 J0.0019
G3 X1.6038 Y0.1616 I-0.0852 J-0.0336
G1 X1.5834 Y0.1821
G3 X1.5773 Y0.1835 I-0.0042 J-0.0042
G1 X1.5601 Y0.1781
G1 X1.546 Y0.1736
G1 X1.5113 Y0.2022
G1 X1.4764 Y0.231
G1 Y0.2973
G1 Y0.3605
G1 X1.5397
G1 X1.6056
G1 X1.61 Y0.3534
G1 X1.6162 Y0.3434
G3 X1.6213 Y0.3405 I0.0051 J0.0032
G1 X1.6952
G1 X1.7692
G3 X1.7745 Y0.3437 I0.0 J0.006
G1 X1.7848 Y0.363
G1 X1.7951 Y0.3822
G3 X1.7954 Y0.3872 I-0.0053 J0.0028
G1 X1.7893 Y0.403
G1 X1.7833 Y0.4188
G3 X1.7791 Y0.4224 I-0.0056 J-0.0021
G1 X1.7555 Y0.4284
G1 X1.7319 Y0.4343
G3 X1.7296 Y0.4344 I-0.0015 J-0.0058
G1 X1.6821 Y0.4282
G1 X1.6172 Y0.4215
G3 X1.617 Y0.4214 I0.0006 J-0.006
G2 X1.5526 Y0.4162 I-0.0809 J0.5977
G3 X1.5523 I0.0002 J-0.006
G1 X1.4764 Y0.4108
G1 Y0.4128
G2 X1.4864 Y0.43 I0.0322 J-0.0072
G3 X1.4866 Y0.4302 I-0.004 J0.0044
G1 X1.4968 Y0.4404
G1 X1.5472
G1 X1.6001
G3 X1.6052 Y0.4432 I0.0 J0.006
G1 X1.6349 Y0.4906
G1 X1.6645 Y0.5381
G3 X1.6653 Y0.54 I-0.0051 J0.0032
G1 X1.675 Y0.5861
G0 Z0.125
G0 X1.5786 Y0.6083
G0 Z0.016
G1 F10.0 Z-0.004
G3 F30.0 X1.5788 Y0.6102 I-0.0058 J0.0013
G1 X1.5737 Y0.6758
G3 Y0.6759 I-0.006 J-0.0005
G2 X1.5732 Y0.7521 I0.4128 J0.041
G1 X1.576 Y0.7599
G1 X1.7901
G1 X2.005
G1 X2.0076 Y0.7557
G2 X2.0151 Y0.6698 I-0.8538 J-0.1177
G1 Y0.6697
G1 X2.0195 Y0.5816
G1 X2.0266 Y0.4139
G3 X2.0294 Y0.4091 I0.006 J0.0003
G1 X2.0823 Y0.3753
G1 X2.1351 Y0.3415
G3 X2.1384 Y0.3405 I0.0032 J0.0051
G1 X2.1812
G1 X2.2163 Y0.3027
G1 X2.2052 Y0.053
G1 X1.859 Y0.043
G1 X1.4972
G1 X1.5009 Y0.0546
G1 X1.507 Y0.0741
G3 X1.5056 Y0.0802 I-0.0057 J0.0018
G1 X1.4852 Y0.1005
G3 X1.4523 Y0.1226 I-0.0581 J-0.0511
G3 X1.4482 Y0.1225 I-0.002 J-0.0057
G3 X1.4156 Y0.1006 I0.0336 J-0.0852
G1 X1.3952 Y0.0802
G3 X1.3937 Y0.0741 I0.0042 J-0.0042
G1 X1.3999 Y0.0546
G1 X1.4036 Y0.043
G1 X1.0067
G1 X0.6077
G1 Y0.0516
G1 Y0.0663
G3 X0.6045 Y0.0715 I-0.006 J0.0
G1 X0.5852 Y0.0819
G1 X0.5659 Y0.0922
G3 X0.563 Y0.0929 I-0.0028 J-0.0053
G1 X0.5044
G1 X0.4457
G3 X0.4422 Y0.0918 I0.0 J-0.006
G1 X0.4243 Y0.0787
G1 X0.4065 Y0.0657
G3 X0.4041 Y0.06 I0.0035 J-0.0048
G1 X0.4076 Y0.0356
G1 X0.411 Y0.0112
G3 X0.4112 Y0.0102 I0.0059 J0.0008
G1 X0.4165 Y-0.006
G3 X0.4222 Y-0.0102 I0.0057 J0.0018
G1 X2.2571 Y-0.012
G3 X2.2631 Y-0.0061 I0.0 J0.006
G1 X2.2687 Y0.3058
G3 X2.2686 Y0.3066 I-0.006 J0.0001
G1 X2.2601 Y0.3723
G3 X2.2547 Y0.3775 I-0.006 J-0.0008
G1 X2.1998 Y0.3825
G1 X2.1462 Y0.3873
G1 X2.1049 Y0.411
G1 X2.0655 Y0.4336
G1 Y0.5175
G1 Y0.6016
G1 X2.0726 Y0.606
G1 X2.0826 Y0.6122
G3 X2.0854 Y0.6173 I-0.0032 J0.0051
G1 Y0.6661
G1 Y0.715
G3 X2.0826 Y0.7201 I-0.006 J0.0
G1 X2.0706 Y0.7277
G2 X2.0499 Y0.7626 I0.0565 J0.0571
G3 X2.0498 Y0.7628 I-0.0058 J-0.0017
G1 X2.0397 Y0.7928
G3 X2.0341 Y0.7969 I-0.0057 J-0.0019
G1 X1.7968 Y0.7995
G1 X1.5596 Y0.8022
G3 X1.5543 Y0.7992 I-0.0001 J-0.006
G1 X1.5373 Y0.7696
G1 X1.5216 Y0.7422
G1 X1.506 Y0.7381
G1 X1.4879 Y0.7334
G3 X1.4835 Y0.7274 I0.0015 J-0.0058
G1 X1.4864 Y0.6492
G1 X1.4893 Y0.571
G3 X1.4946 Y0.5652 I0.006 J0.0002
G1 X1.5214 Y0.5621
G1 X1.5482 Y0.559
G3 X1.5542 Y0.5622 I0.0007 J0.006
G1 X1.5661 Y0.5845
G1 X1.5781 Y0.6069
G3 X1.5786 Y0.6083 I-0.0053 J0.0028
G0 Z0.125
G0 X1.4629 Y0.6113
G0 Z0.016
G1 F10.0 Z-0.004
G1 F30.0 X1.4641 Y0.6609
G1 X1.4669 Y0.7707
G3 X1.4652 Y0.7752 I-0.006 J0.0002
G1 X1.385 Y0.8548
G1 X1.3066 Y0.9327
G1 X1.3064 Y0.9804
G1 X1.3062 Y1.0305
G3 X1.3049 Y1.0342 I-0.006 J0.0
G1 X1.2854 Y1.0592
G1 X1.2671 Y1.0825
G1 X1.2669 Y1.2933
G1 X1.2667 Y1.5037
G1 X1.2799 Y1.5169
G3 X1.2963 Y1.5427 I-0.0485 J0.049
G3 Y1.5467 I-0.0057 J0.002
G3 X1.2793 Y1.5731 I-0.0638 J-0.0224
G3 X1.2525 Y1.5904 I-0.0445 J-0.0398
G3 X1.2485 Y1.5902 I-0.0018 J-0.0057
G3 X1.2216 Y1.5726 I0.0291 J-0.0737
G1 X1.2054 Y1.5564
G3 X1.2042 Y1.5495 I0.0042 J-0.0042
G1 X1.2123 Y1.5333
G1 X1.2197 Y1.5183
G1 X1.2226 Y1.296
G1 X1.2255 Y1.0724
G3 X1.2266 Y1.069 I0.006 J0.0001
G1 X1.2462 Y1.0415
G1 X1.2647 Y1.0155
G1 Y0.9688
G1 Y0.9202
G3 X1.2664 Y0.9159 I0.006 J0.0
G1 X1.3463 Y0.8365
G1 X1.4242 Y0.7591
G1 X1.4127 Y0.5958
G1 X1.2561 Y0.5822
G1 X1.0875
G1 X1.0851 Y0.5995
G1 X1.0819 Y0.622
G3 X1.0759 Y0.6271 I-0.0059 J-0.0008
G1 X1.051
G1 X1.026
G3 X1.02 Y0.6211 I0.0 J-0.006
G1 Y0.5662
G1 Y0.5113
G3 X1.0252 Y0.5053 I0.006 J0.0
G1 X1.0484 Y0.5021
G1 X1.0716 Y0.4988
G3 X1.0782 Y0.5032 I0.0008 J0.0059
G1 X1.0836 Y0.5237
G1 X1.0878 Y0.5399
G1 X1.2694 Y0.5425
G1 X1.4555 Y0.5452
G3 X1.4614 Y0.5511 I-0.0001 J0.006
G1 X1.4629 Y0.6113
G0 Z0.125
G0 X1.3359 Y0.7038
G0 Z0.016
G1 F10.0 Z-0.004
G3 F30.0 X1.3462 Y0.7241 I-0.059 J0.043
G3 X1.3461 Y0.7282 I-0.0057 J0.0019
G3 X1.3249 Y0.7601 I-0.0858 J-0.034
G3 X1.2891 Y0.7817 I-0.0549 J-0.0505
G3 X1.2876 Y0.7819 I-0.0015 J-0.0058
G1 X1.2771
G1 X1.2466 Y0.8133
G1 X1.2171 Y0.8438
G1 X1.2218 Y0.8562
G1 X1.2279 Y0.872
G3 X1.2265 Y0.8784 I-0.0056 J0.0021
G1 X1.2058 Y0.8992
G1 X1.1868 Y0.9182
G1 Y0.9356
G1 Y0.9531
G1 X1.2048 Y0.9712
G3 X1.2264 Y1.0037 I-0.0478 J0.0552
G3 X1.2263 Y1.0078 I-0.0057 J0.0019
G3 X1.2051 Y1.0396 I-0.0858 J-0.034
G3 X1.1727 Y1.0612 I-0.0552 J-0.0479
G3 X1.1686 Y1.061 I-0.0019 J-0.0057
G3 X1.1366 Y1.0397 I0.034 J-0.0858
G1 X1.1184 Y1.0215
G1 X1.0448
G1 X0.9786 Y1.1627
G3 X0.9964 Y1.1825 I-0.0255 J0.0409
G1 X1.0071 Y1.2024
G3 Y1.2081 I-0.0053 J0.0028
G1 X0.997 Y1.2269
G3 X0.9683 Y1.2543 I-0.0582 J-0.0321
G3 X0.9678 Y1.2546 I-0.0027 J-0.0054
G1 X0.9518 Y1.2607
G3 X0.9469 Y1.2604 I-0.0021 J-0.0056
G1 X0.9288 Y1.2507
G3 X0.9285 Y1.2506 I0.0028 J-0.0053
G3 X0.9018 Y1.2218 I0.0362 J-0.0605
G3 X0.9016 Y1.2212 I0.0054 J-0.0027
G1 X0.8952 Y1.2046
G3 X0.8957 Y1.1991 I0.0056 J-0.0021
G1 X0.9105 Y1.1766
G1 X0.9244 Y1.1554
G1 X0.9272 Y1.0739
G1 X0.924 Y0.9833
G3 X0.9301 Y0.9771 I0.006 J-0.0002
G1 X1.1226 Y0.9787
G1 X1.134 Y0.9693
G1 X1.1448 Y0.9603
G1 Y0.9364
G1 Y0.9122
G1 X1.1346 Y0.9019
G1 X1.1244 Y0.8917
G1 X1.1051
G1 X1.0879
G1 X1.0839 Y0.9072
G1 X1.0786 Y0.9272
G3 X1.0728 Y0.9317 I-0.0058 J-0.0015
G1 X1.051
G1 X1.0291
G3 X1.0233 Y0.9272 I0.0 J-0.006
G1 X1.0181 Y0.9072
G1 X1.0141 Y0.8917
G1 X1.0011
G1 X0.9881
G1 X0.9838 Y0.908
G1 X0.9784 Y0.9288
G3 X0.9717 Y0.9332 I-0.0058 J-0.0015
G1 X0.9485 Y0.9299
G1 X0.9253 Y0.9266
G3 X0.9202 Y0.9207 I0.0008 J-0.0059
G1 Y0.8657
G1 Y0.8108
G3 X0.9253 Y0.8049 I0.006 J0.0
G1 X0.9485 Y0.8016
G1 X0.9717 Y0.7983
G3 X0.9784 Y0.8027 I0.0008 J0.0059
G1 X0.9838 Y0.8235
G1 X0.9881 Y0.8398
G1 X1.0011
G1 X1.0141
G1 X1.0181 Y0.8243
G1 X1.0233 Y0.8043
G3 X1.0291 Y0.7998 I0.0058 J0.0015
G1 X1.051
G1 X1.0728
G3 X1.0786 Y0.8043 I0.0 J0.006
G1 X1.0839 Y0.8243
G1 X1.0879 Y0.8398
G1 X1.1024
G1 X1.1198
G1 X1.1425 Y0.8249
G1 X1.1666 Y0.8091
G3 X1.1731 Y0.809 I0.0033 J0.005
G1 X1.1819 Y0.8145
G1 X1.1867 Y0.8174
G1 X1.2158 Y0.7873
G1 X1.2459 Y0.7563
G1 X1.2405 Y0.7393
G1 X1.234 Y0.7188
G3 X1.2354 Y0.7128 I0.0057 J-0.0018
G1 X1.2558 Y0.6924
G3 X1.2887 Y0.6704 I0.0581 J0.0511
G3 X1.2928 Y0.6705 I0.002 J0.0057
G3 X1.3247 Y0.6916 I-0.0341 J0.0858
G3 X1.3359 Y0.7038 I-0.0479 J0.0552
G0 Z0.125
G0 X1.4906 Y0.8271
G0 Z0.016
G1 F10.0 Z-0.004
G3 F30.0 X1.4952 Y0.8248 I0.0047 J0.0037
G1 X1.6119 Y0.8219
G1 X1.7287 Y0.819
G3 X1.7341 Y0.8222 I0.0001 J0.006
G1 X1.7446 Y0.8419
G3 X1.7559 Y0.8783 I-0.0828 J0.0455
G3 Y0.8788 I-0.006 J0.0006
G1 Y0.8904
G1 X1.7687 Y0.9011
G1 X1.7837 Y0.9135
G3 X1.7859 Y0.9181 I-0.0038 J0.0046
G1 Y0.9648
G1 Y1.0115
G3 X1.7841 Y1.0158 I-0.006 J0.0
G1 X1.7747 Y1.0253
G1 X1.7668 Y1.0331
G1 X1.7639 Y1.1007
G1 X1.7609 Y1.1705
G3 X1.7551 Y1.1763 I-0.006 J-0.0003
G1 X1.676 Y1.1792
G1 X1.5998 Y1.1821
G1 X1.59 Y1.1956
G1 X1.5784 Y1.2114
G3 X1.5737 Y1.2138 I-0.0048 J-0.0035
G1 X1.5149 Y1.2153
G1 X1.4561 Y1.2168
G3 X1.4517 Y1.215 I-0.0001 J-0.006
G1 X1.4339 Y1.1973
G3 X1.4149 Y1.1696 I0.0614 J-0.0625
G3 X1.4146 Y1.1656 I0.0055 J-0.0024
G3 X1.4289 Y1.1373 I0.0773 J0.0213
G1 X1.4422 Y1.1192
G3 X1.4469 Y1.1168 I0.0048 J0.0035
G1 X1.5046 Y1.1153
G1 X1.5624 Y1.1139
G3 X1.5662 Y1.1151 I0.0001 J0.006
G1 X1.5825 Y1.1275
G1 X1.5969 Y1.1385
G1 X1.6783 Y1.1292
G1 X1.7193 Y1.0083
G1 X1.7154 Y0.9369
G3 Y0.9365 I0.006 J-0.0003
G2 X1.7084 Y0.8666 I-0.3601 J0.0007
G1 X1.7055 Y0.8618
G1 X1.6395
G1 X1.5762
G1 Y0.8888
G1 Y0.9218
G3 X1.575 Y0.9254 I-0.006 J0.0
G1 X1.562 Y0.9432
G1 X1.549 Y0.9611
G3 X1.5433 Y0.9635 I-0.0048 J-0.0035
G1 X1.5189 Y0.96
G1 X1.4945 Y0.9566
G3 X1.4893 Y0.9506 I0.0008 J-0.0059
G1 Y0.8907
G1 Y0.8308
G3 X1.4906 Y0.8271 I0.006 J0.0
G0 Z0.125
G0 X1.4519 Y0.9698
G0 Z0.016
G1 F10.0 Z-0.004
G3 F30.0 X1.4524 Y0.9699 I-0.0016 J0.0058
G3 X1.4855 Y0.9922 I-0.0261 J0.0745
G1 X1.5061 Y1.0128
G3 X1.5075 Y1.0192 I-0.0042 J0.0042
G1 X1.502 Y1.0334
G1 X1.4997 Y1.0395
G1 X1.5588
G1 X1.6206
G1 X1.6199 Y0.9782
G1 X1.6191 Y0.9108
G3 X1.6243 Y0.9047 I0.006 J-0.0001
G1 X1.6446 Y0.9018
G1 X1.665 Y0.8989
G3 X1.6701 Y0.9006 I0.0009 J0.0059
G1 X1.6772 Y0.9077
G1 X1.6843 Y0.9148
G3 X1.686 Y0.919 I-0.0042 J0.0042
G1 Y0.9624
G1 Y1.0058
G3 X1.6853 Y1.0086 I-0.006 J0.0
G1 X1.6761 Y1.0259
G2 X1.6616 Y1.0603 I0.2089 J0.1081
G1 X1.656 Y1.0783
G3 X1.6502 Y1.0825 I-0.0057 J-0.0018
G1 X1.5435 Y1.0803
G1 X1.4369 Y1.0781
G3 X1.4328 Y1.0763 I0.0001 J-0.006
G1 X1.4146 Y1.0581
G3 X1.3947 Y1.0273 I0.0462 J-0.0516
G3 X1.3949 Y1.0233 I0.0057 J-0.0018
G3 X1.4161 Y0.9914 I0.0858 J0.034
G3 X1.4485 Y0.9699 I0.0552 J0.0478
G3 X1.4519 Y0.9698 I0.0019 J0.0057
G0 Z0.125
G0 X1.3709 Y1.2382
G0 Z0.016
G1 F10.0 Z-0.004
G3 F30.0 X1.3744 Y1.2411 I-0.0017 J0.0057
G1 X1.3851 Y1.2611
G1 X1.3958 Y1.281
G3 X1.3965 Y1.2838 I-0.0053 J0.0028
G1 Y1.3125
G1 Y1.3412
G3 X1.3953 Y1.3448 I-0.006 J0.0
G1 X1.3806 Y1.3642
G1 X1.3672 Y1.382
G1 X1.3668 Y1.9716
G1 X1.3665 Y2.5572
G1 X1.6964
G1 X2.0261
G1 X2.0224 Y2.3861
G1 X2.0185 Y2.2088
G3 X2.0245 Y2.2027 I0.006 J-0.0001
G1 X2.0495
G1 X2.0744
G3 X2.0804 Y2.2083 I0.0 J0.006
G1 X2.0836 Y2.2526
G1 X2.0867 Y2.297
G3 X2.0861 Y2.3002 I-0.006 J0.0004
G1 X2.0762 Y2.3193
G1 X2.0829 Y2.5929
G3 X2.0768 Y2.5991 I-0.006 J0.0001
G1 X1.695 Y2.5941
G1 X1.3356
G3 X1.3296 Y2.5882 I0.0 J-0.006
G1 X1.3272 Y1.9891
G1 X1.3248 Y1.3914
G1 X1.3147 Y1.3723
G1 X1.304 Y1.3518
G3 X1.3033 Y1.3486 I0.0053 J-0.0028
G1 X1.3065 Y1.2992
G1 X1.3096 Y1.2498
G3 X1.3149 Y1.2442 I0.006 J0.0004
G1 X1.3417 Y1.2411
G1 X1.3685 Y1.238
G3 X1.3709 Y1.2382 I0.0007 J0.006
G0 Z0.125
G0 X1.4534 Y1.3058
G0 Z0.016
G1 F10.0 Z-0.004
G1 F30.0 X1.4571 Y1.3013
G3 X1.4617 Y1.2991 I0.0046 J0.0038
G1 X1.4994
G1 X1.5343
G1 X1.5746 Y1.2513
G1 X1.6167 Y1.2014
G3 X1.6213 Y1.1992 I0.0046 J0.0039
G1 X1.6843
G1 X1.7472
G3 X1.7479 Y1.1993 I0.0 J0.006
G1 X1.769 Y1.2017
G3 X1.773 Y1.2039 I-0.0007 J0.006
G1 X1.8009 Y1.2392
G1 X1.8652
G1 X1.9262
G1 X1.9225 Y1.0781
G1 X1.9187 Y0.9108
G3 X1.9238 Y0.9047 I0.006 J-0.0001
G1 X1.9442 Y0.9018
G1 X1.9646 Y0.8989
G3 X1.9697 Y0.9006 I0.0009 J0.0059
G1 X1.9767 Y0.9077
G1 X1.9838 Y0.9148
G3 X1.9856 Y0.919 I-0.0042 J0.0042
G1 Y0.9653
G1 Y1.0115
G3 X1.9838 Y1.0158 I-0.006 J0.0
G1 X1.9742 Y1.0254
G1 X1.9664 Y1.0332
G1 X1.9777 Y1.2557
G3 X1.9756 Y1.2606 I-0.006 J0.0003
G1 X1.9584 Y1.2748
G3 X1.9548 Y1.2761 I-0.0038 J-0.0046
G1 X1.8693 Y1.279
G1 X1.7838 Y1.2818
G3 X1.7792 Y1.2799 I-0.0002 J-0.006
G1 X1.7608 Y1.2595
G1 X1.7442 Y1.2412
G1 X1.69
G1 X1.636
G1 X1.5957 Y1.289
G1 X1.5536 Y1.3389
G3 X1.549 Y1.341 I-0.0046 J-0.0039
G1 X1.5109
G1 X1.4757
G1 X1.4513 Y1.373
G1 X1.4264 Y1.4056
G1 Y1.8935
G1 Y2.3775
G1 X1.4648
G1 X1.5058
G1 X1.5102 Y2.3703
G1 X1.5163 Y2.3603
G3 X1.5215 Y2.3575 I0.0051 J0.0032
G1 X1.5852
G1 X1.6489
G3 X1.654 Y2.3603 I0.0 J0.006
G1 X1.6602 Y2.3703
G1 X1.6644 Y2.3771
G1 X1.81 Y2.3635
G1 X1.8213 Y2.2957
G1 X1.8188 Y2.2089
G3 X1.8248 Y2.2027 I0.006 J-0.0002
G1 X1.8498
G1 X1.8747
G3 X1.8807 Y2.2083 I0.0 J0.006
G1 X1.8839 Y2.2526
G1 X1.887 Y2.297
G3 X1.8864 Y2.3001 I-0.006 J0.0004
G1 X1.8762 Y2.3205
G2 X1.8636 Y2.3738 I0.1413 J0.0615
G3 Y2.3739 I-0.006 J-0.0003
G1 X1.8607 Y2.4089
G3 X1.855 Y2.4144 I-0.006 J-0.0005
G1 X1.7612 Y2.4173
G1 X1.6693 Y2.4201
G1 X1.6499 Y2.4337
G1 X1.6291 Y2.4483
G3 X1.6257 Y2.4494 I-0.0034 J-0.0049
G1 X1.5852
G1 X1.5447
G3 X1.5412 Y2.4483 I0.0 J-0.006
G1 X1.5207 Y2.4339
G1 X1.5015 Y2.4205
G1 X1.4492 Y2.4175
G1 X1.3951 Y2.4144
G3 X1.3895 Y2.4084 I0.0003 J-0.006
G1 X1.3869 Y1.9004
G1 X1.3843 Y1.3923
G3 X1.3856 Y1.3884 I0.006 J0.0
G1 X1.4214 Y1.3449
G1 X1.4534 Y1.3058
G0 Z0.125
G0 X1.4975 Y1.3603
G0 Z0.016
G1 F10.0 Z-0.004
G3 F30.0 X1.5013 Y1.359 I0.0038 J0.0047
G1 X1.8153
G1 X2.1234
G1 Y1.3107
G1 Y1.2597
G1 X2.1162 Y1.2553
G1 X2.1062 Y1.2491
G3 X2.1034 Y1.244 I0.0032 J-0.0051
G1 Y1.1603
G1 Y1.0766
G3 X2.1062 Y1.0715 I0.006 J0.0
G1 X2.1144 Y1.0665
G1 X2.1197 Y1.0632
G1 X2.1183 Y0.8239
G1 X2.1168 Y0.5825
G1 X2.1101 Y0.5676
G1 X2.1028 Y0.5515
G3 X2.1023 Y0.5487 I0.0055 J-0.0025
G1 X2.1053 Y0.4899
G1 X2.1084 Y0.4311
G3 X2.1137 Y0.4254 I0.006 J0.0003
G1 X2.1405 Y0.4224
G1 X2.1673 Y0.4193
G3 X2.1732 Y0.4224 I0.0007 J0.006
G1 X2.1839 Y0.4423
G1 X2.1946 Y0.4622
G3 X2.1953 Y0.465 I-0.0053 J0.0028
G1 Y0.5034
G1 Y0.5418
G3 X2.1942 Y0.5452 I-0.006 J0.0
G1 X2.1777 Y0.5688
G1 X2.1634 Y0.5891
G1 X2.1728 Y0.6042
G1 X2.1844 Y0.6227
G3 X2.1853 Y0.6258 I-0.0051 J0.0032
G1 Y0.6703
G1 Y0.7148
G3 X2.1824 Y0.7199 I-0.006 J0.0
G1 X2.1724 Y0.7261
G1 X2.1653 Y0.7305
G1 Y0.8158
G1 Y0.9012
G1 X2.1724 Y0.9056
G1 X2.1824 Y0.9117
G3 X2.1853 Y0.9169 I-0.0032 J0.0051
G1 Y0.9613
G1 Y1.0058
G3 X2.1844 Y1.009 I-0.006 J0.0
G1 X2.1721 Y1.0286
G1 X2.1618 Y1.0452
G1 X2.1772 Y1.0712
G1 X2.1944 Y1.1004
G3 X2.1953 Y1.1035 I-0.0052 J0.0031
G1 Y1.1621
G1 Y1.2208
G3 X2.1942 Y1.2242 I-0.006 J0.0
G1 X2.1797 Y1.2449
G1 X2.1663 Y1.2641
G1 X2.1633 Y1.3263
G1 X2.1603 Y1.3902
G3 X2.1544 Y1.396 I-0.006 J-0.0003
G1 X1.8348 Y1.3986
G1 X1.5182 Y1.4012
G1 X1.5028 Y1.4212
G1 X1.4868 Y1.4419
G1 X1.4866 Y1.8418
G1 X1.4863 Y2.2377
G1 X1.5491
G1 X1.6132
G1 X1.6174 Y2.2214
G1 X1.6228 Y2.2006
G3 X1.6295 Y2.1962 I0.0058 J0.0015
G1 X1.6527 Y2.1995
G1 X1.6759 Y2.2028
G3 X1.681 Y2.2087 I-0.0008 J0.0059
G1 Y2.2636
G1 Y2.3186
G3 X1.675 Y2.3246 I-0.006 J0.0
G1 X1.6501
G1 X1.6251
G3 X1.6192 Y2.3194 I0.0 J-0.006
G1 X1.616 Y2.2973
G1 X1.6136 Y2.2802
G1 X1.5369 Y2.2775
G1 X1.4552 Y2.2746
G3 X1.4494 Y2.2687 I0.0002 J-0.006
G1 X1.4468 Y1.8504
G1 X1.4442 Y1.4321
G3 X1.4454 Y1.4284 I0.006 J0.0
G1 X1.471 Y1.3949
G1 X1.4966 Y1.3614
G3 X1.4975 Y1.3603 I0.0048 J0.0036
G0 Z0.125
G0 X1.5275 Y1.4196
G0 Z0.016
G1 F10.0 Z-0.004
G3 F30.0 X1.5303 Y1.4189 I0.0027 J0.0054
G1 X1.9176
G1 X2.305
G3 X2.3093 Y1.4207 I0.0 J0.006
G1 X2.3485 Y1.4608
G1 X2.3869 Y1.5002
G1 X2.4291 Y1.5206
G1 X2.4709 Y1.5408
G1 X2.7286 Y1.5335
G1 X2.9879 Y1.5262
G3 X2.9941 Y1.5322 I0.0002 J0.006
G1 Y1.7681
G1 Y2.004
G3 X2.9881 Y2.01 I-0.006 J0.0
G1 X2.9731
G2 X2.9363 Y2.025 I0.0112 J0.0802
G3 X2.9361 Y2.0252 I-0.0036 J-0.0048
G1 X2.9115 Y2.0413
G3 X2.9049 I-0.0033 J-0.005
G1 X2.8803 Y2.0252
G1 X2.8572 Y2.01
G1 X2.8047
G1 Y2.2377
G1 X2.8572
G1 X2.8789 Y2.2234
G1 X2.9021 Y2.2082
G3 X2.9075 Y2.2077 I0.0033 J0.005
G1 X2.9242 Y2.214
G3 X2.9246 Y2.2142 I-0.0021 J0.0056
G3 X2.954 Y2.242 I-0.028 J0.0592
G1 X2.9641 Y2.2608
G3 Y2.2665 I-0.0053 J0.0028
G1 X2.954 Y2.2853
G3 X2.9254 Y2.3127 I-0.0582 J-0.0321
G3 X2.9249 Y2.313 I-0.0027 J-0.0054
G1 X2.9089 Y2.3191
G3 X2.9039 Y2.3188 I-0.0021 J-0.0056
G1 X2.8848 Y2.3086
G3 X2.8627 Y2.2855 I0.0179 J-0.0394
G3 X2.8622 Y2.2833 I0.0056 J-0.0023
G1 Y2.2796
G1 X2.8092
G1 X2.8048 Y2.5172
G1 X2.8572
G1 X2.8796 Y2.5025
G1 X2.9035 Y2.4868
G3 X2.9097 Y2.4866 I0.0033 J0.005
G1 X2.9291 Y2.497
G3 X2.957 Y2.5253 I-0.0291 J0.0566
G3 X2.9572 Y2.5258 I-0.0054 J0.0027
G1 X2.9631 Y2.5411
G3 Y2.5454 I-0.0056 J0.0021
G1 X2.9572 Y2.5606
G3 X2.9569 Y2.5614 I-0.0056 J-0.0021
G3 X2.93 Y2.5889 I-0.0639 J-0.0354
G3 X2.9298 Y2.5891 I-0.003 J-0.0052
G1 X2.911 Y2.5991
G3 X2.9053 I-0.0028 J-0.0053
G1 X2.8856 Y2.5886
G3 X2.8627 Y2.5656 I0.0173 J-0.0401
G3 X2.8622 Y2.5633 I0.0055 J-0.0024
G1 Y2.5598
G1 X2.7906 Y2.5571
G1 X2.7132 Y2.5542
G3 X2.7075 Y2.5482 I0.0002 J-0.006
G1 X2.7105 Y2.0664
G1 X2.7134 Y1.5907
G1 X2.5888
G1 X2.4599
G1 X2.4373 Y1.6055
G1 X2.4131 Y1.6214
G3 X2.4067 I-0.0033 J-0.005
G1 X2.3964 Y1.6151
G1 X2.3892 Y1.6106
G1 X2.3724 Y1.6196
G1 X2.3573 Y1.6277
G1 X2.3608 Y1.6368
G1 X2.3662 Y1.6509
G3 X2.3648 Y1.6573 I-0.0056 J0.0021
G1 X2.3441 Y1.6779
G3 X2.3113 Y1.7001 I-0.067 J-0.0639
G3 X2.3069 I-0.0022 J-0.0056
G3 X2.2749 Y1.6787 I0.0339 J-0.0856
G1 X2.2588 Y1.6627
G1 X2.1753 Y1.7316
G1 X2.179 Y1.7464
G1 X2.1837 Y1.7648
G3 X2.1835 Y1.7685 I-0.0058 J0.0015
G1 X2.178 Y1.7828
G3 X2.1778 Y1.7834 I-0.0056 J-0.0021
G3 X2.1517 Y1.8099 I-0.0558 J-0.0288
G1 X2.1336 Y1.8195
G3 X2.1286 Y1.8198 I-0.0028 J-0.0053
G1 X2.1127 Y1.8137
G3 X2.1121 Y1.8135 I0.0021 J-0.0056
G3 X2.0835 Y1.7861 I0.0304 J-0.0603
G3 Y1.786 I0.0052 J-0.0029
G1 X2.0734 Y1.7672
G3 Y1.7616 I0.0053 J-0.0028
G1 X2.0838 Y1.7423
G1 X2.0941 Y1.723
G3 X2.0976 Y1.7201 I0.0053 J0.0028
G1 X2.1187 Y1.7134
G1 X2.2168 Y1.6203
G3 X2.2209 Y1.6186 I0.0041 J0.0044
G1 X2.2358
G2 X2.3018 Y1.5945 I-0.0836 J-0.3313
G1 X2.3019
G1 X2.3519 Y1.5708
G1 X2.3564 Y1.5591
G1 X2.3604 Y1.5488
G1 X2.3212 Y1.5104
G1 X2.2809 Y1.4708
G1 X1.9259
G1 X1.5751
G1 X1.5809 Y1.5266
G3 X1.5871 Y1.6697 I-1.0717 J0.1182
G1 X1.5864 Y1.714
G3 Y1.7141 I-0.006 J-0.0001
G1 X1.5841 Y1.7804
G3 X1.5826 Y1.8141 I-0.261 J0.0051
G1 X1.5818 Y1.83
G3 X1.5808 Y1.8477 I-0.0489 J0.006
G1 X1.5752 Y1.9381
G1 X1.5933
G1 X1.6132
G1 X1.6174 Y1.9218
G1 X1.6228 Y1.9011
G3 X1.6295 Y1.8967 I0.0058 J0.0015
G1 X1.6527 Y1.8999
G1 X1.6759 Y1.9032
G3 X1.681 Y1.9092 I-0.0008 J0.0059
G1 Y1.9641
G1 Y2.019
G3 X1.6759 Y2.0249 I-0.006 J0.0
G1 X1.6527 Y2.0282
G1 X1.6295 Y2.0315
G3 X1.6228 Y2.0271 I-0.0008 J-0.0059
G1 X1.6176 Y2.0069
G1 X1.6134 Y1.9908
G1 X1.5762 Y1.9881
G1 X1.5348 Y1.985
G3 X1.5293 Y1.9792 I0.0004 J-0.006
G1 X1.5264 Y1.8795
G1 X1.5236 Y1.7821
G1 X1.5156 Y1.7742
G1 X1.506 Y1.7646
