( Made using CamBam - http://www.cambam.co.uk )
( adsr_w_state_leds_panel 12/7/2014 10:10:07 AM )
( T3 : 3.175 )
( T10 : 0.0 )
G21 G90 G61 G40
G0 Z3.0
( T10 : 0.0 )
T10 M6
( Engrave1 )
G17
M3 S1000
G0 X32.238 Y96.7666
G0 Z0.405
G1 F1000.0 Z-0.005
G1 F2000.0 X29.4853
G1 X32.238
G0 Z3.0
G0 Y93.3336
G0 Z0.405
G1 F1000.0 Z-0.005
G1 F2000.0 Y97.6842
G3 X32.1174 Y98.6116 I-3.3191 J0.0399
G3 X31.6738 Y99.435 I-2.0449 J-0.5707
G3 X30.9917 Y99.9241 I-1.3567 J-1.1718
G3 X30.1656 Y100.0731 I-0.7941 J-2.0392
G3 X29.3166 Y99.9043 I-0.025 J-2.0946
G3 X28.6627 Y99.4192 I0.7113 J-1.642
G3 X28.2408 Y98.6703 I1.745 J-1.4764
G3 X28.0931 Y97.6842 I2.9388 J-0.9441
G1 Y93.3336
G1 Y97.6842
G2 X28.2408 Y98.6703 I3.0866 J0.042
G2 X28.6627 Y99.4192 I2.1669 J-0.7275
G2 X29.3166 Y99.9043 I1.3652 J-1.1568
G2 X30.1656 Y100.0731 I0.824 J-1.9257
G2 X30.9917 Y99.9241 I0.032 J-2.1881
G2 X31.6738 Y99.435 I-0.6746 J-1.6609
G2 X32.1174 Y98.6116 I-1.6013 J-1.394
G2 X32.238 Y97.6842 I-3.1984 J-0.8875
G1 Y93.3336
G0 Z3.0
G0 X35.7733 Y97.27
G0 Z0.405
G1 F1000.0 Z-0.005
G1 F2000.0 X46.69
G0 Z3.0
G0 X45.9781 Y109.0638
G0 Z0.405
G1 F1000.0 Z-0.005
G2 F2000.0 X45.8139 Y109.0607 I-0.1186 J1.9655
G2 X44.9897 Y109.1701 I0.0485 J3.5254
G3 X45.8139 Y109.0607 I0.8726 J3.4156
G3 X46.5717 Y109.1935 I0.0455 J1.9688
G3 X47.0913 Y109.5529 I-0.4975 J1.2744
G3 X47.3882 Y110.0842 I-1.0472 J0.9338
G3 X47.4858 Y110.7326 I-2.0158 J0.6352
G1 Y112.4826
G3 X47.3647 Y113.1193 I-1.9199 J-0.0353
G3 X47.0522 Y113.6427 I-1.4673 J-0.521
G3 X46.5678 Y114.0021 I-1.0897 J-0.9625
G3 X45.935 Y114.1349 I-0.6103 J-1.334
G3 X45.2944 Y114.0177 I-0.0145 J-1.7302
G3 X44.7827 Y113.6779 I0.5184 J-1.3357
G3 X44.4428 Y113.1349 I1.1337 J-1.0874
G3 X44.3178 Y112.4045 I1.8988 J-0.7009
G3 X44.4507 Y111.7365 I1.6222 J-0.0247
G3 X44.8022 Y111.2326 I1.4825 J0.6597
G3 X45.3217 Y110.9123 I1.0476 J1.1177
G3 X45.9585 Y110.8029 I0.6266 J1.7398
G3 X46.5014 Y110.8967 I0.0036 J1.5982
G2 X45.9585 Y110.8029 I-0.5393 J1.5043
G2 X45.3217 Y110.9123 I-0.0101 J1.849
G2 X44.8022 Y111.2326 I0.528 J1.4379
G2 X44.4507 Y111.7365 I1.1309 J1.1636
G2 X44.3178 Y112.4045 I1.4892 J0.6433
G2 X44.4428 Y113.1349 I2.024 J0.0296
G2 X44.7827 Y113.6779 I1.4737 J-0.5446
G2 X45.2944 Y114.0177 I1.0301 J-0.9959
G2 X45.935 Y114.1349 I0.6261 J-1.6131
G2 X46.5678 Y114.0021 I0.0225 J-1.4668
G2 X47.0522 Y113.6427 I-0.6052 J-1.3218
G2 X47.3647 Y113.1193 I-1.1547 J-1.0444
G2 X47.4858 Y112.4826 I-1.799 J-0.672
G1 Y110.7326
G2 X47.3882 Y110.0842 I-2.1134 J-0.0133
G2 X47.0913 Y109.5529 I-1.3441 J0.4026
G2 X46.5717 Y109.1935 I-1.017 J0.915
G2 X45.9781 Y109.0638 I-0.7123 J1.8358
G0 Z3.0
G0 X42.5991 Y110.9006
G0 Z0.405
G1 F1000.0 Z-0.005
G1 F2000.0 Y114.0334
G1 Y110.9006
G0 Z3.0
G0 X39.9702 Y112.4006
G0 Z0.405
G1 F1000.0 Z-0.005
G2 F2000.0 X40.06 Y113.1584 I2.8297 J0.0488
G2 X40.3139 Y113.6779 I1.4932 J-0.4079
G2 X40.6889 Y113.9826 I0.8285 J-0.6366
G2 X41.1538 Y114.1232 I0.6704 J-1.3775
G3 X40.6889 Y113.9826 I0.2056 J-1.5181
G3 X40.3139 Y113.6779 I0.4535 J-0.9413
G3 X40.06 Y113.1584 I1.2391 J-0.9274
G3 X39.9702 Y112.4006 I2.7393 J-0.709
G1 Y110.8967
G1 Y112.4006
G0 Z3.0
G0 Y114.0334
G0 Z0.405
G1 F1000.0 Z-0.005
G1 F2000.0 Y110.9006
G1 Y114.0334
G0 Z3.0
G0 X38.8022 Y114.0529
G0 Z0.405
G1 F1000.0 Z-0.005
G1 F2000.0 X37.4233
G1 X38.8022
G0 Z3.0
G0 X38.2553 Y110.9006
G0 Z0.405
G1 F1000.0 Z-0.005
G2 F2000.0 X37.9336 Y110.9418 I-0.0133 J1.1718
G2 X37.646 Y111.092 I0.2031 J0.7395
G2 X37.4652 Y111.3965 I0.4076 J0.4479
G2 X37.4233 Y111.7482 I1.2862 J0.3314
G1 Y114.9982
G1 Y111.7482
G3 X37.4652 Y111.3965 I1.3277 J-0.0203
G3 X37.646 Y111.092 I0.5884 J0.1433
G3 X37.9336 Y110.9418 I0.4906 J0.5892
G3 X38.2553 Y110.9006 I0.3085 J1.1306
G1 X38.8022
G1 X38.2553
G0 Z3.0
G0 X42.5493 Y115.1919
G0 Z0.405
G1 F1000.0 Z-0.005
G2 F2000.0 X42.5444 Y115.1974 I0.0438 J0.0438
G2 X42.5288 Y115.2443 I0.0688 J0.049
G2 X42.5991 Y115.3185 I0.0631 J0.0106
G2 X42.6733 Y115.2443 I0.0093 J-0.0649
G2 X42.6538 Y115.1974 I-0.0741 J0.0034
G2 X42.5991 Y115.174 I-0.0487 J0.0382
G2 X42.5493 Y115.1919 I-0.0059 J0.0616
G2 X42.5444 Y115.1974 I0.0438 J0.0438
G2 X42.5288 Y115.2443 I0.0688 J0.049
G2 X42.5991 Y115.3185 I0.0631 J0.0106
G2 X42.6733 Y115.2443 I0.0093 J-0.0649
G2 X42.6538 Y115.1974 I-0.0741 J0.0034
G2 X42.5991 Y115.174 I-0.0487 J0.0382
G2 X42.5493 Y115.1919 I-0.0059 J0.0616
G3 X42.5991 Y115.174 I0.0438 J0.0438
G3 X42.6538 Y115.1974 I0.0059 J0.0616
G3 X42.6733 Y115.2443 I-0.0545 J0.0502
G3 X42.5991 Y115.3185 I-0.0649 J0.0093
G3 X42.5288 Y115.2443 I-0.0072 J-0.0636
G3 X42.5444 Y115.1974 I0.0844 J0.0021
G3 X42.5493 Y115.1919 I0.0487 J0.0382
G3 X42.5991 Y115.174 I0.0438 J0.0438
G3 X42.6538 Y115.1974 I0.0059 J0.0616
G3 X42.6733 Y115.2443 I-0.0545 J0.0502
G3 X42.5991 Y115.3185 I-0.0649 J0.0093
G3 X42.5288 Y115.2443 I-0.0072 J-0.0636
G3 X42.5444 Y115.1974 I0.0844 J0.0021
G3 X42.5493 Y115.1919 I0.0487 J0.0382
G0 Z3.0
G0 X40.8055 Y119.74
G0 Z0.405
G1 F1000.0 Z-0.005
G1 F2000.0 X39.8405
G1 X39.0732 Y120.9463
G3 X38.5195 Y121.7452 I-9.6541 J-6.0996
G3 X38.3388 Y121.9543 I-2.1187 J-1.6482
G3 X38.1279 Y122.1328 I-0.889 J-0.8363
G3 X37.7799 Y122.2871 I-0.6251 J-0.9406
G3 X37.3527 Y122.3148 I-0.3732 J-2.4495
G1 X36.4628
G1 Y119.74
G1 X35.6956
G1 Y125.5381
G1 X38.2664
G2 X38.8624 Y125.5091 I0.0294 J-5.5273
G2 X39.445 Y125.3799 I-0.2129 J-2.3387
G2 X40.0896 Y124.8302 I-0.461 J-1.1935
G2 X40.3309 Y123.9561 I-1.4049 J-0.8581
G2 X40.2344 Y123.3964 I-1.579 J-0.0159
G2 X39.9314 Y122.9159 I-1.3357 J0.5065
G2 X39.3596 Y122.5434 I-1.1226 J1.0981
G2 X38.6975 Y122.378 I-1.021 J2.68
G2 X39.1602 Y122.0893 I-0.8403 J-1.862
G2 X39.797 Y121.3181 I-2.746 J-2.9157
G1 X40.8055 Y119.74
G0 Z3.0
G0 X39.0529 Y123.1365
G0 Z0.405
G1 F1000.0 Z-0.005
G3 F2000.0 X39.3856 Y123.434 I-0.4085 J0.7916
G3 X39.5399 Y123.9561 I-0.7968 J0.5192
G3 X39.2393 Y124.6324 I-0.8612 J0.0222
G3 X38.7919 Y124.8475 I-0.6463 J-0.7714
G3 X38.298 Y124.8974 I-0.4673 J-2.1563
G1 X36.4628
G1 Y122.9792
G1 X38.1121
G3 X38.5277 Y122.9996 I0.019 J3.8645
G3 X38.9348 Y123.086 I-0.1699 J1.8018
G3 X39.0529 Y123.1365 I-0.2903 J0.8422
G0 Z3.0
G0 X34.4616 Y123.9047
G0 Z0.405
G1 F1000.0 Z-0.005
G1 F2000.0 X33.7259 Y123.8493
G3 X33.6079 Y124.3053 I-1.4795 J-0.1397
G3 X33.3225 Y124.6799 I-0.9331 J-0.4148
G3 X32.842 Y124.9055 I-0.7258 J-0.9212
G3 X32.314 Y124.9607 I-0.5018 J-2.2482
G3 X31.7852 Y124.9133 I-0.0284 J-2.6529
G3 X31.2975 Y124.7036 I0.1972 J-1.1309
G3 X31.0661 Y124.4349 I0.5419 J-0.7008
G3 X30.9811 Y124.0906 I0.6301 J-0.3381
G3 X31.2065 Y123.5764 I0.6592 J-0.0175
G3 X31.4748 Y123.4226 I0.6274 J0.7834
G3 X31.913 Y123.2746 I1.4791 J3.6549
G3 X32.3614 Y123.1611 I2.4805 J8.8644
G2 X33.0115 Y123.0031 I-3.4725 J-15.7053
G2 X33.6468 Y122.7933 I-1.1303 J-4.4889
G2 X34.0614 Y122.5481 I-0.904 J-2.0017
G2 X34.3943 Y122.2001 I-0.8823 J-1.1772
G2 X34.6356 Y121.3774 I-1.191 J-0.796
G2 X34.3706 Y120.5033 I-1.5874 J0.004
G2 X33.6073 Y119.8666 I-1.466 J0.9815
G2 X32.4919 Y119.6411 I-1.0735 J2.4393
G2 X31.82 Y119.6899 I-0.0234 J4.3313
G2 X31.1709 Y119.8705 I0.3991 J2.6903
G2 X30.3364 Y120.5587 I0.7191 J1.7221
G2 X30.02 Y121.6028 I1.6612 J1.0734
G1 X30.7438 Y121.6661
G3 X30.8208 Y121.2944 I2.0337 J0.2277
G3 X30.9811 Y120.9503 I1.2988 J0.3954
G3 X31.2423 Y120.684 I0.9222 J0.6436
G3 X31.5665 Y120.4994 I0.9891 J1.3595
G3 X32.4563 Y120.3293 I0.8562 J2.0669
G3 X33.2315 Y120.4598 I0.0378 J2.1429
G3 X33.5065 Y120.6017 I-0.48 J1.2677
G3 X33.7299 Y120.8158 I-0.4962 J0.7413
G3 X33.896 Y121.3141 I-0.6664 J0.499
G3 X33.7378 Y121.7887 I-0.7467 J0.0148
G3 X33.4998 Y121.9957 I-0.6903 J-0.5534
G3 X33.2157 Y122.1328 I-0.8648 J-1.4289
G3 X32.7028 Y122.2852 I-1.8928 J-5.4306
G3 X32.1834 Y122.4136 I-6.562 J-25.4276
G2 X31.6145 Y122.5668 I2.4313 J10.1638
G2 X31.0642 Y122.7775 I0.9225 J3.2337
G2 X30.7186 Y123.0059 I0.8783 J1.7041
G2 X30.4432 Y123.3154 I0.8804 J1.0608
G2 X30.2415 Y124.0392 I1.1413 J0.7081
G2 X30.4907 Y124.8579 I1.4644 J0.0016
G2 X31.2184 Y125.4393 I1.2813 J-0.8577
G2 X32.2823 Y125.637 I1.0277 J-2.5683
G2 X32.8605 Y125.5896 I0.015 J-3.3677
G2 X33.4174 Y125.4274 I-0.4192 J-2.4763
G2 X34.1768 Y124.8183 I-0.5934 J-1.5177
G2 X34.4616 Y123.9047 I-1.4704 J-0.9595
G0 Z3.0
G0 X29.1904 Y123.2452
G0 Z0.405
G1 F1000.0 Z-0.005
G2 F2000.0 X29.225 Y122.6707 I-4.4544 J-0.5573
G2 X29.0708 Y121.5 I-4.0731 J-0.0589
G2 X28.6753 Y120.6536 I-2.7838 J0.7852
G2 X28.1453 Y120.1276 I-1.7476 J1.2308
G2 X27.4532 Y119.8389 I-1.1675 J1.8248
G2 X26.5237 Y119.74 I-0.8799 J3.8531
G1 X24.4315
G1 Y125.5381
G1 X26.4288
G2 X26.9471 Y125.5231 I0.0255 J-8.0345
G2 X27.4611 Y125.4551 I-0.1768 J-3.3145
G2 X28.3114 Y125.0398 I-0.4125 J-1.9228
G2 X28.9957 Y124.0471 I-1.5225 J-1.7815
G2 X29.1731 Y123.3693 I-3.1548 J-1.1879
G2 X29.1904 Y123.2452 I-4.4371 J-0.6814
G0 Z3.0
G0 X28.4099 Y123.1593
G0 Z0.405
G1 F1000.0 Z-0.005
G3 F2000.0 X28.376 Y123.4005 I-4.0181 J-0.4424
G3 X28.1334 Y124.0787 I-1.9406 J-0.3115
G3 X27.8264 Y124.4675 I-1.5913 J-0.9412
G3 X27.4097 Y124.7353 I-0.8874 J-0.9228
G3 X26.918 Y124.8337 I-0.6261 J-1.8506
G3 X26.4169 Y124.8539 I-0.4738 J-5.5194
G1 X25.1988
G1 Y120.4242
G1 X26.4367
G3 X26.8896 Y120.4445 I0.0206 J4.5982
G3 X27.3345 Y120.531 I-0.1834 J2.132
G3 X27.8566 Y120.8316 I-0.3678 J1.2425
G3 X28.1111 Y121.1726 I-1.1039 J1.0895
G3 X28.2798 Y121.5633 I-1.9283 J1.064
G3 X28.4011 Y122.1169 I-2.7615 J0.895
G3 X28.434 Y122.6826 I-4.5199 J0.5473
G3 X28.4099 Y123.1593 I-4.0422 J0.0343
G0 Z3.0
G0 X23.2752 Y121.0578
G0 Z0.405
G1 F1000.0 Z-0.005
G1 F2000.0 X23.8145 Y119.74
G1 X22.9404
G1 X22.2641 Y121.4961
G1 X19.8396
G1 X19.2029 Y119.74
G1 X18.3881
G1 X20.6148 Y125.5381
G1 X21.4415
G1 X23.2752 Y121.0578
G0 Z3.0
G0 X22.0268 Y122.121
G0 Z0.405
G1 F1000.0 Z-0.005
G1 F2000.0 X21.4217 Y123.7267
G2 X21.0104 Y124.9291 I15.1948 J5.8698
G2 X20.6979 Y123.8216 I-7.2479 J1.4471
G1 X20.0611 Y122.121
G1 X22.0268
G0 Z3.0
G0 X21.8417 Y114.9982
G0 Z0.405
G1 F1000.0 Z-0.005
G1 F2000.0 Y111.7482
G3 X21.8836 Y111.3965 I1.3277 J-0.0203
G3 X22.0644 Y111.092 I0.5884 J0.1433
G3 X22.352 Y110.9418 I0.4906 J0.5892
G3 X22.6738 Y110.9006 I0.3085 J1.1306
G1 X23.2207
G1 X22.6738
G2 X22.352 Y110.9418 I-0.0133 J1.1718
G2 X22.0644 Y111.092 I0.2031 J0.7395
G2 X21.8836 Y111.3965 I0.4076 J0.4479
G2 X21.8417 Y111.7482 I1.2862 J0.3314
G1 Y114.9982
G0 Z3.0
G0 Y114.0529
G0 Z0.405
G1 F1000.0 Z-0.005
G1 F2000.0 X23.2207
G1 X21.8417
G0 Z3.0
G0 X19.3535 Y110.9552
G0 Z0.405
G1 F1000.0 Z-0.005
G2 F2000.0 X18.7558 Y110.8029 I-0.5647 J0.967
G2 X18.0996 Y110.9279 I-0.0172 J1.6949
G2 X17.5839 Y111.2756 I0.6008 J1.4473
G2 X17.248 Y111.8068 I1.1994 J1.1303
G2 X17.1308 Y112.4865 I1.7864 J0.658
G2 X17.248 Y113.1545 I1.8298 J0.0232
G2 X17.5839 Y113.6779 I1.4542 J-0.5637
G2 X18.0996 Y114.0256 I1.1164 J-1.0996
G2 X18.7558 Y114.1506 I0.639 J-1.5699
G2 X19.3964 Y114.0412 I0.0221 J-1.8012
G2 X19.9003 Y113.7404 I-0.526 J-1.4536
G2 X20.2285 Y113.2756 I-0.8377 J-0.9396
G2 X20.3457 Y112.6779 I-1.3684 J-0.5786
G1 Y110.9006
G1 Y112.6779
G3 X20.2285 Y113.2756 I-1.4856 J0.019
G3 X19.9003 Y113.7404 I-1.1659 J-0.4748
G3 X19.3964 Y114.0412 I-1.0298 J-1.1528
G3 X18.7558 Y114.1506 I-0.6185 J-1.6919
G3 X18.0996 Y114.0256 I-0.0172 J-1.6949
G3 X17.5839 Y113.6779 I0.6008 J-1.4473
G3 X17.248 Y113.1545 I1.1182 J-1.0872
G3 X17.1308 Y112.4865 I1.7127 J-0.6447
G3 X17.248 Y111.8068 I1.9034 J-0.0218
G3 X17.5839 Y111.2756 I1.5353 J0.599
G3 X18.0996 Y110.9279 I1.1164 J1.0996
G3 X18.7558 Y110.8029 I0.639 J1.5699
G3 X19.3535 Y110.9552 I0.0329 J1.1193
G0 Z3.0
G0 X13.4003 Y109.1701
G0 Z0.405
G1 F1000.0 Z-0.005
G3 F2000.0 X14.2246 Y109.0607 I0.8726 J3.4156
G3 X14.9824 Y109.1935 I0.0455 J1.9688
G3 X15.5019 Y109.5529 I-0.4975 J1.2744
G3 X15.7988 Y110.0842 I-1.0472 J0.9338
G3 X15.8964 Y110.7326 I-2.0158 J0.6352
G1 Y112.4826
G3 X15.7753 Y113.1193 I-1.9199 J-0.0353
G3 X15.4628 Y113.6427 I-1.4673 J-0.521
G3 X14.9785 Y114.0021 I-1.0897 J-0.9625
G3 X14.3457 Y114.1349 I-0.6103 J-1.334
G3 X13.705 Y114.0177 I-0.0145 J-1.7302
G3 X13.1933 Y113.6779 I0.5184 J-1.3357
G3 X12.8535 Y113.1349 I1.1337 J-1.0874
G3 X12.7285 Y112.4045 I1.8988 J-0.7009
G3 X12.8613 Y111.7365 I1.6222 J-0.0247
G3 X13.2128 Y111.2326 I1.4825 J0.6597
G3 X13.7324 Y110.9123 I1.0476 J1.1177
G3 X14.3691 Y110.8029 I0.6266 J1.7398
G3 X14.9121 Y110.8967 I0.0036 J1.5982
G2 X14.3691 Y110.8029 I-0.5393 J1.5043
G2 X13.7324 Y110.9123 I-0.0101 J1.849
G2 X13.2128 Y111.2326 I0.528 J1.4379
G2 X12.8613 Y111.7365 I1.1309 J1.1636
G2 X12.7285 Y112.4045 I1.4892 J0.6433
G2 X12.8535 Y113.1349 I2.024 J0.0296
G2 X13.1933 Y113.6779 I1.4737 J-0.5446
G2 X13.705 Y114.0177 I1.0301 J-0.9959
G2 X14.3457 Y114.1349 I0.6261 J-1.6131
G2 X14.9785 Y114.0021 I0.0225 J-1.4668
G2 X15.4628 Y113.6427 I-0.6052 J-1.3218
G2 X15.7753 Y113.1193 I-1.1547 J-1.0444
G2 X15.8964 Y112.4826 I-1.799 J-0.672
G1 Y110.7326
G2 X15.7988 Y110.0842 I-2.1134 J-0.0133
G2 X15.5019 Y109.5529 I-1.3441 J0.4026
G2 X14.9824 Y109.1935 I-1.017 J0.915
G2 X14.2246 Y109.0607 I-0.7123 J1.8358
G2 X13.4003 Y109.1701 I0.0485 J3.5254
G0 Z3.0
G0 X24.3403 Y112.0
G0 Z0.405
G1 F1000.0 Z-0.005
G2 F2000.0 X24.2832 Y112.4709 I1.7397 J0.45
G2 X24.4082 Y113.1427 I1.7566 J0.0208
G2 X24.748 Y113.6701 I1.4895 J-0.5867
G2 X25.2636 Y114.0138 I1.0546 J-1.0234
G2 X25.916 Y114.1349 I0.6364 J-1.6107
G2 X26.7675 Y113.9162 I0.024 J-1.6733
G2 X27.0768 Y113.6752 I-0.6133 J-1.1061
G2 X27.2832 Y113.342 I-0.7536 J-0.6972
G1 X25.3457 Y112.2677
G1 X27.2832 Y113.342
G3 X26.7675 Y113.9162 I-1.0337 J-0.4096
G3 X25.916 Y114.1349 I-0.8275 J-1.4545
G3 X25.2636 Y114.0138 I-0.0159 J-1.732
G3 X24.748 Y113.6701 I0.539 J-1.367
G3 X24.4082 Y113.1427 I1.1496 J-1.114
G3 X24.2832 Y112.4709 I1.6315 J-0.6511
G3 X24.4082 Y111.7912 I1.797 J-0.0209
G3 X24.748 Y111.2638 I1.5367 J0.6172
G3 X25.2636 Y110.924 I1.0637 J1.0527
G3 X25.916 Y110.8068 I0.6359 J1.6658
G3 X26.4309 Y110.8738 I0.0146 J1.8997
G3 X26.9003 Y111.0959 I-0.4076 J1.4689
G3 X27.2651 Y111.4756 I-0.8115 J1.1447
G3 X27.4824 Y111.9552 I-1.5191 J0.977
G2 X27.2651 Y111.4756 I-1.7368 J0.4975
G2 X26.9003 Y111.0959 I-1.1762 J0.7649
G2 X25.916 Y110.8068 I-0.9397 J1.3794
G2 X25.2636 Y110.924 I-0.0164 J1.7832
G2 X24.748 Y111.2638 I0.548 J1.3925
G2 X24.4082 Y111.7912 I1.1967 J1.1444
G2 X24.3403 Y112.0 I1.6718 J0.6588
G0 Z3.0
G0 X24.8567 Y97.27
G0 Z0.405
G1 F1000.0 Z-0.005
G1 F2000.0 X13.94
G0 Z3.0
G0 Y74.5
G0 Z0.405
G1 F1000.0 Z-0.005
G1 F2000.0 X24.8567
G0 Z3.0
G0 X29.7403 Y71.1853
G0 Z0.405
G1 F1000.0 Z-0.005
G3 F2000.0 X30.8951 Y71.4121 I0.0018 J3.045
G3 X31.8971 Y72.066 I-1.1335 J2.8314
G3 X32.6037 Y73.0996 I-2.3136 J2.3401
G3 X32.8727 Y74.4918 I-3.1684 J1.3341
G3 X32.6037 Y75.8787 I-3.4226 J0.0558
G3 X31.8707 Y76.9123 I-2.7743 J-1.1908
G3 X30.8108 Y77.5662 I-2.1739 J-2.3378
G3 X29.5557 Y77.7982 I-1.24 J-3.1966
G1 X28.2953
G1 Y71.1853
G1 Y77.7982
G1 X29.5557
G2 X30.8108 Y77.5662 I0.0151 J-3.4287
G2 X31.8707 Y76.9123 I-1.114 J-2.9917
G2 X32.6037 Y75.8787 I-2.0413 J-2.2244
G2 X32.8727 Y74.4918 I-3.1536 J-1.3311
G2 X32.6037 Y73.0996 I-3.4373 J-0.058
G2 X31.8971 Y72.066 I-3.0202 J1.3065
G2 X30.8951 Y71.4121 I-2.1354 J2.1775
G2 X29.7403 Y71.1853 I-1.153 J2.8182
G1 X29.7086
G1 X29.7403
G0 Z3.0
G0 X35.7733 Y74.5
G0 Z0.405
G1 F1000.0 Z-0.005
G1 F2000.0 X46.69
G0 Z3.0
G0 Y51.73
G0 Z0.405
G1 F1000.0 Z-0.005
G1 F2000.0 X35.7733
G0 Z3.0
G0 X32.2787 Y50.3521
G0 Z0.405
G1 F1000.0 Z-0.005
G3 F2000.0 X32.092 Y50.668 I-1.0842 J-0.4275
G3 X31.3907 Y51.2639 I-2.0474 J-1.699
G3 X30.4678 Y51.7227 I-3.5019 J-5.8865
G2 X29.5502 Y52.1709 I3.0305 J7.3669
G2 X28.8489 Y52.7299 I1.432 J2.5163
G2 X28.5694 Y53.5262 I0.893 J0.7606
G2 X28.6274 Y53.985 I1.9803 J-0.0173
G2 X28.8489 Y54.4385 I1.2538 J-0.3315
G2 X29.3024 Y54.7918 I0.9888 J-0.8014
G2 X29.6796 Y54.9051 I0.5832 J-1.2578
G2 X30.0723 Y54.9342 I0.3769 J-2.4181
G1 X32.0709
G1 X30.0723
G3 X29.6796 Y54.9051 I-0.0156 J-2.4505
G3 X29.3024 Y54.7918 I0.2061 J-1.3713
G3 X28.8489 Y54.4385 I0.5353 J-1.1549
G3 X28.6274 Y53.985 I1.0322 J-0.7849
G3 X28.5694 Y53.5262 I1.9228 J-0.4762
G3 X28.8489 Y52.7299 I1.1725 J-0.0356
G3 X29.5502 Y52.1709 I2.1333 J1.9572
G3 X30.4678 Y51.7227 I3.9472 J6.9169
G2 X31.3907 Y51.2639 I-2.5774 J-6.342
G2 X32.092 Y50.668 I-1.346 J-2.295
G2 X32.3715 Y49.8243 I-1.0023 J-0.8002
G2 X32.2742 Y49.1934 I-1.8732 J-0.0338
G2 X31.9022 Y48.6747 I-1.0487 J0.3593
G2 X31.33 Y48.3992 I-0.9978 J1.3407
G2 X30.6999 Y48.3213 I-0.6072 J2.3242
G1 X28.485
G1 X30.6999
G3 X31.33 Y48.3992 I0.0231 J2.4013
G3 X31.9022 Y48.6747 I-0.4258 J1.6164
G3 X32.2742 Y49.1934 I-0.6768 J0.878
G3 X32.3715 Y49.8243 I-1.7758 J0.597
G3 X32.3072 Y50.2711 I-1.4832 J0.0146
G3 X32.2787 Y50.3521 I-1.1128 J-0.3465
G0 Z3.0
G0 X24.8567 Y51.73
G0 Z0.405
G1 F1000.0 Z-0.005
G1 F2000.0 X13.94
G0 Z3.0
G0 Y28.96
G0 Z0.405
G1 F1000.0 Z-0.005
G1 F2000.0 X24.8567
G0 Z3.0
G0 X28.1802 Y29.817
G0 Z0.405
G1 F1000.0 Z-0.005
G2 F2000.0 X28.2915 Y30.5905 I2.8727 J-0.0188
G2 X28.6665 Y31.3346 I2.1759 J-0.63
G2 X29.352 Y31.903 I1.5732 J-1.2
G2 X29.8631 Y32.0771 I0.8584 J-1.6824
G2 X30.4009 Y32.1256 I0.5199 J-2.7574
G2 X31.2446 Y31.9733 I0.0329 J-2.2304
G2 X31.8833 Y31.569 I-0.6906 J-1.7976
G2 X32.2817 Y30.9772 I-1.2286 J-1.2572
G2 X32.4282 Y30.2506 I-1.6697 J-0.7147
G2 X32.2807 Y29.461 I-2.0148 J-0.0323
G2 X31.7954 Y28.8209 I-1.5125 J0.6429
G2 X30.9996 Y28.4161 I-1.3487 J1.6665
G2 X30.1137 Y28.3053 I-0.8494 J3.1943
G1 X29.7622
G1 X30.4829
G2 X31.2871 Y28.2093 I0.0351 J-3.1224
G2 X32.0122 Y27.8483 I-0.4667 J-1.8459
G2 X32.4583 Y27.2015 I-0.8808 J-1.0847
G2 X32.5747 Y26.4245 I-2.2614 J-0.736
G1 Y24.6373
G1 Y26.4245
G3 X32.4583 Y27.2015 I-2.3778 J0.041
G3 X32.0122 Y27.8483 I-1.3269 J-0.438
G3 X31.2871 Y28.2093 I-1.1918 J-1.4851
G3 X30.4829 Y28.3053 I-0.7693 J-3.0274
G1 X29.7622
G1 X30.1137
G3 X30.9996 Y28.4161 I0.0364 J3.3057
G3 X31.7954 Y28.8209 I-0.5529 J2.0713
G3 X32.2807 Y29.461 I-1.0273 J1.283
G3 X32.4282 Y30.2506 I-1.8672 J0.7573
G3 X32.2817 Y30.9772 I-1.8163 J0.0119
G3 X31.8833 Y31.569 I-1.6272 J-0.6655
G3 X31.2446 Y31.9733 I-1.3293 J-1.3933
G3 X30.4009 Y32.1256 I-0.8108 J-2.0778
G3 X29.8631 Y32.0771 I-0.0177 J-2.8078
G3 X29.352 Y31.903 I0.3473 J-1.8564
G3 X28.6665 Y31.3346 I0.8876 J-1.7682
G3 X28.2915 Y30.5905 I1.8008 J-1.3741
G3 X28.1802 Y29.817 I2.7605 J-0.7921
G1 Y24.6373
G1 Y29.817
G0 Z3.0
G0 X35.7733 Y28.96
G0 Z0.405
G1 F1000.0 Z-0.005
G1 F2000.0 X46.69
G0 Z3.0
G0 X45.3225 Y16.8082
G0 Z0.405
G1 F1000.0 Z-0.005
G1 F2000.0 Y13.5582
G3 X45.3644 Y13.2065 I1.3277 J-0.0203
G3 X45.5452 Y12.902 I0.5884 J0.1433
G3 X45.8328 Y12.7518 I0.4906 J0.5892
G3 X46.1546 Y12.7106 I0.3085 J1.1306
G1 X46.7014
G1 X46.1546
G2 X45.8328 Y12.7518 I-0.0133 J1.1718
G2 X45.5452 Y12.902 I0.2031 J0.7395
G2 X45.3644 Y13.2065 I0.4076 J0.4479
G2 X45.3225 Y13.5582 I1.2862 J0.3314
G1 Y16.8082
G0 Z3.0
G0 Y15.8629
G0 Z0.405
G1 F1000.0 Z-0.005
G1 F2000.0 X46.7014
G1 X45.3225
G0 Z3.0
G0 X43.7874 Y15.8473
G0 Z0.405
G1 F1000.0 Z-0.005
G1 F2000.0 Y13.9567
G2 X43.7014 Y13.4762 I-1.4305 J0.0079
G2 X43.4592 Y13.0465 I-1.2746 J0.4353
G2 X43.0569 Y12.734 I-0.9454 J0.802
G2 X42.4983 Y12.6129 I-0.5313 J1.1017
G2 X41.9358 Y12.734 I-0.0259 J1.2467
G2 X41.5335 Y13.0465 I0.5789 J1.1606
G2 X41.2913 Y13.4762 I0.9509 J0.8191
G2 X41.2132 Y13.9567 I1.4808 J0.4874
G1 Y15.8473
G1 Y13.9567
G3 X41.2913 Y13.4762 I1.5591 J0.0069
G3 X41.5335 Y13.0465 I1.1931 J0.3894
G3 X41.9358 Y12.734 I0.9813 J0.8482
G3 X42.4983 Y12.6129 I0.5366 J1.1257
G3 X43.0569 Y12.734 I0.0273 J1.2229
G3 X43.4592 Y13.0465 I-0.5431 J1.1145
G3 X43.7014 Y13.4762 I-1.0326 J0.8651
G3 X43.7874 Y13.9567 I-1.3448 J0.4885
G1 Y15.8473
G0 Z3.0
G0 X39.8377 Y14.7753
G0 Z0.405
G1 F1000.0 Z-0.005
G3 F2000.0 X39.7796 Y14.9528 I-1.7437 J-0.4732
G3 X39.4436 Y15.4801 I-1.4498 J-0.5529
G3 X38.928 Y15.8238 I-1.0546 J-1.0234
G3 X38.2757 Y15.9449 I-0.6364 J-1.6107
G3 X37.6233 Y15.8238 I-0.0159 J-1.732
G3 X37.1077 Y15.4801 I0.539 J-1.367
G3 X36.7717 Y14.9528 I1.1137 J-1.0802
G3 X36.6507 Y14.2809 I1.6857 J-0.6507
G3 X36.7717 Y13.6012 I1.8485 J-0.0213
G3 X37.1077 Y13.0738 I1.4941 J0.5811
G3 X37.6233 Y12.734 I1.0637 J1.0527
G3 X38.2757 Y12.6168 I0.6359 J1.6658
G3 X38.928 Y12.734 I0.0164 J1.7832
G3 X39.4436 Y13.0738 I-0.548 J1.3925
G3 X39.7796 Y13.6012 I-1.1581 J1.1084
G3 X39.9007 Y14.2809 I-1.7272 J0.6584
G3 X39.8377 Y14.7753 I-1.8067 J0.0212
G3 X39.7796 Y14.9528 I-1.7437 J-0.4732
G3 X39.4436 Y15.4801 I-1.4498 J-0.5529
G3 X38.928 Y15.8238 I-1.0546 J-1.0234
G3 X38.2757 Y15.9449 I-0.6364 J-1.6107
G3 X37.6233 Y15.8238 I-0.0159 J-1.732
G3 X37.1077 Y15.4801 I0.539 J-1.367
G3 X36.7717 Y14.9528 I1.1137 J-1.0802
G3 X36.6507 Y14.2809 I1.6857 J-0.6507
G3 X36.7717 Y13.6012 I1.8485 J-0.0213
G3 X37.1077 Y13.0738 I1.4941 J0.5811
G3 X37.6233 Y12.734 I1.0637 J1.0527
G3 X38.2757 Y12.6168 I0.6359 J1.6658
G3 X38.928 Y12.734 I0.0164 J1.7832
G3 X39.4436 Y13.0738 I-0.548 J1.3925
G3 X39.7796 Y13.6012 I-1.1581 J1.1084
G3 X39.9007 Y14.2809 I-1.7272 J0.6584
G3 X39.8377 Y14.7753 I-1.8067 J0.0212
G2 X39.9007 Y14.2809 I-1.7438 J-0.4733
G2 X39.7796 Y13.6012 I-1.8485 J-0.0213
G2 X39.4436 Y13.0738 I-1.4941 J0.5811
G2 X38.928 Y12.734 I-1.0637 J1.0527
G2 X38.2757 Y12.6168 I-0.6359 J1.6658
G2 X37.6233 Y12.734 I-0.0164 J1.7832
G2 X37.1077 Y13.0738 I0.548 J1.3925
G2 X36.7717 Y13.6012 I1.1581 J1.1084
G2 X36.6507 Y14.2809 I1.7272 J0.6584
G2 X36.7717 Y14.9528 I1.8067 J0.0212
G2 X37.1077 Y15.4801 I1.4498 J-0.5529
G2 X37.6233 Y15.8238 I1.0546 J-1.0234
G2 X38.2757 Y15.9449 I0.6364 J-1.6107
G2 X38.928 Y15.8238 I0.0159 J-1.732
G2 X39.4436 Y15.4801 I-0.539 J-1.367
G2 X39.7796 Y14.9528 I-1.1137 J-1.0802
G2 X39.8377 Y14.7753 I-1.6857 J-0.6507
G2 X39.9007 Y14.2809 I-1.7438 J-0.4733
G2 X39.7796 Y13.6012 I-1.8485 J-0.0213
G2 X39.4436 Y13.0738 I-1.4941 J0.5811
G2 X38.928 Y12.734 I-1.0637 J1.0527
G2 X38.2757 Y12.6168 I-0.6359 J1.6658
G2 X37.6233 Y12.734 I-0.0164 J1.7832
G2 X37.1077 Y13.0738 I0.548 J1.3925
G2 X36.7717 Y13.6012 I1.1581 J1.1084
G2 X36.6507 Y14.2809 I1.7272 J0.6584
G2 X36.7717 Y14.9528 I1.8067 J0.0212
G2 X37.1077 Y15.4801 I1.4498 J-0.5529
G2 X37.6233 Y15.8238 I1.0546 J-1.0234
G2 X38.2757 Y15.9449 I0.6364 J-1.6107
G2 X38.928 Y15.8238 I0.0159 J-1.732
G2 X39.4436 Y15.4801 I-0.539 J-1.367
G2 X39.7796 Y14.9528 I-1.1137 J-1.0802
G2 X39.8377 Y14.7753 I-1.6857 J-0.6507
G0 Z3.0
G0 X24.1269 Y10.9801
G0 Z0.405
G1 F1000.0 Z-0.005
G3 F2000.0 X24.9511 Y10.8707 I0.8726 J3.4156
G3 X25.7089 Y11.0035 I0.0455 J1.9688
G3 X26.2285 Y11.3629 I-0.4975 J1.2744
G3 X26.5253 Y11.8942 I-1.0472 J0.9338
G3 X26.623 Y12.5426 I-2.0158 J0.6352
G1 Y14.2926
G3 X26.5019 Y14.9293 I-1.9199 J-0.0353
G3 X26.1894 Y15.4528 I-1.4673 J-0.521
G3 X25.705 Y15.8121 I-1.0897 J-0.9625
G3 X25.0722 Y15.9449 I-0.6103 J-1.334
G3 X24.4316 Y15.8278 I-0.0145 J-1.7302
G3 X23.9199 Y15.4879 I0.5184 J-1.3357
G3 X23.58 Y14.9449 I1.1337 J-1.0874
G3 X23.455 Y14.2145 I1.8988 J-0.7009
G3 X23.5878 Y13.5465 I1.6222 J-0.0247
G3 X23.9394 Y13.0426 I1.4825 J0.6597
G3 X24.4589 Y12.7223 I1.0476 J1.1177
G3 X25.0957 Y12.6129 I0.6266 J1.7398
G3 X25.6386 Y12.7067 I0.0036 J1.5982
G2 X25.0957 Y12.6129 I-0.5393 J1.5043
G2 X24.4589 Y12.7223 I-0.0101 J1.849
G2 X23.9394 Y13.0426 I0.528 J1.4379
G2 X23.5878 Y13.5465 I1.1309 J1.1636
G2 X23.455 Y14.2145 I1.4892 J0.6433
G2 X23.58 Y14.9449 I2.024 J0.0296
G2 X23.9199 Y15.4879 I1.4737 J-0.5446
G2 X24.4316 Y15.8278 I1.0301 J-0.9959
G2 X25.0722 Y15.9449 I0.6261 J-1.6131
G2 X25.705 Y15.8121 I0.0225 J-1.4668
G2 X26.1894 Y15.4528 I-0.6052 J-1.3218
G2 X26.5019 Y14.9293 I-1.1547 J-1.0444
G2 X26.623 Y14.2926 I-1.799 J-0.672
G1 Y12.5426
G2 X26.5253 Y11.8942 I-2.1134 J-0.0133
G2 X26.2285 Y11.3629 I-1.3441 J0.4026
G2 X25.7089 Y11.0035 I-1.017 J0.915
G2 X24.9511 Y10.8707 I-0.7123 J1.8358
G2 X24.1269 Y10.9801 I0.0485 J3.5254
G0 Z3.0
G0 X22.1347 Y12.7106
G0 Z0.405
G1 F1000.0 Z-0.005
G1 F2000.0 Y14.5973
G3 X22.0488 Y15.0817 I-1.4409 J-0.0058
G3 X21.8066 Y15.5192 I-1.2642 J-0.4141
G3 X21.4042 Y15.8317 I-0.9454 J-0.802
G3 X20.8496 Y15.9528 I-0.5289 J-1.0919
G3 X20.2871 Y15.8317 I-0.0259 J-1.2467
G3 X19.8847 Y15.5192 I0.5789 J-1.1606
G3 X19.6386 Y15.0817 I0.9833 J-0.8411
G3 X19.5605 Y14.5973 I1.4925 J-0.4892
G1 Y12.7106
G1 Y14.5973
G2 X19.6386 Y15.0817 I1.5702 J-0.0048
G2 X19.8847 Y15.5192 I1.2293 J-0.4035
G2 X20.2871 Y15.8317 I0.9813 J-0.8482
G2 X20.8496 Y15.9528 I0.5366 J-1.1257
G2 X21.4042 Y15.8317 I0.0257 J-1.2131
G2 X21.8066 Y15.5192 I-0.5431 J-1.1145
G2 X22.0488 Y15.0817 I-1.0221 J-0.8516
G2 X22.1347 Y14.5973 I-1.355 J-0.4902
G1 Y12.7106
G0 Z3.0
G0 X18.1842 Y13.7776
G0 Z0.405
G1 F1000.0 Z-0.005
G3 F2000.0 X18.248 Y14.2809 I-1.7845 J0.482
G3 X18.1269 Y14.9528 I-1.8067 J0.0212
G3 X17.791 Y15.4801 I-1.4498 J-0.5529
G3 X17.2753 Y15.8238 I-1.0546 J-1.0234
G3 X16.623 Y15.9449 I-0.6364 J-1.6107
G3 X15.9707 Y15.8238 I-0.0159 J-1.732
G3 X15.455 Y15.4801 I0.539 J-1.367
G3 X15.1191 Y14.9528 I1.1137 J-1.0802
G3 X14.998 Y14.2809 I1.6857 J-0.6507
G3 X15.1191 Y13.6012 I1.8485 J-0.0213
G3 X15.455 Y13.0738 I1.4941 J0.5811
G3 X15.9707 Y12.734 I1.0637 J1.0527
G3 X16.623 Y12.6168 I0.6359 J1.6658
G3 X17.2753 Y12.734 I0.0164 J1.7832
G3 X17.791 Y13.0738 I-0.548 J1.3925
G3 X18.1269 Y13.6012 I-1.1581 J1.1084
G3 X18.1842 Y13.7776 I-1.7272 J0.6584
G3 X18.248 Y14.2809 I-1.7845 J0.482
G3 X18.1269 Y14.9528 I-1.8067 J0.0212
G3 X17.791 Y15.4801 I-1.4498 J-0.5529
G3 X17.2753 Y15.8238 I-1.0546 J-1.0234
G3 X16.623 Y15.9449 I-0.6364 J-1.6107
G3 X15.9707 Y15.8238 I-0.0159 J-1.732
G3 X15.455 Y15.4801 I0.539 J-1.367
G3 X15.1191 Y14.9528 I1.1137 J-1.0802
G3 X14.998 Y14.2809 I1.6857 J-0.6507
G3 X15.1191 Y13.6012 I1.8485 J-0.0213
G3 X15.455 Y13.0738 I1.4941 J0.5811
G3 X15.9707 Y12.734 I1.0637 J1.0527
G3 X16.623 Y12.6168 I0.6359 J1.6658
G3 X17.2753 Y12.734 I0.0164 J1.7832
G3 X17.791 Y13.0738 I-0.548 J1.3925
G3 X18.1269 Y13.6012 I-1.1581 J1.1084
G3 X18.1842 Y13.7776 I-1.7272 J0.6584
G2 X18.1269 Y13.6012 I-1.7847 J0.482
G2 X17.791 Y13.0738 I-1.4941 J0.5811
G2 X17.2753 Y12.734 I-1.0637 J1.0527
G2 X16.623 Y12.6168 I-0.6359 J1.6658
G2 X15.9707 Y12.734 I-0.0164 J1.7832
G2 X15.455 Y13.0738 I0.548 J1.3925
G2 X15.1191 Y13.6012 I1.1581 J1.1084
G2 X14.998 Y14.2809 I1.7272 J0.6584
G2 X15.1191 Y14.9528 I1.8067 J0.0212
G2 X15.455 Y15.4801 I1.4498 J-0.5529
G2 X15.9707 Y15.8238 I1.0546 J-1.0234
G2 X16.623 Y15.9449 I0.6364 J-1.6107
G2 X17.2753 Y15.8238 I0.0159 J-1.732
G2 X17.791 Y15.4801 I-0.539 J-1.367
G2 X18.1269 Y14.9528 I-1.1137 J-1.0802
G2 X18.248 Y14.2809 I-1.6857 J-0.6507
G2 X18.1842 Y13.7776 I-1.8485 J-0.0213
G2 X18.1269 Y13.6012 I-1.7847 J0.482
G2 X17.791 Y13.0738 I-1.4941 J0.5811
G2 X17.2753 Y12.734 I-1.0637 J1.0527
G2 X16.623 Y12.6168 I-0.6359 J1.6658
G2 X15.9707 Y12.734 I-0.0164 J1.7832
G2 X15.455 Y13.0738 I0.548 J1.3925
G2 X15.1191 Y13.6012 I1.1581 J1.1084
G2 X14.998 Y14.2809 I1.7272 J0.6584
G2 X15.1191 Y14.9528 I1.8067 J0.0212
G2 X15.455 Y15.4801 I1.4498 J-0.5529
G2 X15.9707 Y15.8238 I1.0546 J-1.0234
G2 X16.623 Y15.9449 I0.6364 J-1.6107
G2 X17.2753 Y15.8238 I0.0159 J-1.732
G2 X17.791 Y15.4801 I-0.539 J-1.367
G2 X18.1269 Y14.9528 I-1.1137 J-1.0802
G2 X18.248 Y14.2809 I-1.6857 J-0.6507
G2 X18.1842 Y13.7776 I-1.8485 J-0.0213
G0 Z3.0
G0 X13.5097 Y17.6051
G0 Z0.405
G1 F1000.0 Z-0.005
G1 F2000.0 Y12.7067
G1 Y17.6051
( mounting )
G0 Z3.0
( T3 : 3.175 )
T3 M6
M3 S1000
G0 X29.98 Y105.48
G0 Z3.0
G0 X29.9925 Y105.48
G0 Z0.01
G1 F1000.0 Z0.0
G2 F2000.0 X29.9738 Y105.4692 Z-0.0333 I-0.0125 J0.0
G2 Y105.4908 Z-0.0667 I0.0062 J0.0108
G2 X29.9925 Y105.48 Z-0.1 I0.0063 J-0.0108
G2 X29.9738 Y105.4692 Z-0.1333 I-0.0125 J0.0
G2 Y105.4908 Z-0.1667 I0.0062 J0.0108
G2 X29.9925 Y105.48 Z-0.2 I0.0063 J-0.0108
G2 X29.9738 Y105.4692 Z-0.2333 I-0.0125 J0.0
G2 Y105.4908 Z-0.2667 I0.0062 J0.0108
G2 X29.9925 Y105.48 Z-0.3 I0.0063 J-0.0108
G2 X29.9738 Y105.4692 Z-0.3333 I-0.0125 J0.0
G2 Y105.4908 Z-0.3667 I0.0062 J0.0108
G2 X29.9925 Y105.48 Z-0.4 I0.0063 J-0.0108
G2 X29.9738 Y105.4692 Z-0.4333 I-0.0125 J0.0
G2 Y105.4908 Z-0.4667 I0.0062 J0.0108
G2 X29.9925 Y105.48 Z-0.5 I0.0063 J-0.0108
G2 X29.9738 Y105.4692 Z-0.5333 I-0.0125 J0.0
G2 Y105.4908 Z-0.5667 I0.0062 J0.0108
G2 X29.9925 Y105.48 Z-0.6 I0.0063 J-0.0108
G2 X29.9738 Y105.4692 Z-0.6333 I-0.0125 J0.0
G2 Y105.4908 Z-0.6667 I0.0062 J0.0108
G2 X29.9925 Y105.48 Z-0.7 I0.0063 J-0.0108
G2 X29.9738 Y105.4692 Z-0.7333 I-0.0125 J0.0
G2 Y105.4908 Z-0.7667 I0.0062 J0.0108
G2 X29.9925 Y105.48 Z-0.8 I0.0063 J-0.0108
G2 X29.9738 Y105.4692 Z-0.8333 I-0.0125 J0.0
G2 Y105.4908 Z-0.8667 I0.0062 J0.0108
G2 X29.9925 Y105.48 Z-0.9 I0.0063 J-0.0108
G2 X29.9738 Y105.4692 Z-0.9333 I-0.0125 J0.0
G2 Y105.4908 Z-0.9667 I0.0062 J0.0108
G2 X29.9925 Y105.48 Z-1.0 I0.0063 J-0.0108
G2 X29.9738 Y105.4692 Z-1.0333 I-0.0125 J0.0
G2 Y105.4908 Z-1.0667 I0.0062 J0.0108
G2 X29.9925 Y105.48 Z-1.1 I0.0063 J-0.0108
G2 X29.9738 Y105.4692 Z-1.1333 I-0.0125 J0.0
G2 Y105.4908 Z-1.1667 I0.0062 J0.0108
G2 X29.9925 Y105.48 Z-1.2 I0.0063 J-0.0108
G2 X29.9738 Y105.4692 Z-1.2333 I-0.0125 J0.0
G2 Y105.4908 Z-1.2667 I0.0062 J0.0108
G2 X29.9925 Y105.48 Z-1.3 I0.0063 J-0.0108
G2 X29.9738 Y105.4692 Z-1.3333 I-0.0125 J0.0
G2 Y105.4908 Z-1.3667 I0.0062 J0.0108
G2 X29.9925 Y105.48 Z-1.4 I0.0063 J-0.0108
G2 X29.9738 Y105.4692 Z-1.4333 I-0.0125 J0.0
G2 Y105.4908 Z-1.4667 I0.0062 J0.0108
G2 X29.9925 Y105.48 Z-1.5 I0.0063 J-0.0108
G2 X29.9738 Y105.4692 Z-1.5333 I-0.0125 J0.0
G2 Y105.4908 Z-1.5667 I0.0062 J0.0108
G2 X29.9925 Y105.48 Z-1.6 I0.0063 J-0.0108
G2 X29.9738 Y105.4692 Z-1.6333 I-0.0125 J0.0
G2 Y105.4908 Z-1.6667 I0.0062 J0.0108
G2 X29.9925 Y105.48 Z-1.7 I0.0063 J-0.0108
G2 X29.9738 Y105.4692 Z-1.7333 I-0.0125 J0.0
G2 Y105.4908 Z-1.7667 I0.0062 J0.0108
G2 X29.9925 Y105.48 Z-1.8 I0.0063 J-0.0108
G2 X29.9738 Y105.4692 Z-1.8333 I-0.0125 J0.0
G2 Y105.4908 Z-1.8667 I0.0062 J0.0108
G2 X29.9925 Y105.48 Z-1.9 I0.0063 J-0.0108
G2 X29.9738 Y105.4692 Z-1.9333 I-0.0125 J0.0
G2 Y105.4908 Z-1.9667 I0.0062 J0.0108
G2 X29.9925 Y105.48 Z-2.0 I0.0063 J-0.0108
G2 X29.9738 Y105.4692 Z-2.0333 I-0.0125 J0.0
G2 Y105.4908 Z-2.0667 I0.0062 J0.0108
G2 X29.9925 Y105.48 Z-2.1 I0.0063 J-0.0108
G2 X29.9738 Y105.4692 Z-2.1333 I-0.0125 J0.0
G2 Y105.4908 Z-2.1667 I0.0062 J0.0108
G2 X29.9925 Y105.48 Z-2.2 I0.0063 J-0.0108
G2 X29.9738 Y105.4692 Z-2.2333 I-0.0125 J0.0
G2 Y105.4908 Z-2.2667 I0.0062 J0.0108
G2 X29.9925 Y105.48 Z-2.3 I0.0063 J-0.0108
G2 X29.9738 Y105.4692 Z-2.3333 I-0.0125 J0.0
G2 Y105.4908 Z-2.3667 I0.0062 J0.0108
G2 X29.9925 Y105.48 Z-2.4 I0.0063 J-0.0108
G2 X29.9738 Y105.4692 Z-2.4333 I-0.0125 J0.0
G2 Y105.4908 Z-2.4667 I0.0062 J0.0108
G2 X29.9925 Y105.48 Z-2.5 I0.0063 J-0.0108
G2 X29.9738 Y105.4692 Z-2.5333 I-0.0125 J0.0
G2 Y105.4908 Z-2.5667 I0.0062 J0.0108
G2 X29.9925 Y105.48 Z-2.6 I0.0063 J-0.0108
G2 X29.9738 Y105.4692 Z-2.6333 I-0.0125 J0.0
G2 Y105.4908 Z-2.6667 I0.0062 J0.0108
G2 X29.9925 Y105.48 Z-2.7 I0.0063 J-0.0108
G2 X29.9738 Y105.4692 Z-2.7333 I-0.0125 J0.0
G2 Y105.4908 Z-2.7667 I0.0062 J0.0108
G2 X29.9925 Y105.48 Z-2.8 I0.0063 J-0.0108
G2 X29.9738 Y105.4692 Z-2.8333 I-0.0125 J0.0
G2 Y105.4908 Z-2.8667 I0.0062 J0.0108
G2 X29.9925 Y105.48 Z-2.9 I0.0063 J-0.0108
G2 X29.9738 Y105.4692 Z-2.9333 I-0.0125 J0.0
G2 Y105.4908 Z-2.9667 I0.0062 J0.0108
G2 X29.9925 Y105.48 Z-3.0 I0.0063 J-0.0108
G2 X29.9738 Y105.4692 Z-3.0333 I-0.0125 J0.0
G2 Y105.4908 Z-3.0667 I0.0062 J0.0108
G2 X29.9925 Y105.48 Z-3.1 I0.0063 J-0.0108
G2 X29.9738 Y105.4692 Z-3.1333 I-0.0125 J0.0
G2 Y105.4908 Z-3.1667 I0.0062 J0.0108
G2 X29.9925 Y105.48 Z-3.2 I0.0063 J-0.0108
G2 X29.9738 Y105.4692 I-0.0125 J0.0
G2 Y105.4908 I0.0063 J0.0108
G2 X29.9925 Y105.48 I0.0062 J-0.0108
G0 Z3.0
G0 X13.9525 Y97.27
G0 Z0.01
G1 F1000.0 Z0.0
G2 F2000.0 X13.9338 Y97.2592 Z-0.0333 I-0.0125 J0.0
G2 Y97.2808 Z-0.0667 I0.0062 J0.0108
G2 X13.9525 Y97.27 Z-0.1 I0.0063 J-0.0108
G2 X13.9338 Y97.2592 Z-0.1333 I-0.0125 J0.0
G2 Y97.2808 Z-0.1667 I0.0062 J0.0108
G2 X13.9525 Y97.27 Z-0.2 I0.0063 J-0.0108
G2 X13.9338 Y97.2592 Z-0.2333 I-0.0125 J0.0
G2 Y97.2808 Z-0.2667 I0.0062 J0.0108
G2 X13.9525 Y97.27 Z-0.3 I0.0063 J-0.0108
G2 X13.9338 Y97.2592 Z-0.3333 I-0.0125 J0.0
G2 Y97.2808 Z-0.3667 I0.0062 J0.0108
G2 X13.9525 Y97.27 Z-0.4 I0.0063 J-0.0108
G2 X13.9338 Y97.2592 Z-0.4333 I-0.0125 J0.0
G2 Y97.2808 Z-0.4667 I0.0062 J0.0108
G2 X13.9525 Y97.27 Z-0.5 I0.0063 J-0.0108
G2 X13.9338 Y97.2592 Z-0.5333 I-0.0125 J0.0
G2 Y97.2808 Z-0.5667 I0.0062 J0.0108
G2 X13.9525 Y97.27 Z-0.6 I0.0063 J-0.0108
G2 X13.9338 Y97.2592 Z-0.6333 I-0.0125 J0.0
G2 Y97.2808 Z-0.6667 I0.0062 J0.0108
G2 X13.9525 Y97.27 Z-0.7 I0.0063 J-0.0108
G2 X13.9338 Y97.2592 Z-0.7333 I-0.0125 J0.0
G2 Y97.2808 Z-0.7667 I0.0062 J0.0108
G2 X13.9525 Y97.27 Z-0.8 I0.0063 J-0.0108
G2 X13.9338 Y97.2592 Z-0.8333 I-0.0125 J0.0
G2 Y97.2808 Z-0.8667 I0.0062 J0.0108
G2 X13.9525 Y97.27 Z-0.9 I0.0063 J-0.0108
G2 X13.9338 Y97.2592 Z-0.9333 I-0.0125 J0.0
G2 Y97.2808 Z-0.9667 I0.0062 J0.0108
G2 X13.9525 Y97.27 Z-1.0 I0.0063 J-0.0108
G2 X13.9338 Y97.2592 Z-1.0333 I-0.0125 J0.0
G2 Y97.2808 Z-1.0667 I0.0062 J0.0108
G2 X13.9525 Y97.27 Z-1.1 I0.0063 J-0.0108
G2 X13.9338 Y97.2592 Z-1.1333 I-0.0125 J0.0
G2 Y97.2808 Z-1.1667 I0.0062 J0.0108
G2 X13.9525 Y97.27 Z-1.2 I0.0063 J-0.0108
G2 X13.9338 Y97.2592 Z-1.2333 I-0.0125 J0.0
G2 Y97.2808 Z-1.2667 I0.0062 J0.0108
G2 X13.9525 Y97.27 Z-1.3 I0.0063 J-0.0108
G2 X13.9338 Y97.2592 Z-1.3333 I-0.0125 J0.0
G2 Y97.2808 Z-1.3667 I0.0062 J0.0108
G2 X13.9525 Y97.27 Z-1.4 I0.0063 J-0.0108
G2 X13.9338 Y97.2592 Z-1.4333 I-0.0125 J0.0
G2 Y97.2808 Z-1.4667 I0.0062 J0.0108
G2 X13.9525 Y97.27 Z-1.5 I0.0063 J-0.0108
G2 X13.9338 Y97.2592 Z-1.5333 I-0.0125 J0.0
G2 Y97.2808 Z-1.5667 I0.0062 J0.0108
G2 X13.9525 Y97.27 Z-1.6 I0.0063 J-0.0108
G2 X13.9338 Y97.2592 Z-1.6333 I-0.0125 J0.0
G2 Y97.2808 Z-1.6667 I0.0062 J0.0108
G2 X13.9525 Y97.27 Z-1.7 I0.0063 J-0.0108
G2 X13.9338 Y97.2592 Z-1.7333 I-0.0125 J0.0
G2 Y97.2808 Z-1.7667 I0.0062 J0.0108
G2 X13.9525 Y97.27 Z-1.8 I0.0063 J-0.0108
G2 X13.9338 Y97.2592 Z-1.8333 I-0.0125 J0.0
G2 Y97.2808 Z-1.8667 I0.0062 J0.0108
G2 X13.9525 Y97.27 Z-1.9 I0.0063 J-0.0108
G2 X13.9338 Y97.2592 Z-1.9333 I-0.0125 J0.0
G2 Y97.2808 Z-1.9667 I0.0062 J0.0108
G2 X13.9525 Y97.27 Z-2.0 I0.0063 J-0.0108
G2 X13.9338 Y97.2592 Z-2.0333 I-0.0125 J0.0
G2 Y97.2808 Z-2.0667 I0.0062 J0.0108
G2 X13.9525 Y97.27 Z-2.1 I0.0063 J-0.0108
G2 X13.9338 Y97.2592 Z-2.1333 I-0.0125 J0.0
G2 Y97.2808 Z-2.1667 I0.0062 J0.0108
G2 X13.9525 Y97.27 Z-2.2 I0.0063 J-0.0108
G2 X13.9338 Y97.2592 Z-2.2333 I-0.0125 J0.0
G2 Y97.2808 Z-2.2667 I0.0062 J0.0108
G2 X13.9525 Y97.27 Z-2.3 I0.0063 J-0.0108
G2 X13.9338 Y97.2592 Z-2.3333 I-0.0125 J0.0
G2 Y97.2808 Z-2.3667 I0.0062 J0.0108
G2 X13.9525 Y97.27 Z-2.4 I0.0063 J-0.0108
G2 X13.9338 Y97.2592 Z-2.4333 I-0.0125 J0.0
G2 Y97.2808 Z-2.4667 I0.0062 J0.0108
G2 X13.9525 Y97.27 Z-2.5 I0.0063 J-0.0108
G2 X13.9338 Y97.2592 Z-2.5333 I-0.0125 J0.0
G2 Y97.2808 Z-2.5667 I0.0062 J0.0108
G2 X13.9525 Y97.27 Z-2.6 I0.0063 J-0.0108
G2 X13.9338 Y97.2592 Z-2.6333 I-0.0125 J0.0
G2 Y97.2808 Z-2.6667 I0.0062 J0.0108
G2 X13.9525 Y97.27 Z-2.7 I0.0063 J-0.0108
G2 X13.9338 Y97.2592 Z-2.7333 I-0.0125 J0.0
G2 Y97.2808 Z-2.7667 I0.0062 J0.0108
G2 X13.9525 Y97.27 Z-2.8 I0.0063 J-0.0108
G2 X13.9338 Y97.2592 Z-2.8333 I-0.0125 J0.0
G2 Y97.2808 Z-2.8667 I0.0062 J0.0108
G2 X13.9525 Y97.27 Z-2.9 I0.0063 J-0.0108
G2 X13.9338 Y97.2592 Z-2.9333 I-0.0125 J0.0
G2 Y97.2808 Z-2.9667 I0.0062 J0.0108
G2 X13.9525 Y97.27 Z-3.0 I0.0063 J-0.0108
G2 X13.9338 Y97.2592 Z-3.0333 I-0.0125 J0.0
G2 Y97.2808 Z-3.0667 I0.0062 J0.0108
G2 X13.9525 Y97.27 Z-3.1 I0.0063 J-0.0108
G2 X13.9338 Y97.2592 Z-3.1333 I-0.0125 J0.0
G2 Y97.2808 Z-3.1667 I0.0063 J0.0108
G2 X13.9525 Y97.27 Z-3.2 I0.0062 J-0.0108
G2 X13.9338 Y97.2592 I-0.0125 J0.0
G2 Y97.2808 I0.0063 J0.0108
G2 X13.9525 Y97.27 I0.0062 J-0.0108
G0 Z3.0
G0 X7.5225 Y112.56
G0 Z0.01
G1 F1000.0 Z0.0
G2 F2000.0 X7.5038 Y112.5492 Z-0.0333 I-0.0125 J0.0
G2 Y112.5708 Z-0.0667 I0.0062 J0.0108
G2 X7.5225 Y112.56 Z-0.1 I0.0063 J-0.0108
G2 X7.5038 Y112.5492 Z-0.1333 I-0.0125 J0.0
G2 Y112.5708 Z-0.1667 I0.0062 J0.0108
G2 X7.5225 Y112.56 Z-0.2 I0.0063 J-0.0108
G2 X7.5038 Y112.5492 Z-0.2333 I-0.0125 J0.0
G2 Y112.5708 Z-0.2667 I0.0062 J0.0108
G2 X7.5225 Y112.56 Z-0.3 I0.0063 J-0.0108
G2 X7.5038 Y112.5492 Z-0.3333 I-0.0125 J0.0
G2 Y112.5708 Z-0.3667 I0.0062 J0.0108
G2 X7.5225 Y112.56 Z-0.4 I0.0063 J-0.0108
G2 X7.5038 Y112.5492 Z-0.4333 I-0.0125 J0.0
G2 Y112.5708 Z-0.4667 I0.0062 J0.0108
G2 X7.5225 Y112.56 Z-0.5 I0.0063 J-0.0108
G2 X7.5038 Y112.5492 Z-0.5333 I-0.0125 J0.0
G2 Y112.5708 Z-0.5667 I0.0062 J0.0108
G2 X7.5225 Y112.56 Z-0.6 I0.0063 J-0.0108
G2 X7.5038 Y112.5492 Z-0.6333 I-0.0125 J0.0
G2 Y112.5708 Z-0.6667 I0.0062 J0.0108
G2 X7.5225 Y112.56 Z-0.7 I0.0063 J-0.0108
G2 X7.5038 Y112.5492 Z-0.7333 I-0.0125 J0.0
G2 Y112.5708 Z-0.7667 I0.0062 J0.0108
G2 X7.5225 Y112.56 Z-0.8 I0.0063 J-0.0108
G2 X7.5038 Y112.5492 Z-0.8333 I-0.0125 J0.0
G2 Y112.5708 Z-0.8667 I0.0062 J0.0108
G2 X7.5225 Y112.56 Z-0.9 I0.0063 J-0.0108
G2 X7.5038 Y112.5492 Z-0.9333 I-0.0125 J0.0
G2 Y112.5708 Z-0.9667 I0.0062 J0.0108
G2 X7.5225 Y112.56 Z-1.0 I0.0063 J-0.0108
G2 X7.5038 Y112.5492 Z-1.0333 I-0.0125 J0.0
G2 Y112.5708 Z-1.0667 I0.0062 J0.0108
G2 X7.5225 Y112.56 Z-1.1 I0.0063 J-0.0108
G2 X7.5038 Y112.5492 Z-1.1333 I-0.0125 J0.0
G2 Y112.5708 Z-1.1667 I0.0062 J0.0108
G2 X7.5225 Y112.56 Z-1.2 I0.0063 J-0.0108
G2 X7.5038 Y112.5492 Z-1.2333 I-0.0125 J0.0
G2 Y112.5708 Z-1.2667 I0.0062 J0.0108
G2 X7.5225 Y112.56 Z-1.3 I0.0063 J-0.0108
G2 X7.5038 Y112.5492 Z-1.3333 I-0.0125 J0.0
G2 Y112.5708 Z-1.3667 I0.0062 J0.0108
G2 X7.5225 Y112.56 Z-1.4 I0.0063 J-0.0108
G2 X7.5038 Y112.5492 Z-1.4333 I-0.0125 J0.0
G2 Y112.5708 Z-1.4667 I0.0062 J0.0108
G2 X7.5225 Y112.56 Z-1.5 I0.0063 J-0.0108
G2 X7.5038 Y112.5492 Z-1.5333 I-0.0125 J0.0
G2 Y112.5708 Z-1.5667 I0.0062 J0.0108
G2 X7.5225 Y112.56 Z-1.6 I0.0063 J-0.0108
G2 X7.5038 Y112.5492 Z-1.6333 I-0.0125 J0.0
G2 Y112.5708 Z-1.6667 I0.0062 J0.0108
G2 X7.5225 Y112.56 Z-1.7 I0.0063 J-0.0108
G2 X7.5038 Y112.5492 Z-1.7333 I-0.0125 J0.0
G2 Y112.5708 Z-1.7667 I0.0062 J0.0108
G2 X7.5225 Y112.56 Z-1.8 I0.0063 J-0.0108
G2 X7.5038 Y112.5492 Z-1.8333 I-0.0125 J0.0
G2 Y112.5708 Z-1.8667 I0.0062 J0.0108
G2 X7.5225 Y112.56 Z-1.9 I0.0063 J-0.0108
G2 X7.5038 Y112.5492 Z-1.9333 I-0.0125 J0.0
G2 Y112.5708 Z-1.9667 I0.0062 J0.0108
G2 X7.5225 Y112.56 Z-2.0 I0.0063 J-0.0108
G2 X7.5038 Y112.5492 Z-2.0333 I-0.0125 J0.0
G2 Y112.5708 Z-2.0667 I0.0062 J0.0108
G2 X7.5225 Y112.56 Z-2.1 I0.0063 J-0.0108
G2 X7.5038 Y112.5492 Z-2.1333 I-0.0125 J0.0
G2 Y112.5708 Z-2.1667 I0.0062 J0.0108
G2 X7.5225 Y112.56 Z-2.2 I0.0063 J-0.0108
G2 X7.5038 Y112.5492 Z-2.2333 I-0.0125 J0.0
G2 Y112.5708 Z-2.2667 I0.0062 J0.0108
G2 X7.5225 Y112.56 Z-2.3 I0.0063 J-0.0108
G2 X7.5038 Y112.5492 Z-2.3333 I-0.0125 J0.0
G2 Y112.5708 Z-2.3667 I0.0062 J0.0108
G2 X7.5225 Y112.56 Z-2.4 I0.0063 J-0.0108
G2 X7.5038 Y112.5492 Z-2.4333 I-0.0125 J0.0
G2 Y112.5708 Z-2.4667 I0.0062 J0.0108
G2 X7.5225 Y112.56 Z-2.5 I0.0063 J-0.0108
G2 X7.5038 Y112.5492 Z-2.5333 I-0.0125 J0.0
G2 Y112.5708 Z-2.5667 I0.0062 J0.0108
G2 X7.5225 Y112.56 Z-2.6 I0.0063 J-0.0108
G2 X7.5038 Y112.5492 Z-2.6333 I-0.0125 J0.0
G2 Y112.5708 Z-2.6667 I0.0062 J0.0108
G2 X7.5225 Y112.56 Z-2.7 I0.0063 J-0.0108
G2 X7.5038 Y112.5492 Z-2.7333 I-0.0125 J0.0
G2 Y112.5708 Z-2.7667 I0.0062 J0.0108
G2 X7.5225 Y112.56 Z-2.8 I0.0063 J-0.0108
G2 X7.5038 Y112.5492 Z-2.8333 I-0.0125 J0.0
G2 Y112.5708 Z-2.8667 I0.0062 J0.0108
G2 X7.5225 Y112.56 Z-2.9 I0.0063 J-0.0108
G2 X7.5038 Y112.5492 Z-2.9333 I-0.0125 J0.0
G2 Y112.5708 Z-2.9667 I0.0062 J0.0108
G2 X7.5225 Y112.56 Z-3.0 I0.0063 J-0.0108
G2 X7.5038 Y112.5492 Z-3.0333 I-0.0125 J0.0
G2 Y112.5708 Z-3.0667 I0.0062 J0.0108
G2 X7.5225 Y112.56 Z-3.1 I0.0062 J-0.0108
G2 X7.5038 Y112.5492 Z-3.1333 I-0.0125 J0.0
G2 Y112.5708 Z-3.1667 I0.0063 J0.0108
G2 X7.5225 Y112.56 Z-3.2 I0.0062 J-0.0108
G2 X7.5037 Y112.5492 I-0.0125 J0.0
G2 X7.5038 Y112.5708 I0.0063 J0.0108
G2 X7.5225 Y112.56 I0.0062 J-0.0108
G0 Z3.0
G0 X7.5125 Y125.5
G0 Z0.01
G1 F1000.0 Z0.0
G2 F2000.0 X7.4938 Y125.4892 Z-0.0333 I-0.0125 J0.0
G2 Y125.5108 Z-0.0667 I0.0062 J0.0108
G2 X7.5125 Y125.5 Z-0.1 I0.0063 J-0.0108
G2 X7.4938 Y125.4892 Z-0.1333 I-0.0125 J0.0
G2 Y125.5108 Z-0.1667 I0.0062 J0.0108
G2 X7.5125 Y125.5 Z-0.2 I0.0063 J-0.0108
G2 X7.4938 Y125.4892 Z-0.2333 I-0.0125 J0.0
G2 Y125.5108 Z-0.2667 I0.0062 J0.0108
G2 X7.5125 Y125.5 Z-0.3 I0.0063 J-0.0108
G2 X7.4938 Y125.4892 Z-0.3333 I-0.0125 J0.0
G2 Y125.5108 Z-0.3667 I0.0062 J0.0108
G2 X7.5125 Y125.5 Z-0.4 I0.0063 J-0.0108
G2 X7.4938 Y125.4892 Z-0.4333 I-0.0125 J0.0
G2 Y125.5108 Z-0.4667 I0.0062 J0.0108
G2 X7.5125 Y125.5 Z-0.5 I0.0063 J-0.0108
G2 X7.4938 Y125.4892 Z-0.5333 I-0.0125 J0.0
G2 Y125.5108 Z-0.5667 I0.0062 J0.0108
G2 X7.5125 Y125.5 Z-0.6 I0.0063 J-0.0108
G2 X7.4938 Y125.4892 Z-0.6333 I-0.0125 J0.0
G2 Y125.5108 Z-0.6667 I0.0062 J0.0108
G2 X7.5125 Y125.5 Z-0.7 I0.0063 J-0.0108
G2 X7.4938 Y125.4892 Z-0.7333 I-0.0125 J0.0
G2 Y125.5108 Z-0.7667 I0.0062 J0.0108
G2 X7.5125 Y125.5 Z-0.8 I0.0063 J-0.0108
G2 X7.4938 Y125.4892 Z-0.8333 I-0.0125 J0.0
G2 Y125.5108 Z-0.8667 I0.0062 J0.0108
G2 X7.5125 Y125.5 Z-0.9 I0.0063 J-0.0108
G2 X7.4938 Y125.4892 Z-0.9333 I-0.0125 J0.0
G2 Y125.5108 Z-0.9667 I0.0062 J0.0108
G2 X7.5125 Y125.5 Z-1.0 I0.0063 J-0.0108
G2 X7.4938 Y125.4892 Z-1.0333 I-0.0125 J0.0
G2 Y125.5108 Z-1.0667 I0.0062 J0.0108
G2 X7.5125 Y125.5 Z-1.1 I0.0063 J-0.0108
G2 X7.4938 Y125.4892 Z-1.1333 I-0.0125 J0.0
G2 Y125.5108 Z-1.1667 I0.0062 J0.0108
G2 X7.5125 Y125.5 Z-1.2 I0.0063 J-0.0108
G2 X7.4938 Y125.4892 Z-1.2333 I-0.0125 J0.0
G2 Y125.5108 Z-1.2667 I0.0062 J0.0108
G2 X7.5125 Y125.5 Z-1.3 I0.0063 J-0.0108
G2 X7.4938 Y125.4892 Z-1.3333 I-0.0125 J0.0
G2 Y125.5108 Z-1.3667 I0.0062 J0.0108
G2 X7.5125 Y125.5 Z-1.4 I0.0063 J-0.0108
G2 X7.4938 Y125.4892 Z-1.4333 I-0.0125 J0.0
G2 Y125.5108 Z-1.4667 I0.0062 J0.0108
G2 X7.5125 Y125.5 Z-1.5 I0.0063 J-0.0108
G2 X7.4938 Y125.4892 Z-1.5333 I-0.0125 J0.0
G2 Y125.5108 Z-1.5667 I0.0062 J0.0108
G2 X7.5125 Y125.5 Z-1.6 I0.0063 J-0.0108
G2 X7.4938 Y125.4892 Z-1.6333 I-0.0125 J0.0
G2 Y125.5108 Z-1.6667 I0.0062 J0.0108
G2 X7.5125 Y125.5 Z-1.7 I0.0063 J-0.0108
G2 X7.4938 Y125.4892 Z-1.7333 I-0.0125 J0.0
G2 Y125.5108 Z-1.7667 I0.0062 J0.0108
G2 X7.5125 Y125.5 Z-1.8 I0.0063 J-0.0108
G2 X7.4938 Y125.4892 Z-1.8333 I-0.0125 J0.0
G2 Y125.5108 Z-1.8667 I0.0062 J0.0108
G2 X7.5125 Y125.5 Z-1.9 I0.0063 J-0.0108
G2 X7.4938 Y125.4892 Z-1.9333 I-0.0125 J0.0
G2 Y125.5108 Z-1.9667 I0.0062 J0.0108
G2 X7.5125 Y125.5 Z-2.0 I0.0063 J-0.0108
G2 X7.4938 Y125.4892 Z-2.0333 I-0.0125 J0.0
G2 Y125.5108 Z-2.0667 I0.0062 J0.0108
G2 X7.5125 Y125.5 Z-2.1 I0.0063 J-0.0108
G2 X7.4938 Y125.4892 Z-2.1333 I-0.0125 J0.0
G2 Y125.5108 Z-2.1667 I0.0062 J0.0108
G2 X7.5125 Y125.5 Z-2.2 I0.0063 J-0.0108
G2 X7.4938 Y125.4892 Z-2.2333 I-0.0125 J0.0
G2 Y125.5108 Z-2.2667 I0.0062 J0.0108
G2 X7.5125 Y125.5 Z-2.3 I0.0063 J-0.0108
G2 X7.4938 Y125.4892 Z-2.3333 I-0.0125 J0.0
G2 Y125.5108 Z-2.3667 I0.0062 J0.0108
G2 X7.5125 Y125.5 Z-2.4 I0.0063 J-0.0108
G2 X7.4938 Y125.4892 Z-2.4333 I-0.0125 J0.0
G2 Y125.5108 Z-2.4667 I0.0062 J0.0108
G2 X7.5125 Y125.5 Z-2.5 I0.0063 J-0.0108
G2 X7.4938 Y125.4892 Z-2.5333 I-0.0125 J0.0
G2 Y125.5108 Z-2.5667 I0.0062 J0.0108
G2 X7.5125 Y125.5 Z-2.6 I0.0063 J-0.0108
G2 X7.4938 Y125.4892 Z-2.6333 I-0.0125 J0.0
G2 Y125.5108 Z-2.6667 I0.0062 J0.0108
G2 X7.5125 Y125.5 Z-2.7 I0.0063 J-0.0108
G2 X7.4938 Y125.4892 Z-2.7333 I-0.0125 J0.0
G2 Y125.5108 Z-2.7667 I0.0062 J0.0108
G2 X7.5125 Y125.5 Z-2.8 I0.0063 J-0.0108
G2 X7.4938 Y125.4892 Z-2.8333 I-0.0125 J0.0
G2 Y125.5108 Z-2.8667 I0.0062 J0.0108
G2 X7.5125 Y125.5 Z-2.9 I0.0063 J-0.0108
G2 X7.4938 Y125.4892 Z-2.9333 I-0.0125 J0.0
G2 Y125.5108 Z-2.9667 I0.0062 J0.0108
G2 X7.5125 Y125.5 Z-3.0 I0.0063 J-0.0108
G2 X7.4938 Y125.4892 Z-3.0333 I-0.0125 J0.0
G2 Y125.5108 Z-3.0667 I0.0062 J0.0108
G2 X7.5125 Y125.5 Z-3.1 I0.0062 J-0.0108
G2 X7.4938 Y125.4892 Z-3.1333 I-0.0125 J0.0
G2 Y125.5108 Z-3.1667 I0.0063 J0.0108
G2 X7.5125 Y125.5 Z-3.2 I0.0062 J-0.0108
G2 X7.4938 Y125.4892 I-0.0125 J0.0
G2 Y125.5108 I0.0063 J0.0108
G2 X7.5125 Y125.5 I0.0062 J-0.0108
G0 Z3.0
G0 X53.2325
G0 Z0.01
G1 F1000.0 Z0.0
G2 F2000.0 X53.2137 Y125.4892 Z-0.0333 I-0.0125 J0.0
G2 Y125.5108 Z-0.0667 I0.0062 J0.0108
G2 X53.2325 Y125.5 Z-0.1 I0.0063 J-0.0108
G2 X53.2137 Y125.4892 Z-0.1333 I-0.0125 J0.0
G2 Y125.5108 Z-0.1667 I0.0062 J0.0108
G2 X53.2325 Y125.5 Z-0.2 I0.0063 J-0.0108
G2 X53.2137 Y125.4892 Z-0.2333 I-0.0125 J0.0
G2 Y125.5108 Z-0.2667 I0.0062 J0.0108
G2 X53.2325 Y125.5 Z-0.3 I0.0063 J-0.0108
G2 X53.2137 Y125.4892 Z-0.3333 I-0.0125 J0.0
G2 Y125.5108 Z-0.3667 I0.0062 J0.0108
G2 X53.2325 Y125.5 Z-0.4 I0.0063 J-0.0108
G2 X53.2137 Y125.4892 Z-0.4333 I-0.0125 J0.0
G2 Y125.5108 Z-0.4667 I0.0062 J0.0108
G2 X53.2325 Y125.5 Z-0.5 I0.0063 J-0.0108
G2 X53.2137 Y125.4892 Z-0.5333 I-0.0125 J0.0
G2 Y125.5108 Z-0.5667 I0.0062 J0.0108
G2 X53.2325 Y125.5 Z-0.6 I0.0063 J-0.0108
G2 X53.2137 Y125.4892 Z-0.6333 I-0.0125 J0.0
G2 Y125.5108 Z-0.6667 I0.0062 J0.0108
G2 X53.2325 Y125.5 Z-0.7 I0.0063 J-0.0108
G2 X53.2137 Y125.4892 Z-0.7333 I-0.0125 J0.0
G2 Y125.5108 Z-0.7667 I0.0062 J0.0108
G2 X53.2325 Y125.5 Z-0.8 I0.0063 J-0.0108
G2 X53.2137 Y125.4892 Z-0.8333 I-0.0125 J0.0
G2 Y125.5108 Z-0.8667 I0.0062 J0.0108
G2 X53.2325 Y125.5 Z-0.9 I0.0063 J-0.0108
G2 X53.2137 Y125.4892 Z-0.9333 I-0.0125 J0.0
G2 Y125.5108 Z-0.9667 I0.0062 J0.0108
G2 X53.2325 Y125.5 Z-1.0 I0.0063 J-0.0108
G2 X53.2137 Y125.4892 Z-1.0333 I-0.0125 J0.0
G2 Y125.5108 Z-1.0667 I0.0062 J0.0108
G2 X53.2325 Y125.5 Z-1.1 I0.0063 J-0.0108
G2 X53.2137 Y125.4892 Z-1.1333 I-0.0125 J0.0
G2 Y125.5108 Z-1.1667 I0.0062 J0.0108
G2 X53.2325 Y125.5 Z-1.2 I0.0063 J-0.0108
G2 X53.2137 Y125.4892 Z-1.2333 I-0.0125 J0.0
G2 Y125.5108 Z-1.2667 I0.0062 J0.0108
G2 X53.2325 Y125.5 Z-1.3 I0.0063 J-0.0108
G2 X53.2137 Y125.4892 Z-1.3333 I-0.0125 J0.0
G2 Y125.5108 Z-1.3667 I0.0062 J0.0108
G2 X53.2325 Y125.5 Z-1.4 I0.0063 J-0.0108
G2 X53.2137 Y125.4892 Z-1.4333 I-0.0125 J0.0
G2 Y125.5108 Z-1.4667 I0.0062 J0.0108
G2 X53.2325 Y125.5 Z-1.5 I0.0063 J-0.0108
G2 X53.2137 Y125.4892 Z-1.5333 I-0.0125 J0.0
G2 Y125.5108 Z-1.5667 I0.0062 J0.0108
G2 X53.2325 Y125.5 Z-1.6 I0.0063 J-0.0108
G2 X53.2137 Y125.4892 Z-1.6333 I-0.0125 J0.0
G2 Y125.5108 Z-1.6667 I0.0062 J0.0108
G2 X53.2325 Y125.5 Z-1.7 I0.0063 J-0.0108
G2 X53.2137 Y125.4892 Z-1.7333 I-0.0125 J0.0
G2 Y125.5108 Z-1.7667 I0.0062 J0.0108
G2 X53.2325 Y125.5 Z-1.8 I0.0063 J-0.0108
G2 X53.2137 Y125.4892 Z-1.8333 I-0.0125 J0.0
G2 Y125.5108 Z-1.8667 I0.0062 J0.0108
G2 X53.2325 Y125.5 Z-1.9 I0.0063 J-0.0108
G2 X53.2137 Y125.4892 Z-1.9333 I-0.0125 J0.0
G2 Y125.5108 Z-1.9667 I0.0062 J0.0108
G2 X53.2325 Y125.5 Z-2.0 I0.0063 J-0.0108
G2 X53.2137 Y125.4892 Z-2.0333 I-0.0125 J0.0
G2 Y125.5108 Z-2.0667 I0.0062 J0.0108
G2 X53.2325 Y125.5 Z-2.1 I0.0063 J-0.0108
G2 X53.2137 Y125.4892 Z-2.1333 I-0.0125 J0.0
G2 Y125.5108 Z-2.1667 I0.0062 J0.0108
G2 X53.2325 Y125.5 Z-2.2 I0.0063 J-0.0108
G2 X53.2137 Y125.4892 Z-2.2333 I-0.0125 J0.0
G2 Y125.5108 Z-2.2667 I0.0062 J0.0108
G2 X53.2325 Y125.5 Z-2.3 I0.0063 J-0.0108
G2 X53.2137 Y125.4892 Z-2.3333 I-0.0125 J0.0
G2 Y125.5108 Z-2.3667 I0.0062 J0.0108
G2 X53.2325 Y125.5 Z-2.4 I0.0063 J-0.0108
G2 X53.2137 Y125.4892 Z-2.4333 I-0.0125 J0.0
G2 Y125.5108 Z-2.4667 I0.0062 J0.0108
G2 X53.2325 Y125.5 Z-2.5 I0.0063 J-0.0108
G2 X53.2137 Y125.4892 Z-2.5333 I-0.0125 J0.0
G2 Y125.5108 Z-2.5667 I0.0062 J0.0108
G2 X53.2325 Y125.5 Z-2.6 I0.0063 J-0.0108
G2 X53.2137 Y125.4892 Z-2.6333 I-0.0125 J0.0
G2 Y125.5108 Z-2.6667 I0.0062 J0.0108
G2 X53.2325 Y125.5 Z-2.7 I0.0063 J-0.0108
G2 X53.2137 Y125.4892 Z-2.7333 I-0.0125 J0.0
G2 Y125.5108 Z-2.7667 I0.0062 J0.0108
G2 X53.2325 Y125.5 Z-2.8 I0.0063 J-0.0108
G2 X53.2137 Y125.4892 Z-2.8333 I-0.0125 J0.0
G2 Y125.5108 Z-2.8667 I0.0062 J0.0108
G2 X53.2325 Y125.5 Z-2.9 I0.0063 J-0.0108
G2 X53.2137 Y125.4892 Z-2.9333 I-0.0125 J0.0
G2 Y125.5108 Z-2.9667 I0.0063 J0.0108
G2 X53.2325 Y125.5 Z-3.0 I0.0063 J-0.0108
G2 X53.2137 Y125.4892 Z-3.0333 I-0.0125 J0.0
G2 Y125.5108 Z-3.0667 I0.0063 J0.0108
G2 X53.2325 Y125.5 Z-3.1 I0.0063 J-0.0108
G2 X53.2137 Y125.4892 Z-3.1333 I-0.0125 J0.0
G2 Y125.5108 Z-3.1667 I0.0063 J0.0108
G2 X53.2325 Y125.5 Z-3.2 I0.0063 J-0.0108
G2 X53.2137 Y125.4892 I-0.0125 J0.0
G2 Y125.5108 I0.0063 J0.0108
G2 X53.2325 Y125.5 I0.0062 J-0.0108
G0 Z3.0
G0 X52.7625 Y112.64
G0 Z0.01
G1 F1000.0 Z0.0
G2 F2000.0 X52.7438 Y112.6292 Z-0.0333 I-0.0125 J0.0
G2 Y112.6508 Z-0.0667 I0.0062 J0.0108
G2 X52.7625 Y112.64 Z-0.1 I0.0063 J-0.0108
G2 X52.7438 Y112.6292 Z-0.1333 I-0.0125 J0.0
G2 Y112.6508 Z-0.1667 I0.0062 J0.0108
G2 X52.7625 Y112.64 Z-0.2 I0.0063 J-0.0108
G2 X52.7438 Y112.6292 Z-0.2333 I-0.0125 J0.0
G2 Y112.6508 Z-0.2667 I0.0062 J0.0108
G2 X52.7625 Y112.64 Z-0.3 I0.0063 J-0.0108
G2 X52.7438 Y112.6292 Z-0.3333 I-0.0125 J0.0
G2 Y112.6508 Z-0.3667 I0.0062 J0.0108
G2 X52.7625 Y112.64 Z-0.4 I0.0063 J-0.0108
G2 X52.7438 Y112.6292 Z-0.4333 I-0.0125 J0.0
G2 Y112.6508 Z-0.4667 I0.0062 J0.0108
G2 X52.7625 Y112.64 Z-0.5 I0.0063 J-0.0108
G2 X52.7438 Y112.6292 Z-0.5333 I-0.0125 J0.0
G2 Y112.6508 Z-0.5667 I0.0062 J0.0108
G2 X52.7625 Y112.64 Z-0.6 I0.0063 J-0.0108
G2 X52.7438 Y112.6292 Z-0.6333 I-0.0125 J0.0
G2 Y112.6508 Z-0.6667 I0.0062 J0.0108
G2 X52.7625 Y112.64 Z-0.7 I0.0063 J-0.0108
G2 X52.7438 Y112.6292 Z-0.7333 I-0.0125 J0.0
G2 Y112.6508 Z-0.7667 I0.0062 J0.0108
G2 X52.7625 Y112.64 Z-0.8 I0.0063 J-0.0108
G2 X52.7438 Y112.6292 Z-0.8333 I-0.0125 J0.0
G2 Y112.6508 Z-0.8667 I0.0062 J0.0108
G2 X52.7625 Y112.64 Z-0.9 I0.0063 J-0.0108
G2 X52.7438 Y112.6292 Z-0.9333 I-0.0125 J0.0
G2 Y112.6508 Z-0.9667 I0.0062 J0.0108
G2 X52.7625 Y112.64 Z-1.0 I0.0063 J-0.0108
G2 X52.7438 Y112.6292 Z-1.0333 I-0.0125 J0.0
G2 Y112.6508 Z-1.0667 I0.0062 J0.0108
G2 X52.7625 Y112.64 Z-1.1 I0.0063 J-0.0108
G2 X52.7438 Y112.6292 Z-1.1333 I-0.0125 J0.0
G2 Y112.6508 Z-1.1667 I0.0062 J0.0108
G2 X52.7625 Y112.64 Z-1.2 I0.0063 J-0.0108
G2 X52.7438 Y112.6292 Z-1.2333 I-0.0125 J0.0
G2 Y112.6508 Z-1.2667 I0.0062 J0.0108
G2 X52.7625 Y112.64 Z-1.3 I0.0063 J-0.0108
G2 X52.7438 Y112.6292 Z-1.3333 I-0.0125 J0.0
G2 Y112.6508 Z-1.3667 I0.0062 J0.0108
G2 X52.7625 Y112.64 Z-1.4 I0.0063 J-0.0108
G2 X52.7438 Y112.6292 Z-1.4333 I-0.0125 J0.0
G2 Y112.6508 Z-1.4667 I0.0062 J0.0108
G2 X52.7625 Y112.64 Z-1.5 I0.0063 J-0.0108
G2 X52.7438 Y112.6292 Z-1.5333 I-0.0125 J0.0
G2 Y112.6508 Z-1.5667 I0.0062 J0.0108
G2 X52.7625 Y112.64 Z-1.6 I0.0063 J-0.0108
G2 X52.7438 Y112.6292 Z-1.6333 I-0.0125 J0.0
G2 Y112.6508 Z-1.6667 I0.0062 J0.0108
G2 X52.7625 Y112.64 Z-1.7 I0.0063 J-0.0108
G2 X52.7438 Y112.6292 Z-1.7333 I-0.0125 J0.0
G2 Y112.6508 Z-1.7667 I0.0062 J0.0108
G2 X52.7625 Y112.64 Z-1.8 I0.0063 J-0.0108
G2 X52.7438 Y112.6292 Z-1.8333 I-0.0125 J0.0
G2 Y112.6508 Z-1.8667 I0.0062 J0.0108
G2 X52.7625 Y112.64 Z-1.9 I0.0063 J-0.0108
G2 X52.7438 Y112.6292 Z-1.9333 I-0.0125 J0.0
G2 Y112.6508 Z-1.9667 I0.0062 J0.0108
G2 X52.7625 Y112.64 Z-2.0 I0.0063 J-0.0108
G2 X52.7438 Y112.6292 Z-2.0333 I-0.0125 J0.0
G2 Y112.6508 Z-2.0667 I0.0062 J0.0108
G2 X52.7625 Y112.64 Z-2.1 I0.0063 J-0.0108
G2 X52.7438 Y112.6292 Z-2.1333 I-0.0125 J0.0
G2 Y112.6508 Z-2.1667 I0.0062 J0.0108
G2 X52.7625 Y112.64 Z-2.2 I0.0063 J-0.0108
G2 X52.7438 Y112.6292 Z-2.2333 I-0.0125 J0.0
G2 Y112.6508 Z-2.2667 I0.0062 J0.0108
G2 X52.7625 Y112.64 Z-2.3 I0.0063 J-0.0108
G2 X52.7438 Y112.6292 Z-2.3333 I-0.0125 J0.0
G2 Y112.6508 Z-2.3667 I0.0062 J0.0108
G2 X52.7625 Y112.64 Z-2.4 I0.0063 J-0.0108
G2 X52.7438 Y112.6292 Z-2.4333 I-0.0125 J0.0
G2 Y112.6508 Z-2.4667 I0.0062 J0.0108
G2 X52.7625 Y112.64 Z-2.5 I0.0063 J-0.0108
G2 X52.7438 Y112.6292 Z-2.5333 I-0.0125 J0.0
G2 Y112.6508 Z-2.5667 I0.0062 J0.0108
G2 X52.7625 Y112.64 Z-2.6 I0.0063 J-0.0108
G2 X52.7438 Y112.6292 Z-2.6333 I-0.0125 J0.0
G2 Y112.6508 Z-2.6667 I0.0062 J0.0108
G2 X52.7625 Y112.64 Z-2.7 I0.0063 J-0.0108
G2 X52.7438 Y112.6292 Z-2.7333 I-0.0125 J0.0
G2 Y112.6508 Z-2.7667 I0.0062 J0.0108
G2 X52.7625 Y112.64 Z-2.8 I0.0063 J-0.0108
G2 X52.7438 Y112.6292 Z-2.8333 I-0.0125 J0.0
G2 Y112.6508 Z-2.8667 I0.0062 J0.0108
G2 X52.7625 Y112.64 Z-2.9 I0.0063 J-0.0108
G2 X52.7438 Y112.6292 Z-2.9333 I-0.0125 J0.0
G2 Y112.6508 Z-2.9667 I0.0063 J0.0108
G2 X52.7625 Y112.64 Z-3.0 I0.0063 J-0.0108
G2 X52.7438 Y112.6292 Z-3.0333 I-0.0125 J0.0
G2 Y112.6508 Z-3.0667 I0.0063 J0.0108
G2 X52.7625 Y112.64 Z-3.1 I0.0063 J-0.0108
G2 X52.7438 Y112.6292 Z-3.1333 I-0.0125 J0.0
G2 Y112.6508 Z-3.1667 I0.0063 J0.0108
G2 X52.7625 Y112.64 Z-3.2 I0.0063 J-0.0108
G2 X52.7438 Y112.6292 I-0.0125 J0.0
G2 Y112.6508 I0.0063 J0.0108
G2 X52.7625 Y112.64 I0.0062 J-0.0108
G0 Z3.0
G0 X46.7025 Y97.27
G0 Z0.01
G1 F1000.0 Z0.0
G2 F2000.0 X46.6837 Y97.2592 Z-0.0333 I-0.0125 J0.0
G2 Y97.2808 Z-0.0667 I0.0062 J0.0108
G2 X46.7025 Y97.27 Z-0.1 I0.0063 J-0.0108
G2 X46.6837 Y97.2592 Z-0.1333 I-0.0125 J0.0
G2 Y97.2808 Z-0.1667 I0.0062 J0.0108
G2 X46.7025 Y97.27 Z-0.2 I0.0063 J-0.0108
G2 X46.6837 Y97.2592 Z-0.2333 I-0.0125 J0.0
G2 Y97.2808 Z-0.2667 I0.0062 J0.0108
G2 X46.7025 Y97.27 Z-0.3 I0.0063 J-0.0108
G2 X46.6837 Y97.2592 Z-0.3333 I-0.0125 J0.0
G2 Y97.2808 Z-0.3667 I0.0062 J0.0108
G2 X46.7025 Y97.27 Z-0.4 I0.0063 J-0.0108
G2 X46.6837 Y97.2592 Z-0.4333 I-0.0125 J0.0
G2 Y97.2808 Z-0.4667 I0.0062 J0.0108
G2 X46.7025 Y97.27 Z-0.5 I0.0063 J-0.0108
G2 X46.6837 Y97.2592 Z-0.5333 I-0.0125 J0.0
G2 Y97.2808 Z-0.5667 I0.0062 J0.0108
G2 X46.7025 Y97.27 Z-0.6 I0.0063 J-0.0108
G2 X46.6837 Y97.2592 Z-0.6333 I-0.0125 J0.0
G2 Y97.2808 Z-0.6667 I0.0062 J0.0108
G2 X46.7025 Y97.27 Z-0.7 I0.0063 J-0.0108
G2 X46.6837 Y97.2592 Z-0.7333 I-0.0125 J0.0
G2 Y97.2808 Z-0.7667 I0.0062 J0.0108
G2 X46.7025 Y97.27 Z-0.8 I0.0063 J-0.0108
G2 X46.6837 Y97.2592 Z-0.8333 I-0.0125 J0.0
G2 Y97.2808 Z-0.8667 I0.0062 J0.0108
G2 X46.7025 Y97.27 Z-0.9 I0.0063 J-0.0108
G2 X46.6837 Y97.2592 Z-0.9333 I-0.0125 J0.0
G2 Y97.2808 Z-0.9667 I0.0062 J0.0108
G2 X46.7025 Y97.27 Z-1.0 I0.0063 J-0.0108
G2 X46.6837 Y97.2592 Z-1.0333 I-0.0125 J0.0
G2 Y97.2808 Z-1.0667 I0.0062 J0.0108
G2 X46.7025 Y97.27 Z-1.1 I0.0063 J-0.0108
G2 X46.6837 Y97.2592 Z-1.1333 I-0.0125 J0.0
G2 Y97.2808 Z-1.1667 I0.0062 J0.0108
G2 X46.7025 Y97.27 Z-1.2 I0.0063 J-0.0108
G2 X46.6837 Y97.2592 Z-1.2333 I-0.0125 J0.0
G2 Y97.2808 Z-1.2667 I0.0062 J0.0108
G2 X46.7025 Y97.27 Z-1.3 I0.0063 J-0.0108
G2 X46.6837 Y97.2592 Z-1.3333 I-0.0125 J0.0
G2 Y97.2808 Z-1.3667 I0.0062 J0.0108
G2 X46.7025 Y97.27 Z-1.4 I0.0063 J-0.0108
G2 X46.6837 Y97.2592 Z-1.4333 I-0.0125 J0.0
G2 Y97.2808 Z-1.4667 I0.0062 J0.0108
G2 X46.7025 Y97.27 Z-1.5 I0.0063 J-0.0108
G2 X46.6837 Y97.2592 Z-1.5333 I-0.0125 J0.0
G2 Y97.2808 Z-1.5667 I0.0062 J0.0108
G2 X46.7025 Y97.27 Z-1.6 I0.0063 J-0.0108
G2 X46.6837 Y97.2592 Z-1.6333 I-0.0125 J0.0
G2 Y97.2808 Z-1.6667 I0.0062 J0.0108
G2 X46.7025 Y97.27 Z-1.7 I0.0063 J-0.0108
G2 X46.6837 Y97.2592 Z-1.7333 I-0.0125 J0.0
G2 Y97.2808 Z-1.7667 I0.0062 J0.0108
G2 X46.7025 Y97.27 Z-1.8 I0.0063 J-0.0108
G2 X46.6837 Y97.2592 Z-1.8333 I-0.0125 J0.0
G2 Y97.2808 Z-1.8667 I0.0062 J0.0108
G2 X46.7025 Y97.27 Z-1.9 I0.0063 J-0.0108
G2 X46.6837 Y97.2592 Z-1.9333 I-0.0125 J0.0
G2 Y97.2808 Z-1.9667 I0.0062 J0.0108
G2 X46.7025 Y97.27 Z-2.0 I0.0063 J-0.0108
G2 X46.6837 Y97.2592 Z-2.0333 I-0.0125 J0.0
G2 Y97.2808 Z-2.0667 I0.0062 J0.0108
G2 X46.7025 Y97.27 Z-2.1 I0.0063 J-0.0108
G2 X46.6837 Y97.2592 Z-2.1333 I-0.0125 J0.0
G2 Y97.2808 Z-2.1667 I0.0062 J0.0108
G2 X46.7025 Y97.27 Z-2.2 I0.0063 J-0.0108
G2 X46.6837 Y97.2592 Z-2.2333 I-0.0125 J0.0
G2 Y97.2808 Z-2.2667 I0.0062 J0.0108
G2 X46.7025 Y97.27 Z-2.3 I0.0063 J-0.0108
G2 X46.6837 Y97.2592 Z-2.3333 I-0.0125 J0.0
G2 Y97.2808 Z-2.3667 I0.0062 J0.0108
G2 X46.7025 Y97.27 Z-2.4 I0.0063 J-0.0108
G2 X46.6837 Y97.2592 Z-2.4333 I-0.0125 J0.0
G2 Y97.2808 Z-2.4667 I0.0062 J0.0108
G2 X46.7025 Y97.27 Z-2.5 I0.0063 J-0.0108
G2 X46.6837 Y97.2592 Z-2.5333 I-0.0125 J0.0
G2 Y97.2808 Z-2.5667 I0.0062 J0.0108
G2 X46.7025 Y97.27 Z-2.6 I0.0063 J-0.0108
G2 X46.6837 Y97.2592 Z-2.6333 I-0.0125 J0.0
G2 Y97.2808 Z-2.6667 I0.0062 J0.0108
G2 X46.7025 Y97.27 Z-2.7 I0.0063 J-0.0108
G2 X46.6837 Y97.2592 Z-2.7333 I-0.0125 J0.0
G2 Y97.2808 Z-2.7667 I0.0062 J0.0108
G2 X46.7025 Y97.27 Z-2.8 I0.0063 J-0.0108
G2 X46.6837 Y97.2592 Z-2.8333 I-0.0125 J0.0
G2 Y97.2808 Z-2.8667 I0.0062 J0.0108
G2 X46.7025 Y97.27 Z-2.9 I0.0063 J-0.0108
G2 X46.6837 Y97.2592 Z-2.9333 I-0.0125 J0.0
G2 Y97.2808 Z-2.9667 I0.0063 J0.0108
G2 X46.7025 Y97.27 Z-3.0 I0.0063 J-0.0108
G2 X46.6837 Y97.2592 Z-3.0333 I-0.0125 J0.0
G2 Y97.2808 Z-3.0667 I0.0063 J0.0108
G2 X46.7025 Y97.27 Z-3.1 I0.0063 J-0.0108
G2 X46.6837 Y97.2592 Z-3.1333 I-0.0125 J0.0
G2 Y97.2808 Z-3.1667 I0.0063 J0.0108
G2 X46.7025 Y97.27 Z-3.2 I0.0063 J-0.0108
G2 X46.6837 Y97.2592 I-0.0125 J0.0
G2 Y97.2808 I0.0063 J0.0108
G2 X46.7025 Y97.27 I0.0062 J-0.0108
G0 Z3.0
G0 Y74.5
G0 Z0.01
G1 F1000.0 Z0.0
G2 F2000.0 X46.6837 Y74.4892 Z-0.0333 I-0.0125 J0.0
G2 Y74.5108 Z-0.0667 I0.0062 J0.0108
G2 X46.7025 Y74.5 Z-0.1 I0.0063 J-0.0108
G2 X46.6837 Y74.4892 Z-0.1333 I-0.0125 J0.0
G2 Y74.5108 Z-0.1667 I0.0062 J0.0108
G2 X46.7025 Y74.5 Z-0.2 I0.0063 J-0.0108
G2 X46.6837 Y74.4892 Z-0.2333 I-0.0125 J0.0
G2 Y74.5108 Z-0.2667 I0.0062 J0.0108
G2 X46.7025 Y74.5 Z-0.3 I0.0063 J-0.0108
G2 X46.6837 Y74.4892 Z-0.3333 I-0.0125 J0.0
G2 Y74.5108 Z-0.3667 I0.0062 J0.0108
G2 X46.7025 Y74.5 Z-0.4 I0.0063 J-0.0108
G2 X46.6837 Y74.4892 Z-0.4333 I-0.0125 J0.0
G2 Y74.5108 Z-0.4667 I0.0062 J0.0108
G2 X46.7025 Y74.5 Z-0.5 I0.0063 J-0.0108
G2 X46.6837 Y74.4892 Z-0.5333 I-0.0125 J0.0
G2 Y74.5108 Z-0.5667 I0.0062 J0.0108
G2 X46.7025 Y74.5 Z-0.6 I0.0063 J-0.0108
G2 X46.6837 Y74.4892 Z-0.6333 I-0.0125 J0.0
G2 Y74.5108 Z-0.6667 I0.0062 J0.0108
G2 X46.7025 Y74.5 Z-0.7 I0.0063 J-0.0108
G2 X46.6837 Y74.4892 Z-0.7333 I-0.0125 J0.0
G2 Y74.5108 Z-0.7667 I0.0062 J0.0108
G2 X46.7025 Y74.5 Z-0.8 I0.0063 J-0.0108
G2 X46.6837 Y74.4892 Z-0.8333 I-0.0125 J0.0
G2 Y74.5108 Z-0.8667 I0.0062 J0.0108
G2 X46.7025 Y74.5 Z-0.9 I0.0063 J-0.0108
G2 X46.6837 Y74.4892 Z-0.9333 I-0.0125 J0.0
G2 Y74.5108 Z-0.9667 I0.0062 J0.0108
G2 X46.7025 Y74.5 Z-1.0 I0.0063 J-0.0108
G2 X46.6837 Y74.4892 Z-1.0333 I-0.0125 J0.0
G2 Y74.5108 Z-1.0667 I0.0062 J0.0108
G2 X46.7025 Y74.5 Z-1.1 I0.0063 J-0.0108
G2 X46.6837 Y74.4892 Z-1.1333 I-0.0125 J0.0
G2 Y74.5108 Z-1.1667 I0.0062 J0.0108
G2 X46.7025 Y74.5 Z-1.2 I0.0063 J-0.0108
G2 X46.6837 Y74.4892 Z-1.2333 I-0.0125 J0.0
G2 Y74.5108 Z-1.2667 I0.0062 J0.0108
G2 X46.7025 Y74.5 Z-1.3 I0.0063 J-0.0108
G2 X46.6837 Y74.4892 Z-1.3333 I-0.0125 J0.0
G2 Y74.5108 Z-1.3667 I0.0062 J0.0108
G2 X46.7025 Y74.5 Z-1.4 I0.0063 J-0.0108
G2 X46.6837 Y74.4892 Z-1.4333 I-0.0125 J0.0
G2 Y74.5108 Z-1.4667 I0.0062 J0.0108
G2 X46.7025 Y74.5 Z-1.5 I0.0063 J-0.0108
G2 X46.6837 Y74.4892 Z-1.5333 I-0.0125 J0.0
G2 Y74.5108 Z-1.5667 I0.0062 J0.0108
G2 X46.7025 Y74.5 Z-1.6 I0.0063 J-0.0108
G2 X46.6837 Y74.4892 Z-1.6333 I-0.0125 J0.0
G2 Y74.5108 Z-1.6667 I0.0062 J0.0108
G2 X46.7025 Y74.5 Z-1.7 I0.0063 J-0.0108
G2 X46.6837 Y74.4892 Z-1.7333 I-0.0125 J0.0
G2 Y74.5108 Z-1.7667 I0.0062 J0.0108
G2 X46.7025 Y74.5 Z-1.8 I0.0063 J-0.0108
G2 X46.6837 Y74.4892 Z-1.8333 I-0.0125 J0.0
G2 Y74.5108 Z-1.8667 I0.0062 J0.0108
G2 X46.7025 Y74.5 Z-1.9 I0.0063 J-0.0108
G2 X46.6837 Y74.4892 Z-1.9333 I-0.0125 J0.0
G2 Y74.5108 Z-1.9667 I0.0062 J0.0108
G2 X46.7025 Y74.5 Z-2.0 I0.0063 J-0.0108
G2 X46.6837 Y74.4892 Z-2.0333 I-0.0125 J0.0
G2 Y74.5108 Z-2.0667 I0.0062 J0.0108
G2 X46.7025 Y74.5 Z-2.1 I0.0063 J-0.0108
G2 X46.6837 Y74.4892 Z-2.1333 I-0.0125 J0.0
G2 Y74.5108 Z-2.1667 I0.0062 J0.0108
G2 X46.7025 Y74.5 Z-2.2 I0.0063 J-0.0108
G2 X46.6837 Y74.4892 Z-2.2333 I-0.0125 J0.0
G2 Y74.5108 Z-2.2667 I0.0062 J0.0108
G2 X46.7025 Y74.5 Z-2.3 I0.0063 J-0.0108
G2 X46.6837 Y74.4892 Z-2.3333 I-0.0125 J0.0
G2 Y74.5108 Z-2.3667 I0.0062 J0.0108
G2 X46.7025 Y74.5 Z-2.4 I0.0063 J-0.0108
G2 X46.6837 Y74.4892 Z-2.4333 I-0.0125 J0.0
G2 Y74.5108 Z-2.4667 I0.0062 J0.0108
G2 X46.7025 Y74.5 Z-2.5 I0.0063 J-0.0108
G2 X46.6837 Y74.4892 Z-2.5333 I-0.0125 J0.0
G2 Y74.5108 Z-2.5667 I0.0062 J0.0108
G2 X46.7025 Y74.5 Z-2.6 I0.0063 J-0.0108
G2 X46.6837 Y74.4892 Z-2.6333 I-0.0125 J0.0
G2 Y74.5108 Z-2.6667 I0.0062 J0.0108
G2 X46.7025 Y74.5 Z-2.7 I0.0063 J-0.0108
G2 X46.6837 Y74.4892 Z-2.7333 I-0.0125 J0.0
G2 Y74.5108 Z-2.7667 I0.0062 J0.0108
G2 X46.7025 Y74.5 Z-2.8 I0.0063 J-0.0108
G2 X46.6837 Y74.4892 Z-2.8333 I-0.0125 J0.0
G2 Y74.5108 Z-2.8667 I0.0062 J0.0108
G2 X46.7025 Y74.5 Z-2.9 I0.0063 J-0.0108
G2 X46.6837 Y74.4892 Z-2.9333 I-0.0125 J0.0
G2 Y74.5108 Z-2.9667 I0.0063 J0.0108
G2 X46.7025 Y74.5 Z-3.0 I0.0063 J-0.0108
G2 X46.6837 Y74.4892 Z-3.0333 I-0.0125 J0.0
G2 Y74.5108 Z-3.0667 I0.0063 J0.0108
G2 X46.7025 Y74.5 Z-3.1 I0.0063 J-0.0108
G2 X46.6837 Y74.4892 Z-3.1333 I-0.0125 J0.0
G2 Y74.5108 Z-3.1667 I0.0063 J0.0108
G2 X46.7025 Y74.5 Z-3.2 I0.0063 J-0.0108
G2 X46.6837 Y74.4892 I-0.0125 J0.0
G2 Y74.5108 I0.0063 J0.0108
G2 X46.7025 Y74.5 I0.0062 J-0.0108
G0 Z3.0
G0 Y51.73
G0 Z0.01
G1 F1000.0 Z0.0
G2 F2000.0 X46.6837 Y51.7192 Z-0.0333 I-0.0125 J0.0
G2 Y51.7408 Z-0.0667 I0.0063 J0.0108
G2 X46.7025 Y51.73 Z-0.1 I0.0063 J-0.0108
G2 X46.6837 Y51.7192 Z-0.1333 I-0.0125 J0.0
G2 Y51.7408 Z-0.1667 I0.0063 J0.0108
G2 X46.7025 Y51.73 Z-0.2 I0.0063 J-0.0108
G2 X46.6837 Y51.7192 Z-0.2333 I-0.0125 J0.0
G2 Y51.7408 Z-0.2667 I0.0063 J0.0108
G2 X46.7025 Y51.73 Z-0.3 I0.0063 J-0.0108
G2 X46.6837 Y51.7192 Z-0.3333 I-0.0125 J0.0
G2 Y51.7408 Z-0.3667 I0.0063 J0.0108
G2 X46.7025 Y51.73 Z-0.4 I0.0063 J-0.0108
G2 X46.6837 Y51.7192 Z-0.4333 I-0.0125 J0.0
G2 Y51.7408 Z-0.4667 I0.0063 J0.0108
G2 X46.7025 Y51.73 Z-0.5 I0.0063 J-0.0108
G2 X46.6837 Y51.7192 Z-0.5333 I-0.0125 J0.0
G2 Y51.7408 Z-0.5667 I0.0063 J0.0108
G2 X46.7025 Y51.73 Z-0.6 I0.0063 J-0.0108
G2 X46.6837 Y51.7192 Z-0.6333 I-0.0125 J0.0
G2 Y51.7408 Z-0.6667 I0.0063 J0.0108
G2 X46.7025 Y51.73 Z-0.7 I0.0063 J-0.0108
G2 X46.6837 Y51.7192 Z-0.7333 I-0.0125 J0.0
G2 Y51.7408 Z-0.7667 I0.0063 J0.0108
G2 X46.7025 Y51.73 Z-0.8 I0.0063 J-0.0108
G2 X46.6837 Y51.7192 Z-0.8333 I-0.0125 J0.0
G2 Y51.7408 Z-0.8667 I0.0063 J0.0108
G2 X46.7025 Y51.73 Z-0.9 I0.0063 J-0.0108
G2 X46.6837 Y51.7192 Z-0.9333 I-0.0125 J0.0
G2 Y51.7408 Z-0.9667 I0.0063 J0.0108
G2 X46.7025 Y51.73 Z-1.0 I0.0063 J-0.0108
G2 X46.6837 Y51.7192 Z-1.0333 I-0.0125 J0.0
G2 Y51.7408 Z-1.0667 I0.0063 J0.0108
G2 X46.7025 Y51.73 Z-1.1 I0.0063 J-0.0108
G2 X46.6837 Y51.7192 Z-1.1333 I-0.0125 J0.0
G2 Y51.7408 Z-1.1667 I0.0063 J0.0108
G2 X46.7025 Y51.73 Z-1.2 I0.0063 J-0.0108
G2 X46.6837 Y51.7192 Z-1.2333 I-0.0125 J0.0
G2 Y51.7408 Z-1.2667 I0.0063 J0.0108
G2 X46.7025 Y51.73 Z-1.3 I0.0063 J-0.0108
G2 X46.6837 Y51.7192 Z-1.3333 I-0.0125 J0.0
G2 Y51.7408 Z-1.3667 I0.0063 J0.0108
G2 X46.7025 Y51.73 Z-1.4 I0.0063 J-0.0108
G2 X46.6837 Y51.7192 Z-1.4333 I-0.0125 J0.0
G2 Y51.7408 Z-1.4667 I0.0063 J0.0108
G2 X46.7025 Y51.73 Z-1.5 I0.0063 J-0.0108
G2 X46.6837 Y51.7192 Z-1.5333 I-0.0125 J0.0
G2 Y51.7408 Z-1.5667 I0.0063 J0.0108
G2 X46.7025 Y51.73 Z-1.6 I0.0063 J-0.0108
G2 X46.6837 Y51.7192 Z-1.6333 I-0.0125 J0.0
G2 Y51.7408 Z-1.6667 I0.0063 J0.0108
G2 X46.7025 Y51.73 Z-1.7 I0.0063 J-0.0108
G2 X46.6837 Y51.7192 Z-1.7333 I-0.0125 J0.0
G2 Y51.7408 Z-1.7667 I0.0063 J0.0108
G2 X46.7025 Y51.73 Z-1.8 I0.0063 J-0.0108
G2 X46.6837 Y51.7192 Z-1.8333 I-0.0125 J0.0
G2 Y51.7408 Z-1.8667 I0.0063 J0.0108
G2 X46.7025 Y51.73 Z-1.9 I0.0063 J-0.0108
G2 X46.6837 Y51.7192 Z-1.9333 I-0.0125 J0.0
G2 Y51.7408 Z-1.9667 I0.0063 J0.0108
G2 X46.7025 Y51.73 Z-2.0 I0.0063 J-0.0108
G2 X46.6837 Y51.7192 Z-2.0333 I-0.0125 J0.0
G2 Y51.7408 Z-2.0667 I0.0063 J0.0108
G2 X46.7025 Y51.73 Z-2.1 I0.0063 J-0.0108
G2 X46.6837 Y51.7192 Z-2.1333 I-0.0125 J0.0
G2 Y51.7408 Z-2.1667 I0.0063 J0.0108
G2 X46.7025 Y51.73 Z-2.2 I0.0063 J-0.0108
G2 X46.6837 Y51.7192 Z-2.2333 I-0.0125 J0.0
G2 Y51.7408 Z-2.2667 I0.0063 J0.0108
G2 X46.7025 Y51.73 Z-2.3 I0.0063 J-0.0108
G2 X46.6837 Y51.7192 Z-2.3333 I-0.0125 J0.0
G2 Y51.7408 Z-2.3667 I0.0063 J0.0108
G2 X46.7025 Y51.73 Z-2.4 I0.0063 J-0.0108
G2 X46.6837 Y51.7192 Z-2.4333 I-0.0125 J0.0
G2 Y51.7408 Z-2.4667 I0.0063 J0.0108
G2 X46.7025 Y51.73 Z-2.5 I0.0063 J-0.0108
G2 X46.6837 Y51.7192 Z-2.5333 I-0.0125 J0.0
G2 Y51.7408 Z-2.5667 I0.0063 J0.0108
G2 X46.7025 Y51.73 Z-2.6 I0.0063 J-0.0108
G2 X46.6837 Y51.7192 Z-2.6333 I-0.0125 J0.0
G2 Y51.7408 Z-2.6667 I0.0063 J0.0108
G2 X46.7025 Y51.73 Z-2.7 I0.0063 J-0.0108
G2 X46.6837 Y51.7192 Z-2.7333 I-0.0125 J0.0
G2 Y51.7408 Z-2.7667 I0.0063 J0.0108
G2 X46.7025 Y51.73 Z-2.8 I0.0063 J-0.0108
G2 X46.6837 Y51.7192 Z-2.8333 I-0.0125 J0.0
G2 Y51.7408 Z-2.8667 I0.0063 J0.0108
G2 X46.7025 Y51.73 Z-2.9 I0.0063 J-0.0108
G2 X46.6837 Y51.7192 Z-2.9333 I-0.0125 J0.0
G2 Y51.7408 Z-2.9667 I0.0063 J0.0108
G2 X46.7025 Y51.73 Z-3.0 I0.0062 J-0.0108
G2 X46.6837 Y51.7192 Z-3.0333 I-0.0125 J0.0
G2 Y51.7408 Z-3.0667 I0.0063 J0.0108
G2 X46.7025 Y51.73 Z-3.1 I0.0062 J-0.0108
G2 X46.6837 Y51.7192 Z-3.1333 I-0.0125 J0.0
G2 Y51.7408 Z-3.1667 I0.0063 J0.0108
G2 X46.7025 Y51.73 Z-3.2 I0.0062 J-0.0108
G2 X46.6837 Y51.7192 I-0.0125 J0.0
G2 Y51.7408 I0.0063 J0.0108
G2 X46.7025 Y51.73 I0.0062 J-0.0108
G0 Z3.0
G0 Y28.96
G0 Z0.01
G1 F1000.0 Z0.0
G2 F2000.0 X46.6837 Y28.9492 Z-0.0333 I-0.0125 J0.0
G2 Y28.9708 Z-0.0667 I0.0063 J0.0108
G2 X46.7025 Y28.96 Z-0.1 I0.0063 J-0.0108
G2 X46.6837 Y28.9492 Z-0.1333 I-0.0125 J0.0
G2 Y28.9708 Z-0.1667 I0.0063 J0.0108
G2 X46.7025 Y28.96 Z-0.2 I0.0063 J-0.0108
G2 X46.6837 Y28.9492 Z-0.2333 I-0.0125 J0.0
G2 Y28.9708 Z-0.2667 I0.0063 J0.0108
G2 X46.7025 Y28.96 Z-0.3 I0.0063 J-0.0108
G2 X46.6837 Y28.9492 Z-0.3333 I-0.0125 J0.0
G2 Y28.9708 Z-0.3667 I0.0063 J0.0108
G2 X46.7025 Y28.96 Z-0.4 I0.0063 J-0.0108
G2 X46.6837 Y28.9492 Z-0.4333 I-0.0125 J0.0
G2 Y28.9708 Z-0.4667 I0.0063 J0.0108
G2 X46.7025 Y28.96 Z-0.5 I0.0063 J-0.0108
G2 X46.6837 Y28.9492 Z-0.5333 I-0.0125 J0.0
G2 Y28.9708 Z-0.5667 I0.0063 J0.0108
G2 X46.7025 Y28.96 Z-0.6 I0.0063 J-0.0108
G2 X46.6837 Y28.9492 Z-0.6333 I-0.0125 J0.0
G2 Y28.9708 Z-0.6667 I0.0063 J0.0108
G2 X46.7025 Y28.96 Z-0.7 I0.0063 J-0.0108
G2 X46.6837 Y28.9492 Z-0.7333 I-0.0125 J0.0
G2 Y28.9708 Z-0.7667 I0.0063 J0.0108
G2 X46.7025 Y28.96 Z-0.8 I0.0063 J-0.0108
G2 X46.6837 Y28.9492 Z-0.8333 I-0.0125 J0.0
G2 Y28.9708 Z-0.8667 I0.0063 J0.0108
G2 X46.7025 Y28.96 Z-0.9 I0.0063 J-0.0108
G2 X46.6837 Y28.9492 Z-0.9333 I-0.0125 J0.0
G2 Y28.9708 Z-0.9667 I0.0063 J0.0108
G2 X46.7025 Y28.96 Z-1.0 I0.0063 J-0.0108
G2 X46.6837 Y28.9492 Z-1.0333 I-0.0125 J0.0
G2 Y28.9708 Z-1.0667 I0.0063 J0.0108
G2 X46.7025 Y28.96 Z-1.1 I0.0063 J-0.0108
G2 X46.6837 Y28.9492 Z-1.1333 I-0.0125 J0.0
G2 Y28.9708 Z-1.1667 I0.0063 J0.0108
G2 X46.7025 Y28.96 Z-1.2 I0.0063 J-0.0108
G2 X46.6837 Y28.9492 Z-1.2333 I-0.0125 J0.0
G2 Y28.9708 Z-1.2667 I0.0063 J0.0108
G2 X46.7025 Y28.96 Z-1.3 I0.0063 J-0.0108
G2 X46.6837 Y28.9492 Z-1.3333 I-0.0125 J0.0
G2 Y28.9708 Z-1.3667 I0.0063 J0.0108
G2 X46.7025 Y28.96 Z-1.4 I0.0063 J-0.0108
G2 X46.6837 Y28.9492 Z-1.4333 I-0.0125 J0.0
G2 Y28.9708 Z-1.4667 I0.0063 J0.0108
G2 X46.7025 Y28.96 Z-1.5 I0.0063 J-0.0108
G2 X46.6837 Y28.9492 Z-1.5333 I-0.0125 J0.0
G2 Y28.9708 Z-1.5667 I0.0063 J0.0108
G2 X46.7025 Y28.96 Z-1.6 I0.0063 J-0.0108
G2 X46.6837 Y28.9492 Z-1.6333 I-0.0125 J0.0
G2 Y28.9708 Z-1.6667 I0.0063 J0.0108
G2 X46.7025 Y28.96 Z-1.7 I0.0063 J-0.0108
G2 X46.6837 Y28.9492 Z-1.7333 I-0.0125 J0.0
G2 Y28.9708 Z-1.7667 I0.0063 J0.0108
G2 X46.7025 Y28.96 Z-1.8 I0.0063 J-0.0108
G2 X46.6837 Y28.9492 Z-1.8333 I-0.0125 J0.0
G2 Y28.9708 Z-1.8667 I0.0063 J0.0108
G2 X46.7025 Y28.96 Z-1.9 I0.0063 J-0.0108
G2 X46.6837 Y28.9492 Z-1.9333 I-0.0125 J0.0
G2 Y28.9708 Z-1.9667 I0.0063 J0.0108
G2 X46.7025 Y28.96 Z-2.0 I0.0063 J-0.0108
G2 X46.6837 Y28.9492 Z-2.0333 I-0.0125 J0.0
G2 Y28.9708 Z-2.0667 I0.0063 J0.0108
G2 X46.7025 Y28.96 Z-2.1 I0.0063 J-0.0108
G2 X46.6837 Y28.9492 Z-2.1333 I-0.0125 J0.0
G2 Y28.9708 Z-2.1667 I0.0063 J0.0108
G2 X46.7025 Y28.96 Z-2.2 I0.0063 J-0.0108
G2 X46.6837 Y28.9492 Z-2.2333 I-0.0125 J0.0
G2 Y28.9708 Z-2.2667 I0.0063 J0.0108
G2 X46.7025 Y28.96 Z-2.3 I0.0063 J-0.0108
G2 X46.6837 Y28.9492 Z-2.3333 I-0.0125 J0.0
G2 Y28.9708 Z-2.3667 I0.0063 J0.0108
G2 X46.7025 Y28.96 Z-2.4 I0.0063 J-0.0108
G2 X46.6837 Y28.9492 Z-2.4333 I-0.0125 J0.0
G2 Y28.9708 Z-2.4667 I0.0063 J0.0108
G2 X46.7025 Y28.96 Z-2.5 I0.0063 J-0.0108
G2 X46.6837 Y28.9492 Z-2.5333 I-0.0125 J0.0
G2 Y28.9708 Z-2.5667 I0.0063 J0.0108
G2 X46.7025 Y28.96 Z-2.6 I0.0063 J-0.0108
G2 X46.6837 Y28.9492 Z-2.6333 I-0.0125 J0.0
G2 Y28.9708 Z-2.6667 I0.0063 J0.0108
G2 X46.7025 Y28.96 Z-2.7 I0.0063 J-0.0108
G2 X46.6837 Y28.9492 Z-2.7333 I-0.0125 J0.0
G2 Y28.9708 Z-2.7667 I0.0063 J0.0108
G2 X46.7025 Y28.96 Z-2.8 I0.0063 J-0.0108
G2 X46.6837 Y28.9492 Z-2.8333 I-0.0125 J0.0
G2 Y28.9708 Z-2.8667 I0.0063 J0.0108
G2 X46.7025 Y28.96 Z-2.9 I0.0063 J-0.0108
G2 X46.6837 Y28.9492 Z-2.9333 I-0.0125 J0.0
G2 Y28.9708 Z-2.9667 I0.0063 J0.0108
G2 X46.7025 Y28.96 Z-3.0 I0.0062 J-0.0108
G2 X46.6837 Y28.9492 Z-3.0333 I-0.0125 J0.0
G2 Y28.9708 Z-3.0667 I0.0063 J0.0108
G2 X46.7025 Y28.96 Z-3.1 I0.0062 J-0.0108
G2 X46.6837 Y28.9492 Z-3.1333 I-0.0125 J0.0
G2 Y28.9708 Z-3.1667 I0.0063 J0.0108
G2 X46.7025 Y28.96 Z-3.2 I0.0062 J-0.0108
G2 X46.6837 Y28.9492 I-0.0125 J0.0
G2 Y28.9708 I0.0063 J0.0108
G2 X46.7025 Y28.96 I0.0062 J-0.0108
G0 Z3.0
G0 X51.5525 Y14.23
G0 Z0.01
G1 F1000.0 Z0.0
G2 F2000.0 X51.5337 Y14.2192 Z-0.0333 I-0.0125 J0.0
G2 Y14.2408 Z-0.0667 I0.0063 J0.0108
G2 X51.5525 Y14.23 Z-0.1 I0.0063 J-0.0108
G2 X51.5337 Y14.2192 Z-0.1333 I-0.0125 J0.0
G2 Y14.2408 Z-0.1667 I0.0063 J0.0108
G2 X51.5525 Y14.23 Z-0.2 I0.0063 J-0.0108
G2 X51.5337 Y14.2192 Z-0.2333 I-0.0125 J0.0
G2 Y14.2408 Z-0.2667 I0.0063 J0.0108
G2 X51.5525 Y14.23 Z-0.3 I0.0063 J-0.0108
G2 X51.5337 Y14.2192 Z-0.3333 I-0.0125 J0.0
G2 Y14.2408 Z-0.3667 I0.0063 J0.0108
G2 X51.5525 Y14.23 Z-0.4 I0.0063 J-0.0108
G2 X51.5337 Y14.2192 Z-0.4333 I-0.0125 J0.0
G2 Y14.2408 Z-0.4667 I0.0063 J0.0108
G2 X51.5525 Y14.23 Z-0.5 I0.0063 J-0.0108
G2 X51.5337 Y14.2192 Z-0.5333 I-0.0125 J0.0
G2 Y14.2408 Z-0.5667 I0.0063 J0.0108
G2 X51.5525 Y14.23 Z-0.6 I0.0063 J-0.0108
G2 X51.5337 Y14.2192 Z-0.6333 I-0.0125 J0.0
G2 Y14.2408 Z-0.6667 I0.0063 J0.0108
G2 X51.5525 Y14.23 Z-0.7 I0.0063 J-0.0108
G2 X51.5337 Y14.2192 Z-0.7333 I-0.0125 J0.0
G2 Y14.2408 Z-0.7667 I0.0063 J0.0108
G2 X51.5525 Y14.23 Z-0.8 I0.0063 J-0.0108
G2 X51.5337 Y14.2192 Z-0.8333 I-0.0125 J0.0
G2 Y14.2408 Z-0.8667 I0.0063 J0.0108
G2 X51.5525 Y14.23 Z-0.9 I0.0063 J-0.0108
G2 X51.5337 Y14.2192 Z-0.9333 I-0.0125 J0.0
G2 Y14.2408 Z-0.9667 I0.0063 J0.0108
G2 X51.5525 Y14.23 Z-1.0 I0.0063 J-0.0108
G2 X51.5337 Y14.2192 Z-1.0333 I-0.0125 J0.0
G2 Y14.2408 Z-1.0667 I0.0063 J0.0108
G2 X51.5525 Y14.23 Z-1.1 I0.0063 J-0.0108
G2 X51.5337 Y14.2192 Z-1.1333 I-0.0125 J0.0
G2 Y14.2408 Z-1.1667 I0.0063 J0.0108
G2 X51.5525 Y14.23 Z-1.2 I0.0063 J-0.0108
G2 X51.5337 Y14.2192 Z-1.2333 I-0.0125 J0.0
G2 Y14.2408 Z-1.2667 I0.0063 J0.0108
G2 X51.5525 Y14.23 Z-1.3 I0.0063 J-0.0108
G2 X51.5337 Y14.2192 Z-1.3333 I-0.0125 J0.0
G2 Y14.2408 Z-1.3667 I0.0063 J0.0108
G2 X51.5525 Y14.23 Z-1.4 I0.0063 J-0.0108
G2 X51.5337 Y14.2192 Z-1.4333 I-0.0125 J0.0
G2 Y14.2408 Z-1.4667 I0.0063 J0.0108
G2 X51.5525 Y14.23 Z-1.5 I0.0063 J-0.0108
G2 X51.5337 Y14.2192 Z-1.5333 I-0.0125 J0.0
G2 Y14.2408 Z-1.5667 I0.0063 J0.0108
G2 X51.5525 Y14.23 Z-1.6 I0.0063 J-0.0108
G2 X51.5337 Y14.2192 Z-1.6333 I-0.0125 J0.0
G2 Y14.2408 Z-1.6667 I0.0063 J0.0108
G2 X51.5525 Y14.23 Z-1.7 I0.0063 J-0.0108
G2 X51.5337 Y14.2192 Z-1.7333 I-0.0125 J0.0
G2 Y14.2408 Z-1.7667 I0.0063 J0.0108
G2 X51.5525 Y14.23 Z-1.8 I0.0063 J-0.0108
G2 X51.5337 Y14.2192 Z-1.8333 I-0.0125 J0.0
G2 Y14.2408 Z-1.8667 I0.0063 J0.0108
G2 X51.5525 Y14.23 Z-1.9 I0.0063 J-0.0108
G2 X51.5337 Y14.2192 Z-1.9333 I-0.0125 J0.0
G2 Y14.2408 Z-1.9667 I0.0063 J0.0108
G2 X51.5525 Y14.23 Z-2.0 I0.0063 J-0.0108
G2 X51.5337 Y14.2192 Z-2.0333 I-0.0125 J0.0
G2 Y14.2408 Z-2.0667 I0.0063 J0.0108
G2 X51.5525 Y14.23 Z-2.1 I0.0063 J-0.0108
G2 X51.5337 Y14.2192 Z-2.1333 I-0.0125 J0.0
G2 Y14.2408 Z-2.1667 I0.0063 J0.0108
G2 X51.5525 Y14.23 Z-2.2 I0.0063 J-0.0108
G2 X51.5337 Y14.2192 Z-2.2333 I-0.0125 J0.0
G2 Y14.2408 Z-2.2667 I0.0063 J0.0108
G2 X51.5525 Y14.23 Z-2.3 I0.0063 J-0.0108
G2 X51.5337 Y14.2192 Z-2.3333 I-0.0125 J0.0
G2 Y14.2408 Z-2.3667 I0.0063 J0.0108
G2 X51.5525 Y14.23 Z-2.4 I0.0063 J-0.0108
G2 X51.5337 Y14.2192 Z-2.4333 I-0.0125 J0.0
G2 Y14.2408 Z-2.4667 I0.0063 J0.0108
G2 X51.5525 Y14.23 Z-2.5 I0.0063 J-0.0108
G2 X51.5337 Y14.2192 Z-2.5333 I-0.0125 J0.0
G2 Y14.2408 Z-2.5667 I0.0063 J0.0108
G2 X51.5525 Y14.23 Z-2.6 I0.0063 J-0.0108
G2 X51.5337 Y14.2192 Z-2.6333 I-0.0125 J0.0
G2 Y14.2408 Z-2.6667 I0.0063 J0.0108
G2 X51.5525 Y14.23 Z-2.7 I0.0063 J-0.0108
G2 X51.5337 Y14.2192 Z-2.7333 I-0.0125 J0.0
G2 Y14.2408 Z-2.7667 I0.0063 J0.0108
G2 X51.5525 Y14.23 Z-2.8 I0.0063 J-0.0108
G2 X51.5337 Y14.2192 Z-2.8333 I-0.0125 J0.0
G2 Y14.2408 Z-2.8667 I0.0063 J0.0108
G2 X51.5525 Y14.23 Z-2.9 I0.0063 J-0.0108
G2 X51.5337 Y14.2192 Z-2.9333 I-0.0125 J0.0
G2 Y14.2408 Z-2.9667 I0.0063 J0.0108
G2 X51.5525 Y14.23 Z-3.0 I0.0062 J-0.0108
G2 X51.5337 Y14.2192 Z-3.0333 I-0.0125 J0.0
G2 Y14.2408 Z-3.0667 I0.0063 J0.0108
G2 X51.5525 Y14.23 Z-3.1 I0.0062 J-0.0108
G2 X51.5337 Y14.2192 Z-3.1333 I-0.0125 J0.0
G2 Y14.2408 Z-3.1667 I0.0063 J0.0108
G2 X51.5525 Y14.23 Z-3.2 I0.0062 J-0.0108
G2 X51.5337 Y14.2192 I-0.0125 J0.0
G2 Y14.2408 I0.0063 J0.0108
G2 X51.5525 Y14.23 I0.0062 J-0.0108
G0 Z3.0
G0 X53.2325 Y3.0
G0 Z0.01
G1 F1000.0 Z0.0
G2 F2000.0 X53.2137 Y2.9892 Z-0.0333 I-0.0125 J0.0
G2 Y3.0108 Z-0.0667 I0.0063 J0.0108
G2 X53.2325 Y3.0 Z-0.1 I0.0063 J-0.0108
G2 X53.2137 Y2.9892 Z-0.1333 I-0.0125 J0.0
G2 Y3.0108 Z-0.1667 I0.0063 J0.0108
G2 X53.2325 Y3.0 Z-0.2 I0.0063 J-0.0108
G2 X53.2137 Y2.9892 Z-0.2333 I-0.0125 J0.0
G2 Y3.0108 Z-0.2667 I0.0063 J0.0108
G2 X53.2325 Y3.0 Z-0.3 I0.0063 J-0.0108
G2 X53.2137 Y2.9892 Z-0.3333 I-0.0125 J0.0
G2 Y3.0108 Z-0.3667 I0.0063 J0.0108
G2 X53.2325 Y3.0 Z-0.4 I0.0063 J-0.0108
G2 X53.2137 Y2.9892 Z-0.4333 I-0.0125 J0.0
G2 Y3.0108 Z-0.4667 I0.0063 J0.0108
G2 X53.2325 Y3.0 Z-0.5 I0.0063 J-0.0108
G2 X53.2137 Y2.9892 Z-0.5333 I-0.0125 J0.0
G2 Y3.0108 Z-0.5667 I0.0063 J0.0108
G2 X53.2325 Y3.0 Z-0.6 I0.0063 J-0.0108
G2 X53.2137 Y2.9892 Z-0.6333 I-0.0125 J0.0
G2 Y3.0108 Z-0.6667 I0.0063 J0.0108
G2 X53.2325 Y3.0 Z-0.7 I0.0063 J-0.0108
G2 X53.2137 Y2.9892 Z-0.7333 I-0.0125 J0.0
G2 Y3.0108 Z-0.7667 I0.0063 J0.0108
G2 X53.2325 Y3.0 Z-0.8 I0.0063 J-0.0108
G2 X53.2137 Y2.9892 Z-0.8333 I-0.0125 J0.0
G2 Y3.0108 Z-0.8667 I0.0063 J0.0108
G2 X53.2325 Y3.0 Z-0.9 I0.0063 J-0.0108
G2 X53.2137 Y2.9892 Z-0.9333 I-0.0125 J0.0
G2 Y3.0108 Z-0.9667 I0.0063 J0.0108
G2 X53.2325 Y3.0 Z-1.0 I0.0063 J-0.0108
G2 X53.2137 Y2.9892 Z-1.0333 I-0.0125 J0.0
G2 Y3.0108 Z-1.0667 I0.0063 J0.0108
G2 X53.2325 Y3.0 Z-1.1 I0.0063 J-0.0108
G2 X53.2137 Y2.9892 Z-1.1333 I-0.0125 J0.0
G2 Y3.0108 Z-1.1667 I0.0063 J0.0108
G2 X53.2325 Y3.0 Z-1.2 I0.0063 J-0.0108
G2 X53.2137 Y2.9892 Z-1.2333 I-0.0125 J0.0
G2 Y3.0108 Z-1.2667 I0.0063 J0.0108
G2 X53.2325 Y3.0 Z-1.3 I0.0063 J-0.0108
G2 X53.2137 Y2.9892 Z-1.3333 I-0.0125 J0.0
G2 Y3.0108 Z-1.3667 I0.0063 J0.0108
G2 X53.2325 Y3.0 Z-1.4 I0.0063 J-0.0108
G2 X53.2137 Y2.9892 Z-1.4333 I-0.0125 J0.0
G2 Y3.0108 Z-1.4667 I0.0063 J0.0108
G2 X53.2325 Y3.0 Z-1.5 I0.0063 J-0.0108
G2 X53.2137 Y2.9892 Z-1.5333 I-0.0125 J0.0
G2 Y3.0108 Z-1.5667 I0.0063 J0.0108
G2 X53.2325 Y3.0 Z-1.6 I0.0063 J-0.0108
G2 X53.2137 Y2.9892 Z-1.6333 I-0.0125 J0.0
G2 Y3.0108 Z-1.6667 I0.0063 J0.0108
G2 X53.2325 Y3.0 Z-1.7 I0.0063 J-0.0108
G2 X53.2137 Y2.9892 Z-1.7333 I-0.0125 J0.0
G2 Y3.0108 Z-1.7667 I0.0063 J0.0108
G2 X53.2325 Y3.0 Z-1.8 I0.0063 J-0.0108
G2 X53.2137 Y2.9892 Z-1.8333 I-0.0125 J0.0
G2 Y3.0108 Z-1.8667 I0.0063 J0.0108
G2 X53.2325 Y3.0 Z-1.9 I0.0063 J-0.0108
G2 X53.2137 Y2.9892 Z-1.9333 I-0.0125 J0.0
G2 Y3.0108 Z-1.9667 I0.0063 J0.0108
G2 X53.2325 Y3.0 Z-2.0 I0.0063 J-0.0108
G2 X53.2137 Y2.9892 Z-2.0333 I-0.0125 J0.0
G2 Y3.0108 Z-2.0667 I0.0063 J0.0108
G2 X53.2325 Y3.0 Z-2.1 I0.0063 J-0.0108
G2 X53.2137 Y2.9892 Z-2.1333 I-0.0125 J0.0
G2 Y3.0108 Z-2.1667 I0.0063 J0.0108
G2 X53.2325 Y3.0 Z-2.2 I0.0063 J-0.0108
G2 X53.2137 Y2.9892 Z-2.2333 I-0.0125 J0.0
G2 Y3.0108 Z-2.2667 I0.0063 J0.0108
G2 X53.2325 Y3.0 Z-2.3 I0.0063 J-0.0108
G2 X53.2137 Y2.9892 Z-2.3333 I-0.0125 J0.0
G2 Y3.0108 Z-2.3667 I0.0063 J0.0108
G2 X53.2325 Y3.0 Z-2.4 I0.0063 J-0.0108
G2 X53.2137 Y2.9892 Z-2.4333 I-0.0125 J0.0
G2 Y3.0108 Z-2.4667 I0.0063 J0.0108
G2 X53.2325 Y3.0 Z-2.5 I0.0063 J-0.0108
G2 X53.2137 Y2.9892 Z-2.5333 I-0.0125 J0.0
G2 Y3.0108 Z-2.5667 I0.0063 J0.0108
G2 X53.2325 Y3.0 Z-2.6 I0.0063 J-0.0108
G2 X53.2137 Y2.9892 Z-2.6333 I-0.0125 J0.0
G2 Y3.0108 Z-2.6667 I0.0063 J0.0108
G2 X53.2325 Y3.0 Z-2.7 I0.0063 J-0.0108
G2 X53.2137 Y2.9892 Z-2.7333 I-0.0125 J0.0
G2 Y3.0108 Z-2.7667 I0.0063 J0.0108
G2 X53.2325 Y3.0 Z-2.8 I0.0063 J-0.0108
G2 X53.2137 Y2.9892 Z-2.8333 I-0.0125 J0.0
G2 Y3.0108 Z-2.8667 I0.0063 J0.0108
G2 X53.2325 Y3.0 Z-2.9 I0.0063 J-0.0108
G2 X53.2137 Y2.9892 Z-2.9333 I-0.0125 J0.0
G2 Y3.0108 Z-2.9667 I0.0063 J0.0108
G2 X53.2325 Y3.0 Z-3.0 I0.0062 J-0.0108
G2 X53.2137 Y2.9892 Z-3.0333 I-0.0125 J0.0
G2 Y3.0108 Z-3.0667 I0.0063 J0.0108
G2 X53.2325 Y3.0 Z-3.1 I0.0062 J-0.0108
G2 X53.2137 Y2.9892 Z-3.1333 I-0.0125 J0.0
G2 Y3.0108 Z-3.1667 I0.0063 J0.0108
G2 X53.2325 Y3.0 Z-3.2 I0.0062 J-0.0108
G2 X53.2137 Y2.9892 I-0.0125 J0.0
G2 Y3.0108 I0.0063 J0.0108
G2 X53.2325 Y3.0 I0.0062 J-0.0108
G0 Z3.0
G0 X30.1425 Y18.41
G0 Z0.01
G1 F1000.0 Z0.0
G2 F2000.0 X30.1238 Y18.3992 Z-0.0333 I-0.0125 J0.0
G2 Y18.4208 Z-0.0667 I0.0062 J0.0108
G2 X30.1425 Y18.41 Z-0.1 I0.0063 J-0.0108
G2 X30.1238 Y18.3992 Z-0.1333 I-0.0125 J0.0
G2 Y18.4208 Z-0.1667 I0.0062 J0.0108
G2 X30.1425 Y18.41 Z-0.2 I0.0063 J-0.0108
G2 X30.1238 Y18.3992 Z-0.2333 I-0.0125 J0.0
G2 Y18.4208 Z-0.2667 I0.0062 J0.0108
G2 X30.1425 Y18.41 Z-0.3 I0.0063 J-0.0108
G2 X30.1238 Y18.3992 Z-0.3333 I-0.0125 J0.0
G2 Y18.4208 Z-0.3667 I0.0062 J0.0108
G2 X30.1425 Y18.41 Z-0.4 I0.0063 J-0.0108
G2 X30.1238 Y18.3992 Z-0.4333 I-0.0125 J0.0
G2 Y18.4208 Z-0.4667 I0.0062 J0.0108
G2 X30.1425 Y18.41 Z-0.5 I0.0063 J-0.0108
G2 X30.1238 Y18.3992 Z-0.5333 I-0.0125 J0.0
G2 Y18.4208 Z-0.5667 I0.0062 J0.0108
G2 X30.1425 Y18.41 Z-0.6 I0.0063 J-0.0108
G2 X30.1238 Y18.3992 Z-0.6333 I-0.0125 J0.0
G2 Y18.4208 Z-0.6667 I0.0062 J0.0108
G2 X30.1425 Y18.41 Z-0.7 I0.0063 J-0.0108
G2 X30.1238 Y18.3992 Z-0.7333 I-0.0125 J0.0
G2 Y18.4208 Z-0.7667 I0.0062 J0.0108
G2 X30.1425 Y18.41 Z-0.8 I0.0063 J-0.0108
G2 X30.1238 Y18.3992 Z-0.8333 I-0.0125 J0.0
G2 Y18.4208 Z-0.8667 I0.0062 J0.0108
G2 X30.1425 Y18.41 Z-0.9 I0.0063 J-0.0108
G2 X30.1238 Y18.3992 Z-0.9333 I-0.0125 J0.0
G2 Y18.4208 Z-0.9667 I0.0062 J0.0108
G2 X30.1425 Y18.41 Z-1.0 I0.0063 J-0.0108
G2 X30.1238 Y18.3992 Z-1.0333 I-0.0125 J0.0
G2 Y18.4208 Z-1.0667 I0.0062 J0.0108
G2 X30.1425 Y18.41 Z-1.1 I0.0063 J-0.0108
G2 X30.1238 Y18.3992 Z-1.1333 I-0.0125 J0.0
G2 Y18.4208 Z-1.1667 I0.0062 J0.0108
G2 X30.1425 Y18.41 Z-1.2 I0.0063 J-0.0108
G2 X30.1238 Y18.3992 Z-1.2333 I-0.0125 J0.0
G2 Y18.4208 Z-1.2667 I0.0062 J0.0108
G2 X30.1425 Y18.41 Z-1.3 I0.0063 J-0.0108
G2 X30.1238 Y18.3992 Z-1.3333 I-0.0125 J0.0
G2 Y18.4208 Z-1.3667 I0.0062 J0.0108
G2 X30.1425 Y18.41 Z-1.4 I0.0063 J-0.0108
G2 X30.1238 Y18.3992 Z-1.4333 I-0.0125 J0.0
G2 Y18.4208 Z-1.4667 I0.0062 J0.0108
G2 X30.1425 Y18.41 Z-1.5 I0.0063 J-0.0108
G2 X30.1238 Y18.3992 Z-1.5333 I-0.0125 J0.0
G2 Y18.4208 Z-1.5667 I0.0062 J0.0108
G2 X30.1425 Y18.41 Z-1.6 I0.0063 J-0.0108
G2 X30.1238 Y18.3992 Z-1.6333 I-0.0125 J0.0
G2 Y18.4208 Z-1.6667 I0.0062 J0.0108
G2 X30.1425 Y18.41 Z-1.7 I0.0063 J-0.0108
G2 X30.1238 Y18.3992 Z-1.7333 I-0.0125 J0.0
G2 Y18.4208 Z-1.7667 I0.0062 J0.0108
G2 X30.1425 Y18.41 Z-1.8 I0.0063 J-0.0108
G2 X30.1238 Y18.3992 Z-1.8333 I-0.0125 J0.0
G2 Y18.4208 Z-1.8667 I0.0062 J0.0108
G2 X30.1425 Y18.41 Z-1.9 I0.0063 J-0.0108
G2 X30.1238 Y18.3992 Z-1.9333 I-0.0125 J0.0
G2 Y18.4208 Z-1.9667 I0.0062 J0.0108
G2 X30.1425 Y18.41 Z-2.0 I0.0063 J-0.0108
G2 X30.1238 Y18.3992 Z-2.0333 I-0.0125 J0.0
G2 Y18.4208 Z-2.0667 I0.0062 J0.0108
G2 X30.1425 Y18.41 Z-2.1 I0.0063 J-0.0108
G2 X30.1238 Y18.3992 Z-2.1333 I-0.0125 J0.0
G2 Y18.4208 Z-2.1667 I0.0062 J0.0108
G2 X30.1425 Y18.41 Z-2.2 I0.0063 J-0.0108
G2 X30.1238 Y18.3992 Z-2.2333 I-0.0125 J0.0
G2 Y18.4208 Z-2.2667 I0.0062 J0.0108
G2 X30.1425 Y18.41 Z-2.3 I0.0063 J-0.0108
G2 X30.1238 Y18.3992 Z-2.3333 I-0.0125 J0.0
G2 Y18.4208 Z-2.3667 I0.0062 J0.0108
G2 X30.1425 Y18.41 Z-2.4 I0.0063 J-0.0108
G2 X30.1238 Y18.3992 Z-2.4333 I-0.0125 J0.0
G2 Y18.4208 Z-2.4667 I0.0063 J0.0108
G2 X30.1425 Y18.41 Z-2.5 I0.0062 J-0.0108
G2 X30.1238 Y18.3992 Z-2.5333 I-0.0125 J0.0
G2 Y18.4208 Z-2.5667 I0.0063 J0.0108
G2 X30.1425 Y18.41 Z-2.6 I0.0062 J-0.0108
G2 X30.1238 Y18.3992 Z-2.6333 I-0.0125 J0.0
G2 Y18.4208 Z-2.6667 I0.0063 J0.0108
G2 X30.1425 Y18.41 Z-2.7 I0.0062 J-0.0108
G2 X30.1238 Y18.3992 Z-2.7333 I-0.0125 J0.0
G2 Y18.4208 Z-2.7667 I0.0063 J0.0108
G2 X30.1425 Y18.41 Z-2.8 I0.0062 J-0.0108
G2 X30.1238 Y18.3992 Z-2.8333 I-0.0125 J0.0
G2 Y18.4208 Z-2.8667 I0.0063 J0.0108
G2 X30.1425 Y18.41 Z-2.9 I0.0062 J-0.0108
G2 X30.1238 Y18.3992 Z-2.9333 I-0.0125 J0.0
G2 Y18.4208 Z-2.9667 I0.0063 J0.0108
G2 X30.1425 Y18.41 Z-3.0 I0.0062 J-0.0108
G2 X30.1238 Y18.3992 Z-3.0333 I-0.0125 J0.0
G2 Y18.4208 Z-3.0667 I0.0063 J0.0108
G2 X30.1425 Y18.41 Z-3.1 I0.0062 J-0.0108
G2 X30.1238 Y18.3992 Z-3.1333 I-0.0125 J0.0
G2 Y18.4208 Z-3.1667 I0.0063 J0.0108
G2 X30.1425 Y18.41 Z-3.2 I0.0062 J-0.0108
G2 X30.1238 Y18.3992 I-0.0125 J0.0
G2 Y18.4208 I0.0063 J0.0108
G2 X30.1425 Y18.41 I0.0062 J-0.0108
G0 Z3.0
G0 X13.9525 Y28.96
G0 Z0.01
G1 F1000.0 Z0.0
G2 F2000.0 X13.9338 Y28.9492 Z-0.0333 I-0.0125 J0.0
G2 Y28.9708 Z-0.0667 I0.0062 J0.0108
G2 X13.9525 Y28.96 Z-0.1 I0.0063 J-0.0108
G2 X13.9338 Y28.9492 Z-0.1333 I-0.0125 J0.0
G2 Y28.9708 Z-0.1667 I0.0062 J0.0108
G2 X13.9525 Y28.96 Z-0.2 I0.0063 J-0.0108
G2 X13.9338 Y28.9492 Z-0.2333 I-0.0125 J0.0
G2 Y28.9708 Z-0.2667 I0.0062 J0.0108
G2 X13.9525 Y28.96 Z-0.3 I0.0063 J-0.0108
G2 X13.9338 Y28.9492 Z-0.3333 I-0.0125 J0.0
G2 Y28.9708 Z-0.3667 I0.0062 J0.0108
G2 X13.9525 Y28.96 Z-0.4 I0.0063 J-0.0108
G2 X13.9338 Y28.9492 Z-0.4333 I-0.0125 J0.0
G2 Y28.9708 Z-0.4667 I0.0062 J0.0108
G2 X13.9525 Y28.96 Z-0.5 I0.0063 J-0.0108
G2 X13.9338 Y28.9492 Z-0.5333 I-0.0125 J0.0
G2 Y28.9708 Z-0.5667 I0.0062 J0.0108
G2 X13.9525 Y28.96 Z-0.6 I0.0063 J-0.0108
G2 X13.9338 Y28.9492 Z-0.6333 I-0.0125 J0.0
G2 Y28.9708 Z-0.6667 I0.0062 J0.0108
G2 X13.9525 Y28.96 Z-0.7 I0.0063 J-0.0108
G2 X13.9338 Y28.9492 Z-0.7333 I-0.0125 J0.0
G2 Y28.9708 Z-0.7667 I0.0062 J0.0108
G2 X13.9525 Y28.96 Z-0.8 I0.0063 J-0.0108
G2 X13.9338 Y28.9492 Z-0.8333 I-0.0125 J0.0
G2 Y28.9708 Z-0.8667 I0.0062 J0.0108
G2 X13.9525 Y28.96 Z-0.9 I0.0063 J-0.0108
G2 X13.9338 Y28.9492 Z-0.9333 I-0.0125 J0.0
G2 Y28.9708 Z-0.9667 I0.0062 J0.0108
G2 X13.9525 Y28.96 Z-1.0 I0.0063 J-0.0108
G2 X13.9338 Y28.9492 Z-1.0333 I-0.0125 J0.0
G2 Y28.9708 Z-1.0667 I0.0062 J0.0108
G2 X13.9525 Y28.96 Z-1.1 I0.0063 J-0.0108
G2 X13.9338 Y28.9492 Z-1.1333 I-0.0125 J0.0
G2 Y28.9708 Z-1.1667 I0.0062 J0.0108
G2 X13.9525 Y28.96 Z-1.2 I0.0063 J-0.0108
G2 X13.9338 Y28.9492 Z-1.2333 I-0.0125 J0.0
G2 Y28.9708 Z-1.2667 I0.0062 J0.0108
G2 X13.9525 Y28.96 Z-1.3 I0.0063 J-0.0108
G2 X13.9338 Y28.9492 Z-1.3333 I-0.0125 J0.0
G2 Y28.9708 Z-1.3667 I0.0062 J0.0108
G2 X13.9525 Y28.96 Z-1.4 I0.0063 J-0.0108
G2 X13.9338 Y28.9492 Z-1.4333 I-0.0125 J0.0
G2 Y28.9708 Z-1.4667 I0.0062 J0.0108
G2 X13.9525 Y28.96 Z-1.5 I0.0063 J-0.0108
G2 X13.9338 Y28.9492 Z-1.5333 I-0.0125 J0.0
G2 Y28.9708 Z-1.5667 I0.0062 J0.0108
G2 X13.9525 Y28.96 Z-1.6 I0.0063 J-0.0108
G2 X13.9338 Y28.9492 Z-1.6333 I-0.0125 J0.0
G2 Y28.9708 Z-1.6667 I0.0062 J0.0108
G2 X13.9525 Y28.96 Z-1.7 I0.0063 J-0.0108
G2 X13.9338 Y28.9492 Z-1.7333 I-0.0125 J0.0
G2 Y28.9708 Z-1.7667 I0.0062 J0.0108
G2 X13.9525 Y28.96 Z-1.8 I0.0063 J-0.0108
G2 X13.9338 Y28.9492 Z-1.8333 I-0.0125 J0.0
G2 Y28.9708 Z-1.8667 I0.0062 J0.0108
G2 X13.9525 Y28.96 Z-1.9 I0.0063 J-0.0108
G2 X13.9338 Y28.9492 Z-1.9333 I-0.0125 J0.0
G2 Y28.9708 Z-1.9667 I0.0062 J0.0108
G2 X13.9525 Y28.96 Z-2.0 I0.0063 J-0.0108
G2 X13.9338 Y28.9492 Z-2.0333 I-0.0125 J0.0
G2 Y28.9708 Z-2.0667 I0.0062 J0.0108
G2 X13.9525 Y28.96 Z-2.1 I0.0063 J-0.0108
G2 X13.9338 Y28.9492 Z-2.1333 I-0.0125 J0.0
G2 Y28.9708 Z-2.1667 I0.0062 J0.0108
G2 X13.9525 Y28.96 Z-2.2 I0.0063 J-0.0108
G2 X13.9338 Y28.9492 Z-2.2333 I-0.0125 J0.0
G2 Y28.9708 Z-2.2667 I0.0062 J0.0108
G2 X13.9525 Y28.96 Z-2.3 I0.0063 J-0.0108
G2 X13.9338 Y28.9492 Z-2.3333 I-0.0125 J0.0
G2 Y28.9708 Z-2.3667 I0.0062 J0.0108
G2 X13.9525 Y28.96 Z-2.4 I0.0063 J-0.0108
G2 X13.9338 Y28.9492 Z-2.4333 I-0.0125 J0.0
G2 Y28.9708 Z-2.4667 I0.0062 J0.0108
G2 X13.9525 Y28.96 Z-2.5 I0.0063 J-0.0108
G2 X13.9338 Y28.9492 Z-2.5333 I-0.0125 J0.0
G2 Y28.9708 Z-2.5667 I0.0062 J0.0108
G2 X13.9525 Y28.96 Z-2.6 I0.0063 J-0.0108
G2 X13.9338 Y28.9492 Z-2.6333 I-0.0125 J0.0
G2 Y28.9708 Z-2.6667 I0.0063 J0.0108
G2 X13.9525 Y28.96 Z-2.7 I0.0062 J-0.0108
G2 X13.9338 Y28.9492 Z-2.7333 I-0.0125 J0.0
G2 Y28.9708 Z-2.7667 I0.0063 J0.0108
G2 X13.9525 Y28.96 Z-2.8 I0.0062 J-0.0108
G2 X13.9338 Y28.9492 Z-2.8333 I-0.0125 J0.0
G2 Y28.9708 Z-2.8667 I0.0063 J0.0108
G2 X13.9525 Y28.96 Z-2.9 I0.0062 J-0.0108
G2 X13.9338 Y28.9492 Z-2.9333 I-0.0125 J0.0
G2 Y28.9708 Z-2.9667 I0.0063 J0.0108
G2 X13.9525 Y28.96 Z-3.0 I0.0062 J-0.0108
G2 X13.9338 Y28.9492 Z-3.0333 I-0.0125 J0.0
G2 Y28.9708 Z-3.0667 I0.0063 J0.0108
G2 X13.9525 Y28.96 Z-3.1 I0.0062 J-0.0108
G2 X13.9338 Y28.9492 Z-3.1333 I-0.0125 J0.0
G2 Y28.9708 Z-3.1667 I0.0063 J0.0108
G2 X13.9525 Y28.96 Z-3.2 I0.0062 J-0.0108
G2 X13.9338 Y28.9492 I-0.0125 J0.0
G2 Y28.9708 I0.0063 J0.0108
G2 X13.9525 Y28.96 I0.0062 J-0.0108
G0 Z3.0
G0 X7.5225 Y14.47
G0 Z0.01
G1 F1000.0 Z0.0
G2 F2000.0 X7.5038 Y14.4592 Z-0.0333 I-0.0125 J0.0
G2 Y14.4808 Z-0.0667 I0.0062 J0.0108
G2 X7.5225 Y14.47 Z-0.1 I0.0063 J-0.0108
G2 X7.5038 Y14.4592 Z-0.1333 I-0.0125 J0.0
G2 Y14.4808 Z-0.1667 I0.0062 J0.0108
G2 X7.5225 Y14.47 Z-0.2 I0.0063 J-0.0108
G2 X7.5038 Y14.4592 Z-0.2333 I-0.0125 J0.0
G2 Y14.4808 Z-0.2667 I0.0062 J0.0108
G2 X7.5225 Y14.47 Z-0.3 I0.0063 J-0.0108
G2 X7.5038 Y14.4592 Z-0.3333 I-0.0125 J0.0
G2 Y14.4808 Z-0.3667 I0.0063 J0.0108
G2 X7.5225 Y14.47 Z-0.4 I0.0062 J-0.0108
G2 X7.5038 Y14.4592 Z-0.4333 I-0.0125 J0.0
G2 Y14.4808 Z-0.4667 I0.0063 J0.0108
G2 X7.5225 Y14.47 Z-0.5 I0.0062 J-0.0108
G2 X7.5038 Y14.4592 Z-0.5333 I-0.0125 J0.0
G2 Y14.4808 Z-0.5667 I0.0063 J0.0108
G2 X7.5225 Y14.47 Z-0.6 I0.0062 J-0.0108
G2 X7.5038 Y14.4592 Z-0.6333 I-0.0125 J0.0
G2 Y14.4808 Z-0.6667 I0.0062 J0.0108
G2 X7.5225 Y14.47 Z-0.7 I0.0063 J-0.0108
G2 X7.5038 Y14.4592 Z-0.7333 I-0.0125 J0.0
G2 Y14.4808 Z-0.7667 I0.0062 J0.0108
G2 X7.5225 Y14.47 Z-0.8 I0.0063 J-0.0108
G2 X7.5038 Y14.4592 Z-0.8333 I-0.0125 J0.0
G2 Y14.4808 Z-0.8667 I0.0062 J0.0108
G2 X7.5225 Y14.47 Z-0.9 I0.0063 J-0.0108
G2 X7.5038 Y14.4592 Z-0.9333 I-0.0125 J0.0
G2 Y14.4808 Z-0.9667 I0.0062 J0.0108
G2 X7.5225 Y14.47 Z-1.0 I0.0063 J-0.0108
G2 X7.5038 Y14.4592 Z-1.0333 I-0.0125 J0.0
G2 Y14.4808 Z-1.0667 I0.0062 J0.0108
G2 X7.5225 Y14.47 Z-1.1 I0.0063 J-0.0108
G2 X7.5038 Y14.4592 Z-1.1333 I-0.0125 J0.0
G2 Y14.4808 Z-1.1667 I0.0062 J0.0108
G2 X7.5225 Y14.47 Z-1.2 I0.0063 J-0.0108
G2 X7.5038 Y14.4592 Z-1.2333 I-0.0125 J0.0
G2 Y14.4808 Z-1.2667 I0.0062 J0.0108
G2 X7.5225 Y14.47 Z-1.3 I0.0063 J-0.0108
G2 X7.5038 Y14.4592 Z-1.3333 I-0.0125 J0.0
G2 Y14.4808 Z-1.3667 I0.0062 J0.0108
G2 X7.5225 Y14.47 Z-1.4 I0.0063 J-0.0108
G2 X7.5038 Y14.4592 Z-1.4333 I-0.0125 J0.0
G2 Y14.4808 Z-1.4667 I0.0062 J0.0108
G2 X7.5225 Y14.47 Z-1.5 I0.0063 J-0.0108
G2 X7.5038 Y14.4592 Z-1.5333 I-0.0125 J0.0
G2 Y14.4808 Z-1.5667 I0.0062 J0.0108
G2 X7.5225 Y14.47 Z-1.6 I0.0063 J-0.0108
G2 X7.5038 Y14.4592 Z-1.6333 I-0.0125 J0.0
G2 Y14.4808 Z-1.6667 I0.0062 J0.0108
G2 X7.5225 Y14.47 Z-1.7 I0.0063 J-0.0108
G2 X7.5038 Y14.4592 Z-1.7333 I-0.0125 J0.0
G2 Y14.4808 Z-1.7667 I0.0062 J0.0108
G2 X7.5225 Y14.47 Z-1.8 I0.0063 J-0.0108
G2 X7.5038 Y14.4592 Z-1.8333 I-0.0125 J0.0
G2 Y14.4808 Z-1.8667 I0.0062 J0.0108
G2 X7.5225 Y14.47 Z-1.9 I0.0063 J-0.0108
G2 X7.5038 Y14.4592 Z-1.9333 I-0.0125 J0.0
G2 Y14.4808 Z-1.9667 I0.0062 J0.0108
G2 X7.5225 Y14.47 Z-2.0 I0.0063 J-0.0108
G2 X7.5038 Y14.4592 Z-2.0333 I-0.0125 J0.0
G2 Y14.4808 Z-2.0667 I0.0062 J0.0108
G2 X7.5225 Y14.47 Z-2.1 I0.0063 J-0.0108
G2 X7.5038 Y14.4592 Z-2.1333 I-0.0125 J0.0
G2 Y14.4808 Z-2.1667 I0.0062 J0.0108
G2 X7.5225 Y14.47 Z-2.2 I0.0063 J-0.0108
G2 X7.5038 Y14.4592 Z-2.2333 I-0.0125 J0.0
G2 Y14.4808 Z-2.2667 I0.0062 J0.0108
G2 X7.5225 Y14.47 Z-2.3 I0.0063 J-0.0108
G2 X7.5038 Y14.4592 Z-2.3333 I-0.0125 J0.0
G2 Y14.4808 Z-2.3667 I0.0063 J0.0108
G2 X7.5225 Y14.47 Z-2.4 I0.0062 J-0.0108
G2 X7.5038 Y14.4592 Z-2.4333 I-0.0125 J0.0
G2 Y14.4808 Z-2.4667 I0.0063 J0.0108
G2 X7.5225 Y14.47 Z-2.5 I0.0062 J-0.0108
G2 X7.5038 Y14.4592 Z-2.5333 I-0.0125 J0.0
G2 Y14.4808 Z-2.5667 I0.0063 J0.0108
G2 X7.5225 Y14.47 Z-2.6 I0.0062 J-0.0108
G2 X7.5038 Y14.4592 Z-2.6333 I-0.0125 J0.0
G2 Y14.4808 Z-2.6667 I0.0063 J0.0108
G2 X7.5225 Y14.47 Z-2.7 I0.0062 J-0.0108
G2 X7.5038 Y14.4592 Z-2.7333 I-0.0125 J0.0
G2 Y14.4808 Z-2.7667 I0.0063 J0.0108
G2 X7.5225 Y14.47 Z-2.8 I0.0062 J-0.0108
G2 X7.5038 Y14.4592 Z-2.8333 I-0.0125 J0.0
G2 Y14.4808 Z-2.8667 I0.0063 J0.0108
G2 X7.5225 Y14.47 Z-2.9 I0.0062 J-0.0108
G2 X7.5038 Y14.4592 Z-2.9333 I-0.0125 J0.0
G2 Y14.4808 Z-2.9667 I0.0063 J0.0108
G2 X7.5225 Y14.47 Z-3.0 I0.0062 J-0.0108
G2 X7.5038 Y14.4592 Z-3.0333 I-0.0125 J0.0
G2 Y14.4808 Z-3.0667 I0.0063 J0.0108
G2 X7.5225 Y14.47 Z-3.1 I0.0062 J-0.0108
G2 X7.5038 Y14.4592 Z-3.1333 I-0.0125 J0.0
G2 Y14.4808 Z-3.1667 I0.0063 J0.0108
G2 X7.5225 Y14.47 Z-3.2 I0.0062 J-0.0108
G2 X7.5037 Y14.4592 I-0.0125 J0.0
G2 X7.5038 Y14.4808 I0.0063 J0.0108
G2 X7.5225 Y14.47 I0.0062 J-0.0108
G0 Z3.0
G0 X7.5125 Y3.0
G0 Z0.01
G1 F1000.0 Z0.0
G2 F2000.0 X7.4938 Y2.9892 Z-0.0333 I-0.0125 J0.0
G2 Y3.0108 Z-0.0667 I0.0062 J0.0108
G2 X7.5125 Y3.0 Z-0.1 I0.0063 J-0.0108
G2 X7.4938 Y2.9892 Z-0.1333 I-0.0125 J0.0
G2 Y3.0108 Z-0.1667 I0.0062 J0.0108
G2 X7.5125 Y3.0 Z-0.2 I0.0063 J-0.0108
G2 X7.4938 Y2.9892 Z-0.2333 I-0.0125 J0.0
G2 Y3.0108 Z-0.2667 I0.0062 J0.0108
G2 X7.5125 Y3.0 Z-0.3 I0.0063 J-0.0108
G2 X7.4938 Y2.9892 Z-0.3333 I-0.0125 J0.0
G2 Y3.0108 Z-0.3667 I0.0063 J0.0108
G2 X7.5125 Y3.0 Z-0.4 I0.0062 J-0.0108
G2 X7.4938 Y2.9892 Z-0.4333 I-0.0125 J0.0
G2 Y3.0108 Z-0.4667 I0.0063 J0.0108
G2 X7.5125 Y3.0 Z-0.5 I0.0062 J-0.0108
G2 X7.4938 Y2.9892 Z-0.5333 I-0.0125 J0.0
G2 Y3.0108 Z-0.5667 I0.0063 J0.0108
G2 X7.5125 Y3.0 Z-0.6 I0.0062 J-0.0108
G2 X7.4938 Y2.9892 Z-0.6333 I-0.0125 J0.0
G2 Y3.0108 Z-0.6667 I0.0062 J0.0108
G2 X7.5125 Y3.0 Z-0.7 I0.0063 J-0.0108
G2 X7.4938 Y2.9892 Z-0.7333 I-0.0125 J0.0
G2 Y3.0108 Z-0.7667 I0.0062 J0.0108
G2 X7.5125 Y3.0 Z-0.8 I0.0063 J-0.0108
G2 X7.4938 Y2.9892 Z-0.8333 I-0.0125 J0.0
G2 Y3.0108 Z-0.8667 I0.0062 J0.0108
G2 X7.5125 Y3.0 Z-0.9 I0.0063 J-0.0108
G2 X7.4938 Y2.9892 Z-0.9333 I-0.0125 J0.0
G2 Y3.0108 Z-0.9667 I0.0062 J0.0108
G2 X7.5125 Y3.0 Z-1.0 I0.0063 J-0.0108
G2 X7.4938 Y2.9892 Z-1.0333 I-0.0125 J0.0
G2 Y3.0108 Z-1.0667 I0.0062 J0.0108
G2 X7.5125 Y3.0 Z-1.1 I0.0063 J-0.0108
G2 X7.4938 Y2.9892 Z-1.1333 I-0.0125 J0.0
G2 Y3.0108 Z-1.1667 I0.0062 J0.0108
G2 X7.5125 Y3.0 Z-1.2 I0.0063 J-0.0108
G2 X7.4938 Y2.9892 Z-1.2333 I-0.0125 J0.0
G2 Y3.0108 Z-1.2667 I0.0062 J0.0108
G2 X7.5125 Y3.0 Z-1.3 I0.0063 J-0.0108
G2 X7.4938 Y2.9892 Z-1.3333 I-0.0125 J0.0
G2 Y3.0108 Z-1.3667 I0.0062 J0.0108
G2 X7.5125 Y3.0 Z-1.4 I0.0063 J-0.0108
G2 X7.4938 Y2.9892 Z-1.4333 I-0.0125 J0.0
G2 Y3.0108 Z-1.4667 I0.0062 J0.0108
G2 X7.5125 Y3.0 Z-1.5 I0.0063 J-0.0108
G2 X7.4938 Y2.9892 Z-1.5333 I-0.0125 J0.0
G2 Y3.0108 Z-1.5667 I0.0062 J0.0108
G2 X7.5125 Y3.0 Z-1.6 I0.0063 J-0.0108
G2 X7.4938 Y2.9892 Z-1.6333 I-0.0125 J0.0
G2 Y3.0108 Z-1.6667 I0.0062 J0.0108
G2 X7.5125 Y3.0 Z-1.7 I0.0063 J-0.0108
G2 X7.4938 Y2.9892 Z-1.7333 I-0.0125 J0.0
G2 Y3.0108 Z-1.7667 I0.0062 J0.0108
G2 X7.5125 Y3.0 Z-1.8 I0.0063 J-0.0108
G2 X7.4938 Y2.9892 Z-1.8333 I-0.0125 J0.0
G2 Y3.0108 Z-1.8667 I0.0062 J0.0108
G2 X7.5125 Y3.0 Z-1.9 I0.0063 J-0.0108
G2 X7.4938 Y2.9892 Z-1.9333 I-0.0125 J0.0
G2 Y3.0108 Z-1.9667 I0.0062 J0.0108
G2 X7.5125 Y3.0 Z-2.0 I0.0063 J-0.0108
G2 X7.4938 Y2.9892 Z-2.0333 I-0.0125 J0.0
G2 Y3.0108 Z-2.0667 I0.0062 J0.0108
G2 X7.5125 Y3.0 Z-2.1 I0.0063 J-0.0108
G2 X7.4938 Y2.9892 Z-2.1333 I-0.0125 J0.0
G2 Y3.0108 Z-2.1667 I0.0062 J0.0108
G2 X7.5125 Y3.0 Z-2.2 I0.0063 J-0.0108
G2 X7.4938 Y2.9892 Z-2.2333 I-0.0125 J0.0
G2 Y3.0108 Z-2.2667 I0.0062 J0.0108
G2 X7.5125 Y3.0 Z-2.3 I0.0063 J-0.0108
G2 X7.4938 Y2.9892 Z-2.3333 I-0.0125 J0.0
G2 Y3.0108 Z-2.3667 I0.0063 J0.0108
G2 X7.5125 Y3.0 Z-2.4 I0.0062 J-0.0108
G2 X7.4938 Y2.9892 Z-2.4333 I-0.0125 J0.0
G2 Y3.0108 Z-2.4667 I0.0063 J0.0108
G2 X7.5125 Y3.0 Z-2.5 I0.0062 J-0.0108
G2 X7.4938 Y2.9892 Z-2.5333 I-0.0125 J0.0
G2 Y3.0108 Z-2.5667 I0.0063 J0.0108
G2 X7.5125 Y3.0 Z-2.6 I0.0062 J-0.0108
G2 X7.4938 Y2.9892 Z-2.6333 I-0.0125 J0.0
G2 Y3.0108 Z-2.6667 I0.0063 J0.0108
G2 X7.5125 Y3.0 Z-2.7 I0.0062 J-0.0108
G2 X7.4938 Y2.9892 Z-2.7333 I-0.0125 J0.0
G2 Y3.0108 Z-2.7667 I0.0063 J0.0108
G2 X7.5125 Y3.0 Z-2.8 I0.0062 J-0.0108
G2 X7.4938 Y2.9892 Z-2.8333 I-0.0125 J0.0
G2 Y3.0108 Z-2.8667 I0.0063 J0.0108
G2 X7.5125 Y3.0 Z-2.9 I0.0062 J-0.0108
G2 X7.4938 Y2.9892 Z-2.9333 I-0.0125 J0.0
G2 Y3.0108 Z-2.9667 I0.0063 J0.0108
G2 X7.5125 Y3.0 Z-3.0 I0.0062 J-0.0108
G2 X7.4938 Y2.9892 Z-3.0333 I-0.0125 J0.0
G2 Y3.0108 Z-3.0667 I0.0063 J0.0108
G2 X7.5125 Y3.0 Z-3.1 I0.0062 J-0.0108
G2 X7.4938 Y2.9892 Z-3.1333 I-0.0125 J0.0
G2 Y3.0108 Z-3.1667 I0.0063 J0.0108
G2 X7.5125 Y3.0 Z-3.2 I0.0062 J-0.0108
G2 X7.4938 Y2.9892 I-0.0125 J0.0
G2 Y3.0108 I0.0063 J0.0108
G2 X7.5125 Y3.0 I0.0062 J-0.0108
G0 Z3.0
G0 X13.9525 Y51.73
G0 Z0.01
G1 F1000.0 Z0.0
G2 F2000.0 X13.9338 Y51.7192 Z-0.0333 I-0.0125 J0.0
G2 Y51.7408 Z-0.0667 I0.0063 J0.0108
G2 X13.9525 Y51.73 Z-0.1 I0.0062 J-0.0108
G2 X13.9338 Y51.7192 Z-0.1333 I-0.0125 J0.0
G2 Y51.7408 Z-0.1667 I0.0063 J0.0108
G2 X13.9525 Y51.73 Z-0.2 I0.0062 J-0.0108
G2 X13.9338 Y51.7192 Z-0.2333 I-0.0125 J0.0
G2 Y51.7408 Z-0.2667 I0.0063 J0.0108
G2 X13.9525 Y51.73 Z-0.3 I0.0062 J-0.0108
G2 X13.9338 Y51.7192 Z-0.3333 I-0.0125 J0.0
G2 Y51.7408 Z-0.3667 I0.0063 J0.0108
G2 X13.9525 Y51.73 Z-0.4 I0.0062 J-0.0108
G2 X13.9338 Y51.7192 Z-0.4333 I-0.0125 J0.0
G2 Y51.7408 Z-0.4667 I0.0063 J0.0108
G2 X13.9525 Y51.73 Z-0.5 I0.0062 J-0.0108
G2 X13.9338 Y51.7192 Z-0.5333 I-0.0125 J0.0
G2 Y51.7408 Z-0.5667 I0.0063 J0.0108
G2 X13.9525 Y51.73 Z-0.6 I0.0062 J-0.0108
G2 X13.9338 Y51.7192 Z-0.6333 I-0.0125 J0.0
G2 Y51.7408 Z-0.6667 I0.0063 J0.0108
G2 X13.9525 Y51.73 Z-0.7 I0.0062 J-0.0108
G2 X13.9338 Y51.7192 Z-0.7333 I-0.0125 J0.0
G2 Y51.7408 Z-0.7667 I0.0063 J0.0108
G2 X13.9525 Y51.73 Z-0.8 I0.0062 J-0.0108
G2 X13.9338 Y51.7192 Z-0.8333 I-0.0125 J0.0
G2 Y51.7408 Z-0.8667 I0.0063 J0.0108
G2 X13.9525 Y51.73 Z-0.9 I0.0062 J-0.0108
G2 X13.9338 Y51.7192 Z-0.9333 I-0.0125 J0.0
G2 Y51.7408 Z-0.9667 I0.0063 J0.0108
G2 X13.9525 Y51.73 Z-1.0 I0.0062 J-0.0108
G2 X13.9338 Y51.7192 Z-1.0333 I-0.0125 J0.0
G2 Y51.7408 Z-1.0667 I0.0063 J0.0108
G2 X13.9525 Y51.73 Z-1.1 I0.0062 J-0.0108
G2 X13.9338 Y51.7192 Z-1.1333 I-0.0125 J0.0
G2 Y51.7408 Z-1.1667 I0.0063 J0.0108
G2 X13.9525 Y51.73 Z-1.2 I0.0062 J-0.0108
G2 X13.9338 Y51.7192 Z-1.2333 I-0.0125 J0.0
G2 Y51.7408 Z-1.2667 I0.0063 J0.0108
G2 X13.9525 Y51.73 Z-1.3 I0.0062 J-0.0108
G2 X13.9338 Y51.7192 Z-1.3333 I-0.0125 J0.0
G2 Y51.7408 Z-1.3667 I0.0063 J0.0108
G2 X13.9525 Y51.73 Z-1.4 I0.0062 J-0.0108
G2 X13.9338 Y51.7192 Z-1.4333 I-0.0125 J0.0
G2 Y51.7408 Z-1.4667 I0.0063 J0.0108
G2 X13.9525 Y51.73 Z-1.5 I0.0062 J-0.0108
G2 X13.9338 Y51.7192 Z-1.5333 I-0.0125 J0.0
G2 Y51.7408 Z-1.5667 I0.0063 J0.0108
G2 X13.9525 Y51.73 Z-1.6 I0.0062 J-0.0108
G2 X13.9338 Y51.7192 Z-1.6333 I-0.0125 J0.0
G2 Y51.7408 Z-1.6667 I0.0063 J0.0108
G2 X13.9525 Y51.73 Z-1.7 I0.0062 J-0.0108
G2 X13.9338 Y51.7192 Z-1.7333 I-0.0125 J0.0
G2 Y51.7408 Z-1.7667 I0.0063 J0.0108
G2 X13.9525 Y51.73 Z-1.8 I0.0062 J-0.0108
G2 X13.9338 Y51.7192 Z-1.8333 I-0.0125 J0.0
G2 Y51.7408 Z-1.8667 I0.0063 J0.0108
G2 X13.9525 Y51.73 Z-1.9 I0.0062 J-0.0108
G2 X13.9338 Y51.7192 Z-1.9333 I-0.0125 J0.0
G2 Y51.7408 Z-1.9667 I0.0063 J0.0108
G2 X13.9525 Y51.73 Z-2.0 I0.0062 J-0.0108
G2 X13.9338 Y51.7192 Z-2.0333 I-0.0125 J0.0
G2 Y51.7408 Z-2.0667 I0.0063 J0.0108
G2 X13.9525 Y51.73 Z-2.1 I0.0062 J-0.0108
G2 X13.9338 Y51.7192 Z-2.1333 I-0.0125 J0.0
G2 Y51.7408 Z-2.1667 I0.0063 J0.0108
G2 X13.9525 Y51.73 Z-2.2 I0.0062 J-0.0108
G2 X13.9338 Y51.7192 Z-2.2333 I-0.0125 J0.0
G2 Y51.7408 Z-2.2667 I0.0063 J0.0108
G2 X13.9525 Y51.73 Z-2.3 I0.0062 J-0.0108
G2 X13.9338 Y51.7192 Z-2.3333 I-0.0125 J0.0
G2 Y51.7408 Z-2.3667 I0.0063 J0.0108
G2 X13.9525 Y51.73 Z-2.4 I0.0062 J-0.0108
G2 X13.9338 Y51.7192 Z-2.4333 I-0.0125 J0.0
G2 Y51.7408 Z-2.4667 I0.0063 J0.0108
G2 X13.9525 Y51.73 Z-2.5 I0.0062 J-0.0108
G2 X13.9338 Y51.7192 Z-2.5333 I-0.0125 J0.0
G2 Y51.7408 Z-2.5667 I0.0063 J0.0108
G2 X13.9525 Y51.73 Z-2.6 I0.0062 J-0.0108
G2 X13.9338 Y51.7192 Z-2.6333 I-0.0125 J0.0
G2 Y51.7408 Z-2.6667 I0.0063 J0.0108
G2 X13.9525 Y51.73 Z-2.7 I0.0062 J-0.0108
G2 X13.9338 Y51.7192 Z-2.7333 I-0.0125 J0.0
G2 Y51.7408 Z-2.7667 I0.0063 J0.0108
G2 X13.9525 Y51.73 Z-2.8 I0.0062 J-0.0108
G2 X13.9338 Y51.7192 Z-2.8333 I-0.0125 J0.0
G2 Y51.7408 Z-2.8667 I0.0063 J0.0108
G2 X13.9525 Y51.73 Z-2.9 I0.0062 J-0.0108
G2 X13.9338 Y51.7192 Z-2.9333 I-0.0125 J0.0
G2 Y51.7408 Z-2.9667 I0.0063 J0.0108
G2 X13.9525 Y51.73 Z-3.0 I0.0062 J-0.0108
G2 X13.9338 Y51.7192 Z-3.0333 I-0.0125 J0.0
G2 Y51.7408 Z-3.0667 I0.0063 J0.0108
G2 X13.9525 Y51.73 Z-3.1 I0.0062 J-0.0108
G2 X13.9338 Y51.7192 Z-3.1333 I-0.0125 J0.0
G2 Y51.7408 Z-3.1667 I0.0063 J0.0108
G2 X13.9525 Y51.73 Z-3.2 I0.0062 J-0.0108
G2 X13.9338 Y51.7192 I-0.0125 J0.0
G2 Y51.7408 I0.0063 J0.0108
G2 X13.9525 Y51.73 I0.0062 J-0.0108
G0 Z3.0
G0 Y74.5
G0 Z0.01
G1 F1000.0 Z0.0
G2 F2000.0 X13.9338 Y74.4892 Z-0.0333 I-0.0125 J0.0
G2 Y74.5108 Z-0.0667 I0.0062 J0.0108
G2 X13.9525 Y74.5 Z-0.1 I0.0063 J-0.0108
G2 X13.9338 Y74.4892 Z-0.1333 I-0.0125 J0.0
G2 Y74.5108 Z-0.1667 I0.0062 J0.0108
G2 X13.9525 Y74.5 Z-0.2 I0.0063 J-0.0108
G2 X13.9338 Y74.4892 Z-0.2333 I-0.0125 J0.0
G2 Y74.5108 Z-0.2667 I0.0062 J0.0108
G2 X13.9525 Y74.5 Z-0.3 I0.0063 J-0.0108
G2 X13.9338 Y74.4892 Z-0.3333 I-0.0125 J0.0
G2 Y74.5108 Z-0.3667 I0.0062 J0.0108
G2 X13.9525 Y74.5 Z-0.4 I0.0063 J-0.0108
G2 X13.9338 Y74.4892 Z-0.4333 I-0.0125 J0.0
G2 Y74.5108 Z-0.4667 I0.0062 J0.0108
G2 X13.9525 Y74.5 Z-0.5 I0.0063 J-0.0108
G2 X13.9338 Y74.4892 Z-0.5333 I-0.0125 J0.0
G2 Y74.5108 Z-0.5667 I0.0062 J0.0108
G2 X13.9525 Y74.5 Z-0.6 I0.0063 J-0.0108
G2 X13.9338 Y74.4892 Z-0.6333 I-0.0125 J0.0
G2 Y74.5108 Z-0.6667 I0.0062 J0.0108
G2 X13.9525 Y74.5 Z-0.7 I0.0063 J-0.0108
G2 X13.9338 Y74.4892 Z-0.7333 I-0.0125 J0.0
G2 Y74.5108 Z-0.7667 I0.0062 J0.0108
G2 X13.9525 Y74.5 Z-0.8 I0.0063 J-0.0108
G2 X13.9338 Y74.4892 Z-0.8333 I-0.0125 J0.0
G2 Y74.5108 Z-0.8667 I0.0062 J0.0108
G2 X13.9525 Y74.5 Z-0.9 I0.0063 J-0.0108
