( Made using CamBam - http://www.cambam.co.uk )
( adsr_w_leds 11/23/2014 10:44:56 PM )
( T1 : 0.04 )
( T2 : 0.031 )
( T3 : 0.0039 )
G20 G90 G64 G40
G0 Z0.125
( T1 : 0.04 )
T1 M6
( Drill1 )
G17
M3 S1000
G0 X0.4514 Y1.0058
G98
G81 X0.4514 Y1.0058 Z-0.075 R0.125 F20.0
G81 X0.652 Z-0.075
G81 X0.1717 Y0.8672 Z-0.075
G81 X0.173 Y0.4252 Z-0.075
G81 X0.2126 Y0.1864 Z-0.075
G81 X1.1705 Y1.0044 Z-0.075
G81 X1.4506 Y1.0258 Z-0.075
G81 X1.7305 Y0.5066 Z-0.075
G81 X0.8511 Y1.5842 Z-0.075
G81 X0.6515 Y1.5853 Z-0.075
G81 X0.9307 Y1.8044 Z-0.075
G81 X1.1706 Z-0.075
G81 X0.2706 Y2.0035 Z-0.075
G81 X0.3717 Y2.3832 Z-0.075
G81 X0.2839 Y2.622 Z-0.075
G81 X0.2111 Y2.623 Z-0.075
G81 X1.9492 Y2.483 Z-0.075
G81 X2.988 Y2.4026 Z-0.075
G81 Y2.1232 Z-0.075
G80
( Drill2 )
G0 Z0.125
( T2 : 0.031 )
T2 M6
M3 S1000
G0 X0.4514 Y0.0465
G98
G81 X0.4514 Y0.0465 Z-0.075 R0.125 F20.0
G81 X0.6916 Y0.1468 Z-0.075
G81 Y0.3263 Z-0.075
G81 X0.7707 Y0.3856 Z-0.075
G81 Y0.4463 Z-0.075
G81 X0.652 Z-0.075
G81 Y0.5664 Z-0.075
G81 X0.7509 Y0.5651 Z-0.075
G81 X0.8512 Z-0.075
G81 X0.9502 Y0.5664 Z-0.075
G81 X1.0504 Z-0.075
G81 X1.1705 Y0.4463 Z-0.075
G81 X1.2101 Y0.3263 Z-0.075
G81 X1.2906 Y0.3249 Z-0.075
G81 X1.4494 Y0.466 Z-0.075
G81 X1.5296 Y0.6048 Z-0.075
G81 X1.6494 Y0.6652 Z-0.075
G81 X1.7494 Y0.6661 Z-0.075
G81 X1.8486 Y0.6652 Z-0.075
G81 X1.9495 Y0.6661 Z-0.075
G81 X2.0495 Z-0.075
G81 X2.1488 Y0.6653 Z-0.075
G81 X2.2491 Z-0.075
G81 X2.1496 Y0.5057 Z-0.075
G81 Y0.266 Z-0.075
G81 X2.0694 Y0.1263 Z-0.075
G81 X1.9693 Z-0.075
G81 X1.8486 Y0.2669 Z-0.075
G81 X1.7504 Y0.3858 Z-0.075
G81 X1.8504 Y0.5057 Z-0.075
G81 X1.85 Y0.9646 Z-0.075
G81 X1.9484 Z-0.075
G81 X2.0491 Y0.9658 Z-0.075
G81 X2.1487 Y0.9646 Z-0.075
G81 X2.2482 Z-0.075
G81 X2.1487 Y1.1446 Z-0.075
G81 X2.409 Y1.2453 Z-0.075
G81 X2.5289 Y1.3437 Z-0.075
G81 X2.6489 Z-0.075
G81 Y1.6639 Z-0.075
G81 X2.5289 Y1.6627 Z-0.075
G81 X2.4078 Y1.5656 Z-0.075
G81 X2.3094 Y1.6447 Z-0.075
G81 X2.1487 Y1.544 Z-0.075
G81 X2.0095 Y1.5428 Z-0.075
G81 X1.9088 Y1.6447 Z-0.075
G81 X1.8092 Y1.544 Z-0.075
G81 X1.6497 Z-0.075
G81 X1.5501 Y1.6651 Z-0.075
G81 X1.7301 Y1.7635 Z-0.075
G81 X1.7501 Y1.9636 Z-0.075
G81 X1.8497 Z-0.075
G81 X1.9492 Z-0.075
G81 X2.0488 Z-0.075
G81 X2.1483 Z-0.075
G81 X2.2491 Z-0.075
G81 X2.369 Y2.1232 Z-0.075
G81 X2.5286 Z-0.075
G81 X2.6089 Z-0.075
G81 X2.5082 Y2.2635 Z-0.075
G81 X2.5286 Y2.4038 Z-0.075
G81 X2.6089 Y2.4026 Z-0.075
G81 X2.5094 Y2.543 Z-0.075
G81 X2.369 Y2.4026 Z-0.075
G81 X2.2491 Y2.2623 Z-0.075
G81 X2.1495 Y2.2635 Z-0.075
G81 X2.05 Y2.2623 Z-0.075
G81 X1.9492 Z-0.075
G81 X1.8497 Y2.2635 Z-0.075
G81 X1.7501 Z-0.075
G81 X1.6494 Z-0.075
G81 X1.5504 Y2.402 Z-0.075
G81 X1.4304 Y2.5031 Z-0.075
G81 X1.1905 Y2.402 Z-0.075
G81 X1.0507 Y2.5031 Z-0.075
G81 Y2.2632 Z-0.075
G81 X0.9496 Y2.2622 Z-0.075
G81 X0.8515 Y2.2632 Z-0.075
G81 X0.7514 Y2.2622 Z-0.075
G81 X0.6503 Y2.2632 Z-0.075
G81 X0.5511 Z-0.075
G81 X0.451 Y2.2622 Z-0.075
G81 Y1.9638 Z-0.075
G81 X0.5511 Z-0.075
G81 X0.6513 Z-0.075
G81 X0.7514 Z-0.075
G81 X0.8515 Z-0.075
G81 X0.9506 Z-0.075
G81 X1.0507 Y1.9628 Z-0.075
G81 X1.25 Z-0.075
G81 Y2.1224 Z-0.075
G81 X1.5504 Y2.1234 Z-0.075
G81 X1.6494 Y1.9636 Z-0.075
G81 X1.2513 Y1.6638 Z-0.075
G81 X1.2502 Y1.5449 Z-0.075
G81 X1.0506 Y1.5842 Z-0.075
G81 X0.9111 Y1.3835 Z-0.075
G81 X1.0506 Y1.3039 Z-0.075
G81 X1.0703 Y1.1644 Z-0.075
G81 X0.9503 Y1.2047 Z-0.075
G81 X0.9502 Y0.8659 Z-0.075
G81 X0.8499 Y0.8646 Z-0.075
G81 X0.7509 Z-0.075
G81 X0.6507 Y0.8659 Z-0.075
G81 X0.5517 Y0.8646 Z-0.075
G81 X0.4528 Y0.8659 Z-0.075
G81 X0.3314 Y0.9253 Z-0.075
G81 X0.1704 Y0.9649 Z-0.075
G81 X0.1717 Y0.7445 Z-0.075
G81 Y0.5849 Z-0.075
G81 X0.3314 Y0.5255 Z-0.075
G81 X0.4514 Y0.5651 Z-0.075
G81 X0.5517 Y0.5664 Z-0.075
G81 X0.4514 Y0.4463 Z-0.075
G81 Y0.3447 Z-0.075
G81 X0.813 Y0.3249 Z-0.075
G81 X1.0504 Y0.8646 Z-0.075
G81 X1.1692 Z-0.075
G81 X1.2906 Y0.7247 Z-0.075
G81 X1.5307 Y0.9055 Z-0.075
G81 X1.6497 Y0.9646 Z-0.075
G81 X1.7493 Z-0.075
G81 X1.8488 Y1.1661 Z-0.075
G81 X1.6701 Y1.3053 Z-0.075
G81 X1.5501 Y1.1661 Z-0.075
G81 X1.4698 Z-0.075
G81 X1.3505 Y1.305 Z-0.075
G81 X0.5512 Y1.2058 Z-0.075
G81 X0.392 Y1.1851 Z-0.075
G81 Y1.2854 Z-0.075
G81 Y1.3846 Z-0.075
G81 X0.5109 Z-0.075
G81 X0.4716 Y1.5842 Z-0.075
G81 X0.3528 Z-0.075
G81 X0.3517 Y1.7641 Z-0.075
G81 X0.4716 Z-0.075
G81 X0.1718 Y1.7041 Z-0.075
G81 X0.0322 Z-0.075
G81 X0.1728 Y1.365 Z-0.075
G81 X1.4494 Y0.0659 Z-0.075
G81 X1.5701 Y0.1272 Z-0.075
G81 X2.41 Y0.3849 Z-0.075
G81 X2.4686 Y0.1254 Z-0.075
G81 X2.1295 Y1.7647 Z-0.075
G81 X2.5082 Y1.9828 Z-0.075
G81 X2.9076 Z-0.075
G81 Y2.1232 Z-0.075
G81 Y2.2635 Z-0.075
G81 Y2.4026 Z-0.075
G81 Y2.5418 Z-0.075
G80
( Engrave1 )
G0 Z0.125
( T3 : 0.0039 )
T3 M6
M3 S1000
G0 X2.8732 Y0.0152
G0 Z0.0748
G1 F20.0 Z-0.0027
G1 F40.0 X3.0879
G3 X3.0897 Y0.017 I0.0 J0.0018
G1 Y0.3016
G1 Y0.5862
G3 X3.0879 Y0.588 I-0.0018 J0.0
G1 X2.8732
G1 X2.6586
G3 X2.6568 Y0.5862 I0.0 J-0.0018
G1 Y0.3016
G1 Y0.017
G3 X2.6586 Y0.0152 I0.0018 J0.0
G1 X2.8732
G0 Z0.125
G0 X2.616 Y0.0248
G0 Z0.0748
G1 F20.0 Z-0.0027
G1 F40.0 X2.6183 Y0.0874
G1 Y0.0875
G3 X2.6181 Y0.2918 I-20.991 J0.0758
G1 X2.6154 Y0.5512
G3 X2.6147 Y0.5526 I-0.0018 J0.0
G1 X2.5473 Y0.6023
G1 X2.4806 Y0.6514
G1 Y0.8312
G1 Y1.011
G1 X2.5672 Y1.0696
G1 X2.6546 Y1.1289
G3 X2.6554 Y1.1302 I-0.001 J0.0015
G1 X2.6585 Y1.1744
G1 X2.6616 Y1.2181
G1 X2.6757 Y1.2381
G1 X2.69 Y1.2586
G3 X2.6903 Y1.2596 I-0.0015 J0.001
G1 Y1.3066
G1 Y1.3536
G3 X2.6898 Y1.3549 I-0.0018 J0.0
G1 X2.6741 Y1.3705
G3 X2.653 Y1.3865 I-0.0623 J-0.0601
G3 X2.6515 Y1.3866 I-0.0009 J-0.0016
G1 X2.6272 Y1.3763
G3 X2.6271 Y1.3762 I0.0007 J-0.0017
G1 X2.6078 Y1.3659
G3 X2.6068 Y1.3643 I0.0008 J-0.0016
G1 Y1.3003
G1 Y1.2364
G3 X2.6077 Y1.2348 I0.0018 J0.0
G1 X2.6177 Y1.2287
G1 X2.6268 Y1.223
G1 Y1.1865
G1 Y1.1499
G1 X2.5402 Y1.0912
G1 X2.4529 Y1.032
G3 X2.4521 Y1.0305 I0.001 J-0.0015
G1 X2.4494 Y0.8333
G1 X2.4467 Y0.6361
G3 X2.4474 Y0.6346 I0.0018 J0.0
G1 X2.5175 Y0.5835
G1 X2.5869 Y0.5329
G1 Y0.2854
G1 Y0.0388
G1 X2.4539
G1 X2.3209
G1 Y0.2548
G1 Y0.4726
G3 X2.3203 Y0.4739 I-0.0018 J0.0
G1 X2.2904 Y0.5026
G1 X2.261 Y0.5308
G1 Y0.5661
G1 Y0.6014
G1 X2.271 Y0.6115
G1 X2.2816 Y0.6221
G3 X2.2821 Y0.6234 I-0.0013 J0.0013
G1 X2.279 Y0.6723
G1 X2.2759 Y0.7211
G3 X2.2741 Y0.7228 I-0.0018 J-0.0001
G1 X2.2492
G1 X2.2242
G3 X2.2224 Y0.7209 I0.0 J-0.0018
G1 X2.2255 Y0.6211
G1 X2.2285 Y0.5212
G3 X2.229 Y0.52 I0.0018 J0.0001
G1 X2.2582 Y0.4898
G1 X2.2869 Y0.4601
G1 X2.2896 Y0.2364
G1 X2.2923 Y0.012
G3 X2.2941 Y0.0102 I0.0018 J0.0
G1 X2.4516 Y0.0075
G1 X2.609 Y0.0047
G3 X2.6107 Y0.0059 I0.0 J0.0018
G1 X2.6157 Y0.0188
G3 X2.6158 Y0.0194 I-0.0017 J0.0006
G1 X2.616 Y0.0248
G0 Z0.125
G0 X2.5489 Y0.0849
G0 Z0.0748
G1 F20.0 Z-0.0027
G3 F40.0 X2.5492 Y0.0853 I-0.0013 J0.0012
G1 X2.5597 Y0.105
G1 X2.5703 Y0.1247
G3 X2.5705 Y0.1256 I-0.0016 J0.0008
G1 Y0.1939
G1 Y0.2622
G3 X2.5702 Y0.2632 I-0.0018 J0.0
G1 X2.5555 Y0.2841
G1 X2.5412 Y0.3046
G1 X2.5384 Y0.4175
G1 X2.5355 Y0.531
G3 X2.5348 Y0.5325 I-0.0018 J0.0
G1 X2.4773 Y0.5719
G1 X2.4207 Y0.6108
G1 Y0.8308
G1 Y1.0508
G1 X2.4773 Y1.0897
G1 X2.5348 Y1.1291
G3 X2.5355 Y1.1304 I-0.001 J0.0015
G1 X2.5387 Y1.1745
G1 X2.5418 Y1.2181
G1 X2.5558 Y1.2381
G1 X2.5702 Y1.2586
G3 X2.5705 Y1.2596 I-0.0015 J0.001
G1 Y1.3066
G1 Y1.3536
G3 X2.57 Y1.3549 I-0.0018 J0.0
G1 X2.5543 Y1.3705
G3 X2.5332 Y1.3865 I-0.0624 J-0.0603
G3 X2.5317 Y1.3866 I-0.0009 J-0.0016
G1 X2.5074 Y1.3763
G3 X2.5073 Y1.3762 I0.0007 J-0.0017
G1 X2.488 Y1.3659
G3 X2.487 Y1.3643 I0.0008 J-0.0016
G1 Y1.3003
G1 Y1.2364
G3 X2.4879 Y1.2348 I0.0018 J0.0
G1 X2.4978 Y1.2287
G1 X2.507 Y1.223
G1 Y1.1865
G1 Y1.15
G1 X2.4503 Y1.111
G1 X2.3929 Y1.0716
G3 X2.3922 Y1.0701 I0.001 J-0.0015
G1 Y0.8308
G1 Y0.5915
G3 X2.3929 Y0.59 I0.0018 J0.0
G1 X2.4503 Y0.5506
G1 X2.507 Y0.5116
G1 Y0.4052
G1 Y0.2988
G1 X2.4978 Y0.2931
G1 X2.4879 Y0.287
G3 X2.487 Y0.2854 I0.0009 J-0.0015
G1 Y0.2261
G1 Y0.1686
G1 X2.4645
G3 X2.4644 I0.0 J-0.0018
G3 X2.4134 Y0.1585 I0.0174 J-0.2222
G1 X2.4133
G1 X2.387 Y0.1485
G3 X2.3858 Y0.1466 I0.0006 J-0.0017
G1 X2.389 Y0.1192
G1 X2.3922 Y0.0917
G3 X2.3939 Y0.0901 I0.0018 J0.0002
G1 X2.4707 Y0.0872
G1 X2.5475 Y0.0843
G3 X2.5489 Y0.0849 I0.0001 J0.0018
G0 Z0.125
G0 X2.4284 Y0.3038
G0 Z0.0748
G1 F20.0 Z-0.0027
G3 F40.0 X2.4291 Y0.3046 I-0.0009 J0.0016
G1 X2.4398 Y0.3245
G1 X2.4505 Y0.3444
G3 X2.4507 Y0.3452 I-0.0016 J0.0008
G1 Y0.4114
G1 Y0.4777
G3 X2.4505 Y0.4785 I-0.0018 J0.0
G1 X2.4401 Y0.4978
G1 X2.4298 Y0.5171
G3 X2.4282 Y0.5181 I-0.0016 J-0.0008
G1 X2.4101
G1 X2.3929
G1 X2.3769 Y0.5357
G1 X2.3608 Y0.5535
G1 Y0.8325
G1 Y1.1115
G1 X2.3785 Y1.1275
G1 X2.3962 Y1.1435
G1 X2.4119
G1 X2.4282
G3 X2.4298 Y1.1445 I0.0 J0.0018
G1 X2.4401 Y1.1638
G1 X2.4505 Y1.1831
G3 X2.4507 Y1.184 I-0.0016 J0.0008
G1 Y1.2188
G1 Y1.2537
G3 X2.4501 Y1.255 I-0.0018 J0.0
G1 X2.4345 Y1.2707
G3 X2.4134 Y1.2867 I-0.0624 J-0.0603
G3 X2.4118 Y1.2868 I-0.0009 J-0.0016
G1 X2.3876 Y1.2764
G3 X2.3875 I0.0007 J-0.0017
G1 X2.3681 Y1.266
G3 X2.3672 Y1.2644 I0.0008 J-0.0016
G1 Y1.2114
G1 Y1.1592
G1 X2.3478 Y1.1417
G1 X2.3278 Y1.1236
G3 X2.3273 Y1.1223 I0.0012 J-0.0013
G1 Y0.8308
G1 Y0.5393
G3 X2.3278 Y0.538 I0.0018 J0.0
G1 X2.3475 Y0.5203
G1 X2.3665 Y0.503
G1 X2.3693 Y0.4077
G1 X2.3722 Y0.3115
G3 X2.3738 Y0.3098 I0.0018 J0.0001
G1 X2.4006 Y0.3067
G1 X2.4274 Y0.3036
G3 X2.4284 Y0.3038 I0.0002 J0.0018
G0 Z0.125
G0 X2.2571 Y0.301
G0 Z0.0748
G1 F20.0 Z-0.0027
G1 F40.0 X2.256 Y0.3715
G3 X2.2543 Y0.3733 I-0.0018 J0.0
G1 X2.1994 Y0.3783
G1 X2.1449 Y0.3832
G1 X2.1028 Y0.4073
G1 X2.0613 Y0.4311
G1 Y0.5175
G1 Y0.604
G1 X2.0704 Y0.6096
G1 X2.0804 Y0.6158
G3 X2.0812 Y0.6173 I-0.0009 J0.0015
G1 Y0.6661
G1 Y0.715
G3 X2.0804 Y0.7165 I-0.0018 J0.0
G1 X2.0679 Y0.7244
G2 X2.0458 Y0.7614 I0.0591 J0.0604
G1 Y0.7615
G1 X2.0357 Y0.7914
G3 X2.034 Y0.7927 I-0.0017 J-0.0006
G1 X1.7968 Y0.7953
G1 X1.5595 Y0.798
G3 X1.5579 Y0.7971 I0.0 J-0.0018
G1 X1.541 Y0.7675
G1 X1.5243 Y0.7386
G1 X1.507 Y0.7341
G1 X1.489 Y0.7293
G3 X1.4877 Y0.7275 I0.0005 J-0.0017
G1 X1.4906 Y0.6493
G1 X1.4935 Y0.5711
G3 X1.4951 Y0.5694 I0.0018 J0.0001
G1 X1.5219 Y0.5663
G1 X1.5487 Y0.5632
G3 X1.5505 Y0.5642 I0.0002 J0.0018
G1 X1.5624 Y0.5865
G1 X1.5744 Y0.6088
G3 X1.5746 Y0.6098 I-0.0016 J0.0008
G1 X1.5695 Y0.6755
G2 X1.569 Y0.753 I0.417 J0.0414
G1 X1.5731 Y0.7641
G1 X1.7901
G1 X2.0074
G1 X2.0117 Y0.7571
G2 X2.0193 Y0.6699 I-0.8578 J-0.1192
G1 X2.0237 Y0.5818
G1 X2.0308 Y0.4141
G3 X2.0316 Y0.4127 I0.0018 J0.0001
G1 X2.0845 Y0.3789
G1 X2.1374 Y0.345
G3 X2.1384 Y0.3447 I0.001 J0.0015
G1 X2.1838
G1 X2.2274
G1 Y0.1918
G1 Y0.0388
G1 X1.8591
G1 X1.4914
G1 X1.4969 Y0.0559
G1 X1.503 Y0.0754
G3 X1.5026 Y0.0772 I-0.0017 J0.0005
G1 X1.4822 Y0.0976
G3 X1.451 Y0.1186 I-0.055 J-0.0482
G3 X1.4497 I-0.0006 J-0.0017
G3 X1.4186 Y0.0977 I0.032 J-0.0813
G1 X1.3982 Y0.0772
G3 X1.3977 Y0.0754 I0.0013 J-0.0013
G1 X1.4039 Y0.0559
G1 X1.4093 Y0.0388
G1 X1.0067
G1 X0.6035
G1 Y0.0516
G1 Y0.0663
G3 X0.6025 Y0.0678 I-0.0018 J0.0
G1 X0.5832 Y0.0782
G1 X0.5639 Y0.0885
G3 X0.563 Y0.0887 I-0.0008 J-0.0016
G1 X0.5044
G1 X0.4457
G3 X0.4447 Y0.0884 I0.0 J-0.0018
G1 X0.4268 Y0.0753
G1 X0.409 Y0.0623
G3 X0.4083 Y0.0606 I0.0011 J-0.0015
G1 X0.4117 Y0.0362
G1 X0.4152 Y0.0118
G3 X0.4169 Y0.0102 I0.0018 J0.0003
G1 X1.3333 Y0.0077
G1 X2.2498 Y0.0051
G3 X2.2514 Y0.0063 I0.0 J0.0018
G1 X2.2564 Y0.0192
G3 X2.2565 Y0.0196 I-0.0017 J0.0006
G3 X2.259 Y0.0654 I-0.2161 J0.0348
G3 X2.2587 Y0.2022 I-3.3387 J0.0614
G1 X2.2571 Y0.301
G0 Z0.125
G0 X2.201 Y0.2864
G0 Z0.0748
G1 F20.0 Z-0.0027
G3 F40.0 X2.2001 Y0.2875 I-0.0017 J-0.0005
G1 X2.1788 Y0.2989
G1 X2.1575 Y0.3103
G3 X2.1564 Y0.3105 I-0.0008 J-0.0016
G1 X2.1171 Y0.3042
G1 X2.0785 Y0.2981
G1 X2.0198 Y0.3343
G1 X1.9614 Y0.3703
G1 Y0.4857
G1 Y0.6014
G1 X1.9715 Y0.6115
G1 X1.9821 Y0.6221
G3 X1.9826 Y0.6234 I-0.0013 J0.0013
G1 X1.9795 Y0.6723
G1 X1.9764 Y0.7211
G3 X1.9748 Y0.7227 I-0.0018 J-0.0001
G1 X1.9523 Y0.7259
G1 X1.9298 Y0.7291
G3 X1.9279 Y0.7279 I-0.0003 J-0.0018
G1 X1.9233 Y0.7148
G3 X1.9232 Y0.7142 I0.0017 J-0.0006
G3 X1.9258 Y0.5263 I2.0963 J-0.0656
G1 X1.9329 Y0.3517
G3 X1.9337 Y0.3502 I0.0018 J0.0001
G1 X1.9982 Y0.308
G1 X2.0623 Y0.2661
G1 X2.0696 Y0.2464
G1 X2.0771 Y0.2261
G3 X2.0788 Y0.2249 I0.0017 J0.0006
G1 X2.1324
G1 X2.1859
G3 X2.1872 Y0.2254 I0.0 J0.0018
G1 X2.1939 Y0.2321
G3 X2.1942 Y0.2325 I-0.0013 J0.0013
G3 X2.201 Y0.263 I-0.0514 J0.0276
G1 Y0.2859
G3 Y0.2864 I-0.0018 J0.0
G0 Z0.125
G0 X2.1684 Y0.4235
G0 Z0.0748
G1 F20.0 Z-0.0027
G3 F40.0 X2.1695 Y0.4244 I-0.0004 J0.0017
G1 X2.1802 Y0.4443
G1 X2.1908 Y0.4642
G3 X2.1911 Y0.465 I-0.0016 J0.0008
G1 Y0.5034
G1 Y0.5418
G3 X2.1907 Y0.5428 I-0.0018 J0.0
G1 X2.1742 Y0.5664
G1 X2.1584 Y0.589
G1 X2.1693 Y0.6064
G1 X2.1808 Y0.6249
G3 X2.1811 Y0.6258 I-0.0015 J0.001
G1 Y0.6703
G1 Y0.7148
G3 X2.1802 Y0.7163 I-0.0018 J0.0
G1 X2.1702 Y0.7225
G1 X2.1611 Y0.7281
G1 Y0.8158
G1 Y0.9035
G1 X2.1702 Y0.9092
G1 X2.1802 Y0.9153
G3 X2.1811 Y0.9169 I-0.0009 J0.0015
G1 Y0.9613
G1 Y1.0058
G3 X2.1808 Y1.0068 I-0.0018 J0.0
G1 X2.1685 Y1.0264
G1 X2.1569 Y1.0451
G1 X2.1736 Y1.0734
G1 X2.1908 Y1.1026
G3 X2.1911 Y1.1035 I-0.0015 J0.0009
G1 Y1.1621
G1 Y1.2208
G3 X2.1907 Y1.2218 I-0.0018 J0.0
G1 X2.1763 Y1.2424
G1 X2.1621 Y1.2627
G1 X2.1591 Y1.3261
G1 X2.1561 Y1.39
G3 X2.1543 Y1.3918 I-0.0018 J-0.0001
G1 X1.8348 Y1.3944
G1 X1.5162 Y1.397
G1 X1.4995 Y1.4186
G1 X1.4826 Y1.4405
G1 X1.4824 Y1.8418
G1 X1.4821 Y2.2419
G1 X1.5491
G1 X1.6164
G1 X1.6215 Y2.2224
G1 X1.6269 Y2.2017
G3 X1.6289 Y2.2004 I0.0017 J0.0005
G1 X1.6521 Y2.2037
G1 X1.6753 Y2.2069
G3 X1.6768 Y2.2087 I-0.0003 J0.0018
G1 Y2.2636
G1 Y2.3186
G3 X1.675 Y2.3203 I-0.0018 J0.0
G1 X1.6501
G1 X1.6251
G3 X1.6233 Y2.3188 I0.0 J-0.0018
G1 X1.6202 Y2.2967
G1 X1.6173 Y2.2761
G1 X1.537 Y2.2733
G1 X1.4553 Y2.2704
G3 X1.4536 Y2.2686 I0.0001 J-0.0018
G1 X1.451 Y1.8504
G1 X1.4484 Y1.4321
G3 X1.4487 Y1.431 I0.0018 J0.0
G1 X1.4743 Y1.3974
G1 X1.4999 Y1.3639
G3 X1.5013 Y1.3632 I0.0014 J0.0011
G1 X1.8153
G1 X2.1276
G1 Y1.3107
G1 Y1.2573
G1 X2.1184 Y1.2517
G1 X2.1084 Y1.2455
G3 X2.1076 Y1.244 I0.0009 J-0.0015
G1 Y1.1603
G1 Y1.0766
G3 X2.1084 Y1.0751 I0.0018 J0.0
G1 X2.1166 Y1.07
G1 X2.1239 Y1.0655
G1 X2.1225 Y0.8239
G1 X2.121 Y0.5816
G1 X2.1139 Y0.5658
G1 X2.1067 Y0.5497
G3 X2.1065 Y0.5489 I0.0016 J-0.0007
G1 X2.1095 Y0.4901
G1 X2.1126 Y0.4313
G3 X2.1142 Y0.4296 I0.0018 J0.0001
G1 X2.141 Y0.4265
G1 X2.1677 Y0.4234
G3 X2.1684 Y0.4235 I0.0002 J0.0018
G0 Z0.125
G0 X2.1012 Y0.1685
G0 Z0.0748
G1 F20.0 Z-0.0027
G3 F40.0 X2.1007 Y0.1686 I-0.0005 J-0.0017
G1 X2.027
G1 X1.9541
G1 X1.927 Y0.1969
G1 X1.9009 Y0.2242
G1 X1.9098 Y0.2297
G1 X1.9206 Y0.2364
G3 X1.9215 Y0.2379 I-0.0009 J0.0015
G1 Y0.2631
G1 Y0.2884
G3 X1.9203 Y0.29 I-0.0018 J0.0
G1 X1.8904 Y0.3013
G1 X1.8616 Y0.3122
G1 X1.8619 Y0.3662
G1 X1.8622 Y0.4208
G1 X1.8765 Y0.4397
G1 X1.8911 Y0.4591
G3 X1.8915 Y0.4602 I-0.0014 J0.0011
G1 Y0.501
G1 Y0.5418
G3 X1.8912 Y0.5428 I-0.0018 J0.0
G1 X1.875 Y0.5659
G1 X1.8595 Y0.5881
G1 X1.8708 Y0.6093
G1 X1.8827 Y0.6314
G3 X1.8829 Y0.6324 I-0.0016 J0.0008
G1 X1.8797 Y0.6768
G1 X1.8765 Y0.7211
G3 X1.8747 Y0.7228 I-0.0018 J-0.0001
G1 X1.8498
G1 X1.8248
G3 X1.823 Y0.721 I0.0 J-0.0018
G1 Y0.6495
G1 Y0.5787
G1 X1.816 Y0.5717
G1 X1.8086 Y0.5641
G3 X1.808 Y0.5629 I0.0013 J-0.0013
G1 Y0.5002
G1 Y0.4376
G3 X1.8089 Y0.436 I0.0018 J0.0
G1 X1.8189 Y0.4299
G1 X1.828 Y0.4242
G1 Y0.3621
G1 Y0.3003
G1 X1.8086 Y0.2953
G1 X1.7879 Y0.2899
G3 X1.7866 Y0.2879 I0.0005 J-0.0017
G1 X1.7898 Y0.2597
G1 X1.7931 Y0.2315
G3 X1.7946 Y0.2299 I0.0018 J0.0002
G1 X1.8155 Y0.2269
G1 X1.8358 Y0.224
G1 X1.8712 Y0.1875
G1 X1.9065 Y0.151
G1 X1.9097 Y0.1217
G1 X1.9129 Y0.0917
G3 X1.9146 Y0.0901 I0.0018 J0.0002
G1 X2.02 Y0.0873
G1 X2.1253 Y0.0845
G3 X2.1267 Y0.085 I0.0 J0.0018
G1 X2.1336 Y0.092
G3 X2.1339 Y0.0924 I-0.0013 J0.0013
G3 X2.1411 Y0.1232 I-0.0522 J0.0284
G1 Y0.1461
G3 X2.1402 Y0.1477 I-0.0018 J0.0
G1 X2.1209 Y0.1581
G1 X2.1016 Y0.1684
G3 X2.1012 Y0.1685 I-0.0008 J-0.0016
G0 Z0.125
G0 X1.7708 Y0.3457
G0 Z0.0748
G1 F20.0 Z-0.0027
G1 F40.0 X1.7811 Y0.3649
G1 X1.7914 Y0.3842
G3 X1.7915 Y0.3857 I-0.0016 J0.0008
G1 X1.7854 Y0.4015
G1 X1.7794 Y0.4172
G3 X1.7781 Y0.4183 I-0.0017 J-0.0006
G1 X1.7545 Y0.4243
G1 X1.7309 Y0.4302
G3 X1.7302 I-0.0004 J-0.0017
G1 X1.6826 Y0.424
G1 X1.6176 Y0.4173
G2 X1.5527 Y0.412 I-0.0815 J0.6019
G1 X1.5526
G1 X1.4721 Y0.4063
G1 Y0.4132
G2 X1.4835 Y0.4331 I0.0364 J-0.0077
G1 X1.4836
G1 X1.4951 Y0.4446
G1 X1.5472
G1 X1.6001
G3 X1.6016 Y0.4454 I0.0 J0.0018
G1 X1.6313 Y0.4929
G1 X1.661 Y0.5403
G3 X1.6612 Y0.5409 I-0.0015 J0.001
G1 X1.6721 Y0.5929
G1 X1.683 Y0.6449
G3 X1.6831 Y0.6454 I-0.0018 J0.0004
G1 X1.68 Y0.6833
G1 X1.6768 Y0.7211
G3 X1.675 Y0.7228 I-0.0018 J-0.0001
G1 X1.6501
G1 X1.6251
G3 X1.6233 Y0.721 I0.0 J-0.0018
G1 X1.6231 Y0.6411
G1 X1.6228 Y0.5617
G1 X1.5999 Y0.5247
G1 X1.5772 Y0.4881
G1 X1.5389
G1 X1.5001
G1 X1.4766 Y0.5035
G1 X1.4527 Y0.5192
G3 X1.4509 Y0.5193 I-0.001 J-0.0015
G1 X1.4314 Y0.5089
G1 Y0.5088
G3 X1.4048 Y0.481 I0.0347 J-0.0597
G3 X1.4047 Y0.4808 I0.0016 J-0.0008
G1 X1.3983 Y0.4642
G3 X1.3985 Y0.4626 I0.0017 J-0.0006
G1 X1.4137 Y0.4394
G1 X1.4286 Y0.4166
G1 Y0.3276
G1 Y0.2389
G1 X1.3855 Y0.2035
G1 X1.3422 Y0.1681
G1 X1.0247 Y0.1722
G1 X0.6916 Y0.1765
G1 X0.6915
G1 X0.5909 Y0.1745
G1 X0.5658 Y0.174
G3 X0.4905 Y0.1722 I0.1935 J-9.9138
G1 X0.306 Y0.1678
G1 X0.2999 Y0.2003
G1 X0.2935 Y0.2343
G3 X0.2929 Y0.2353 I-0.0018 J-0.0003
G1 X0.275 Y0.2515
G1 X0.2571 Y0.2678
G3 X0.2562 Y0.2682 I-0.0012 J-0.0013
G1 X0.2244 Y0.2745
G1 X0.1941 Y0.2806
G1 Y0.3282
G1 Y0.3767
G1 X0.2099 Y0.4008
G1 X0.226 Y0.4254
G3 Y0.4274 I-0.0015 J0.001
G1 X0.2099 Y0.452
G1 X0.1941 Y0.4762
G1 Y0.5063
G1 Y0.5364
G1 X0.209 Y0.5592
G1 X0.2242 Y0.5824
G3 X0.2244 Y0.584 I-0.0015 J0.001
G1 X0.218 Y0.6007
G3 X0.2179 Y0.6008 I-0.0017 J-0.0006
G3 X0.1927 Y0.6279 I-0.0533 J-0.0242
G1 X0.1746 Y0.6376
G3 X0.1731 Y0.6377 I-0.0008 J-0.0016
G1 X0.1571 Y0.6316
G3 X0.157 Y0.6315 I0.0006 J-0.0017
G3 X0.1298 Y0.6052 I0.0287 J-0.0567
G1 Y0.6051
G1 X0.1194 Y0.5857
G3 X0.1195 Y0.5838 I0.0016 J-0.0008
G1 X0.1352 Y0.5599
G1 X0.1505 Y0.5364
G1 Y0.5063
G1 Y0.4762
G1 X0.1347 Y0.452
G1 X0.1186 Y0.4274
G3 Y0.4254 I0.0015 J-0.001
G1 X0.1347 Y0.4008
G1 X0.1505 Y0.3767
G1 Y0.3189
G1 Y0.2611
G1 X0.1382 Y0.2345
G1 X0.1262 Y0.2087
G1 X0.0898 Y0.2086
G1 X0.054 Y0.2085
G1 X0.0584 Y0.8932
G1 X0.0628 Y1.5796
G1 X0.0692 Y1.6662
G1 X0.0757 Y1.7529
G3 X0.0755 Y1.7539 I-0.0018 J0.0001
G1 X0.0641 Y1.7751
G1 X0.0527 Y1.7964
G3 X0.0509 Y1.7973 I-0.0016 J-0.0008
G1 X0.0242 Y1.7942
G1 X-0.0026 Y1.7911
G3 X-0.0042 Y1.7894 I0.0002 J-0.0018
G1 X-0.0071 Y1.6854
G1 X-0.0099 Y1.5815
G3 X-0.0094 Y1.5801 I0.0018 J0.0
G1 X0.0009 Y1.5698
G1 X0.0108 Y1.56
G1 Y0.8638
G1 Y0.1668
G3 X0.0126 Y0.165 I0.0018 J0.0
G1 X0.0725
G1 X0.1306
G1 Y0.1534
G1 Y0.1399
G3 X0.1312 Y0.1386 I0.0018 J0.0
G1 X0.1486 Y0.1229
G1 X0.1487 Y0.1228
G3 X0.1935 Y0.1001 I0.0753 J0.0928
G1 X0.2201 Y0.0934
G3 X0.2213 Y0.0935 I0.0004 J0.0017
G1 X0.2556 Y0.1098
G1 X0.2895 Y0.1259
G1 X0.4828 Y0.1215
G1 X0.5871 Y0.1192
G3 X0.6134 Y0.1186 I0.0153 J0.0998
G1 X0.6328 Y0.1182
G3 X0.6916 Y0.1172 I0.0366 J0.4198
G1 X1.0347 Y0.1215
G1 X1.3628 Y0.1256
G3 X1.3639 Y0.126 I0.0 J0.0018
G1 X1.4057 Y0.1603
G1 X1.4463 Y0.1935
G1 X1.4846 Y0.1557
G2 X1.5413 Y0.0964 I-0.5977 J-0.629
G3 X1.5696 Y0.0753 I0.0512 J0.039
G3 X1.5709 I0.0006 J0.0017
G3 X1.6014 Y0.0956 I-0.0326 J0.082
G3 X1.6218 Y0.1263 I-0.045 J0.0521
G3 Y0.1275 I-0.0017 J0.0006
G3 X1.6009 Y0.1586 I-0.0813 J-0.032
G1 X1.5804 Y0.1791
G3 X1.5786 Y0.1795 I-0.0013 J-0.0013
G1 X1.5614 Y0.1741
G1 X1.5451 Y0.1689
G1 X1.5087 Y0.1989
G1 X1.4721 Y0.229
G1 Y0.2973
G1 Y0.3647
G1 X1.5397
G1 X1.608
G1 X1.6136 Y0.3556
G1 X1.6198 Y0.3456
G3 X1.6213 Y0.3447 I0.0015 J0.0009
G1 X1.6952
G1 X1.7692
G3 X1.7708 Y0.3457 I0.0 J0.0018
G0 Z0.125
G0 X1.7313 Y0.4549
G0 Z0.0748
G1 F20.0 Z-0.0027
G3 F40.0 X1.762 Y0.4759 I-0.0254 J0.0702
G1 X1.7827 Y0.4966
G3 X1.7831 Y0.4986 I-0.0013 J0.0013
G1 X1.7759 Y0.5152
G2 X1.764 Y0.5598 I0.1995 J0.0771
G1 X1.7593 Y0.5875
G1 X1.7709 Y0.6092
G1 X1.7828 Y0.6314
G3 X1.783 Y0.6324 I-0.0016 J0.0008
G1 X1.7798 Y0.6768
G1 X1.7767 Y0.7211
G3 X1.7749 Y0.7228 I-0.0018 J-0.0001
G1 X1.7499
G1 X1.725
G3 X1.7232 Y0.721 I0.0 J-0.0018
G1 Y0.6411
G1 Y0.562
G1 X1.7013 Y0.5401
G3 X1.6783 Y0.5069 I0.0529 J-0.0611
G3 X1.6784 Y0.5056 I0.0017 J-0.0006
G3 X1.6987 Y0.4751 I0.0819 J0.0325
G3 X1.7294 Y0.4547 I0.0521 J0.045
G3 X1.7306 I0.0006 J0.0017
G3 X1.7313 Y0.4549 I-0.0247 J0.0705
G0 Z0.125
G0 X1.4571 Y0.5506
G0 Z0.0748
G1 F20.0 Z-0.0027
G3 F40.0 X1.4572 Y0.5512 I-0.0017 J0.0006
G1 X1.4599 Y0.661
G1 X1.4627 Y0.7708
G3 X1.4622 Y0.7722 I-0.0018 J0.0
G1 X1.382 Y0.8518
G1 X1.3024 Y0.9309
G1 X1.3022 Y0.9803
G1 X1.302 Y1.0305
G3 X1.3016 Y1.0316 I-0.0018 J0.0
G1 X1.2821 Y1.0566
G1 X1.2629 Y1.081
G1 X1.2627 Y1.2933
G1 X1.2625 Y1.5055
G1 X1.2769 Y1.5199
G3 X1.2923 Y1.5441 I-0.0455 J0.046
G3 Y1.5453 I-0.0017 J0.0006
G3 X1.2762 Y1.5702 I-0.0598 J-0.021
G3 X1.2512 Y1.5864 I-0.0415 J-0.0368
G3 X1.25 Y1.5863 I-0.0005 J-0.0017
G3 X1.2246 Y1.5697 I0.0275 J-0.0698
G1 X1.2083 Y1.5534
G3 X1.208 Y1.5513 I0.0013 J-0.0013
G1 X1.216 Y1.5351
G1 X1.2239 Y1.5193
G1 X1.2268 Y1.2961
G1 X1.2297 Y1.0725
G3 X1.23 Y1.0714 I0.0018 J0.0
G1 X1.2496 Y1.0439
G1 X1.2689 Y1.0169
G1 Y0.9688
G1 Y0.9202
G3 X1.2694 Y0.9189 I0.0018 J0.0
G1 X1.3493 Y0.8395
G1 X1.4286 Y0.7606
G1 Y0.6688
G1 Y0.578
G1 X1.2564
G1 X1.0839
G1 X1.0809 Y0.5989
G1 X1.0777 Y0.6214
G3 X1.0759 Y0.6229 I-0.0018 J-0.0003
G1 X1.051
G1 X1.026
G3 X1.0242 Y0.6211 I0.0 J-0.0018
G1 Y0.5662
G1 Y0.5113
G3 X1.0258 Y0.5095 I0.0018 J0.0
G1 X1.049 Y0.5062
G1 X1.0722 Y0.5029
G3 X1.0741 Y0.5043 I0.0003 J0.0018
G1 X1.0795 Y0.5248
G1 X1.0845 Y0.544
G1 X1.2693 Y0.5467
G1 X1.4554 Y0.5494
G3 X1.4571 Y0.5506 I0.0 J0.0018
G0 Z0.125
G0 X1.3199 Y0.6928
G0 Z0.0748
G1 F20.0 Z-0.0027
G3 F40.0 X1.3218 Y0.6947 I-0.0612 J0.0635
G3 X1.3423 Y0.7254 I-0.045 J0.0521
G3 X1.3422 Y0.7266 I-0.0017 J0.0006
G3 X1.3219 Y0.7572 I-0.0819 J-0.0325
G3 X1.288 Y0.7776 I-0.0519 J-0.0476
G3 X1.2876 Y0.7777 I-0.0005 J-0.0017
G1 X1.2753
G1 X1.2436 Y0.8104
G1 X1.2122 Y0.8428
G1 X1.2179 Y0.8577
G1 X1.224 Y0.8735
G3 X1.2235 Y0.8755 I-0.0017 J0.0006
G1 X1.2028 Y0.8962
G1 X1.1826 Y0.9164
G1 Y0.9356
G1 Y0.9549
G1 X1.202 Y0.9743
G3 X1.2224 Y1.005 I-0.045 J0.0521
G3 Y1.0062 I-0.0017 J0.0006
G3 X1.2021 Y1.0367 I-0.0819 J-0.0325
G3 X1.1714 Y1.0572 I-0.0521 J-0.045
G3 X1.1701 Y1.0571 I-0.0006 J-0.0017
G3 X1.1396 Y1.0368 I0.0325 J-0.0819
G1 X1.1201 Y1.0173
G1 X1.041
G1 X0.9629
G1 Y1.0904
G1 Y1.1635
G1 X0.9708
G3 X0.9715 Y1.1637 I0.0 J0.0018
G3 X0.9927 Y1.1845 I-0.0185 J0.04
G1 X1.0033 Y1.2044
G3 Y1.2061 I-0.0016 J0.0008
G1 X0.9933 Y1.2249
G3 X0.9665 Y1.2506 I-0.0545 J-0.0301
G3 X0.9663 I-0.0008 J-0.0016
G1 X0.9503 Y1.2568
G3 X0.9488 Y1.2567 I-0.0006 J-0.0017
G1 X0.9308 Y1.247
G1 X0.9307
G3 X0.9055 Y1.2199 I0.0341 J-0.0569
G3 Y1.2197 I0.0016 J-0.0008
G1 X0.8991 Y1.2031
G3 X0.8993 Y1.2014 I0.0017 J-0.0006
G1 X0.914 Y1.1789
G1 X0.9285 Y1.1567
G1 X0.9314 Y1.0739
G1 X0.9344 Y0.9905
G3 X0.9361 Y0.9888 I0.0018 J0.0001
G1 X1.0304 Y0.9859
G1 X1.1241 Y0.983
G1 X1.1367 Y0.9726
G1 X1.149 Y0.9623
G1 Y0.9364
G1 Y0.9104
G1 X1.1376 Y0.899
G1 X1.1261 Y0.8875
G1 X1.1051
G1 X1.0847
G1 X1.0798 Y0.9061
G1 X1.0746 Y0.9261
G3 X1.0728 Y0.9275 I-0.0017 J-0.0005
G1 X1.051
G1 X1.0291
G3 X1.0274 Y0.9261 I0.0 J-0.0018
G1 X1.0222 Y0.9061
G1 X1.0173 Y0.8875
G1 X1.0011
G1 X0.9848
G1 X0.9797 Y0.9069
G1 X0.9743 Y0.9277
G3 X0.9723 Y0.929 I-0.0017 J-0.0005
G1 X0.9491 Y0.9257
G1 X0.9259 Y0.9224
G3 X0.9244 Y0.9207 I0.0003 J-0.0018
G1 Y0.8657
G1 Y0.8108
G3 X0.9259 Y0.8091 I0.0018 J0.0
G1 X0.9491 Y0.8058
G1 X0.9723 Y0.8025
G3 X0.9743 Y0.8038 I0.0003 J0.0018
G1 X0.9797 Y0.8246
G1 X0.9848 Y0.844
G1 X1.0011
G1 X1.0173
G1 X1.0222 Y0.8254
G1 X1.0274 Y0.8054
G3 X1.0291 Y0.804 I0.0017 J0.0005
G1 X1.051
G1 X1.0728
G3 X1.0746 Y0.8054 I0.0 J0.0018
G1 X1.0798 Y0.8254
G1 X1.0847 Y0.844
G1 X1.1024
G1 X1.121
G1 X1.1448 Y0.8284
G1 X1.1689 Y0.8126
G3 X1.1709 I0.001 J0.0015
G1 X1.1797 Y0.818
G1 X1.1873 Y0.8227
G1 X1.2188 Y0.7902
G1 X1.2506 Y0.7574
G1 X1.2445 Y0.738
G1 X1.238 Y0.7175
G3 X1.2384 Y0.7157 I0.0017 J-0.0005
G1 X1.2588 Y0.6953
G3 X1.29 Y0.6743 I0.055 J0.0482
G3 X1.2913 Y0.6744 I0.0006 J0.0017
G3 X1.3199 Y0.6928 I-0.0325 J0.0819
G0 Z0.125
G0 X1.4939 Y0.8297
G0 Z0.0748
G1 F20.0 Z-0.0027
G3 F40.0 X1.4953 Y0.829 I0.0014 J0.0011
G1 X1.612 Y0.8261
G1 X1.7288 Y0.8232
G3 X1.7304 Y0.8242 I0.0 J0.0018
G1 X1.741 Y0.8439
G3 X1.7517 Y0.8787 I-0.0791 J0.0435
G3 Y0.8788 I-0.0018 J0.0002
G1 Y0.8924
G1 X1.7661 Y0.9043
G1 X1.781 Y0.9167
G3 X1.7817 Y0.9181 I-0.0011 J0.0014
G1 Y0.9648
G1 Y1.0115
G3 X1.7812 Y1.0128 I-0.0018 J0.0
G1 X1.7717 Y1.0223
G1 X1.7627 Y1.0313
G1 X1.7597 Y1.1005
G1 X1.7567 Y1.1704
G3 X1.755 Y1.1721 I-0.0018 J-0.0001
G1 X1.6759 Y1.175
G1 X1.5976 Y1.1779
G1 X1.5866 Y1.1931
G1 X1.575 Y1.2089
G3 X1.5736 Y1.2096 I-0.0015 J-0.0011
G1 X1.5148 Y1.2111
G1 X1.4559 Y1.2126
G3 X1.4546 Y1.212 I0.0 J-0.0018
G1 X1.4369 Y1.1943
G3 X1.4188 Y1.1679 I0.0584 J-0.0596
G3 X1.4187 Y1.1667 I0.0016 J-0.0007
G3 X1.4323 Y1.1399 I0.0733 J0.0202
G1 X1.4456 Y1.1217
G3 X1.447 Y1.121 I0.0015 J0.0011
G1 X1.5048 Y1.1195
G1 X1.5625 Y1.1181
G3 X1.5637 Y1.1185 I0.0 J0.0018
G1 X1.58 Y1.1309
G1 X1.5958 Y1.1429
G1 X1.6632 Y1.1432
G1 X1.7294 Y1.1435
G1 X1.7235 Y1.0092
G1 X1.7196 Y0.9366
G1 Y0.9365
G2 X1.7124 Y0.865 I-0.3643 J0.0007
G1 X1.7078 Y0.8576
G1 X1.6395
G1 X1.572
G1 Y0.8888
G1 Y0.9218
G3 X1.5716 Y0.9229 I-0.0018 J0.0
G1 X1.5586 Y0.9407
G1 X1.5456 Y0.9586
G3 X1.5439 Y0.9593 I-0.0015 J-0.0011
G1 X1.5195 Y0.9558
G1 X1.4951 Y0.9524
G3 X1.4935 Y0.9506 I0.0003 J-0.0018
G1 Y0.8907
G1 Y0.8308
G3 X1.4939 Y0.8297 I0.0018 J0.0
G0 Z0.125
G0 X1.4509 Y0.9739
G0 Z0.0748
G1 F20.0 Z-0.0027
G1 F40.0 X1.451
G3 X1.4824 Y0.9951 I-0.0247 J0.0705
G1 X1.5031 Y1.0158
G3 X1.5035 Y1.0177 I-0.0013 J0.0013
G1 X1.4981 Y1.0319
G1 X1.4936 Y1.0437
G1 X1.5588
G1 X1.6249
G1 X1.6241 Y0.9781
G1 X1.6233 Y0.9107
G3 X1.6249 Y0.9089 I0.0018 J0.0
G1 X1.6452 Y0.906
G1 X1.6656 Y0.9031
G3 X1.6671 Y0.9036 I0.0003 J0.0018
G1 X1.6742 Y0.9107
G1 X1.6813 Y0.9177
G3 X1.6818 Y0.919 I-0.0013 J0.0013
G1 Y0.9624
G1 Y1.0058
G3 X1.6816 Y1.0067 I-0.0018 J0.0
G1 X1.6724 Y1.024
G2 X1.6576 Y1.059 I0.2127 J0.1101
G1 X1.652 Y1.077
G3 X1.6503 Y1.0783 I-0.0017 J-0.0005
G1 X1.5436 Y1.0761
G1 X1.437 Y1.0739
G3 X1.4357 Y1.0733 I0.0 J-0.0018
G1 X1.4175 Y1.0551
G3 X1.3987 Y1.026 I0.0433 J-0.0486
G3 X1.3988 Y1.0248 I0.0017 J-0.0005
G3 X1.4191 Y0.9943 I0.0819 J0.0325
G3 X1.4498 Y0.9739 I0.0521 J0.0449
G3 X1.4509 I0.0006 J0.0017
G0 Z0.125
G0 X1.3697 Y1.2423
G0 Z0.0748
G1 F20.0 Z-0.0027
G3 F40.0 X1.3707 Y1.2431 I-0.0005 J0.0017
G1 X1.3814 Y1.263
G1 X1.3921 Y1.283
G3 X1.3923 Y1.2838 I-0.0016 J0.0008
G1 Y1.3125
G1 Y1.3412
G3 X1.3919 Y1.3423 I-0.0018 J0.0
G1 X1.3772 Y1.3617
G1 X1.3629 Y1.3806
G1 X1.3626 Y1.9716
G1 X1.3623 Y2.5614
G1 X1.6964
G1 X2.0304
G1 X2.0266 Y2.386
G1 X2.0227 Y2.2088
G3 X2.0245 Y2.2069 I0.0018 J0.0
G1 X2.0495
G1 X2.0744
G3 X2.0762 Y2.2086 I0.0 J0.0018
G1 X2.0794 Y2.2529
G1 X2.0826 Y2.2973
G3 X2.0824 Y2.2982 I-0.0018 J0.0001
G1 X2.0717 Y2.3188
G1 X2.0613 Y2.339
G1 X2.0588 Y2.4634
G1 X2.0563 Y2.5882
G3 X2.0545 Y2.5899 I-0.0018 J0.0
G1 X1.695
G1 X1.3356
G3 X1.3338 Y2.5882 I0.0 J-0.0018
G1 X1.3314 Y1.9891
G1 X1.329 Y1.3904
G1 X1.3185 Y1.3703
G1 X1.3077 Y1.3498
G3 X1.3075 Y1.3489 I0.0016 J-0.0008
G1 X1.3107 Y1.2995
G1 X1.3138 Y1.2501
G3 X1.3154 Y1.2484 I0.0018 J0.0001
G1 X1.3422 Y1.2453
G1 X1.369 Y1.2422
G3 X1.3697 Y1.2423 I0.0002 J0.0018
G0 Z0.125
G0 X1.4541 Y1.3115
G0 Z0.0748
G1 F20.0 Z-0.0027
G1 F40.0 X1.4603 Y1.3039
G3 X1.4617 Y1.3033 I0.0014 J0.0011
G1 X1.4994
G1 X1.5363
G1 X1.5778 Y1.254
G1 X1.6199 Y1.2041
G3 X1.6213 Y1.2034 I0.0014 J0.0012
G1 X1.6843
G1 X1.7472
G3 X1.7483 Y1.2038 I0.0 J0.0018
G1 X1.7737 Y1.2238
G1 X1.7986 Y1.2434
G1 X1.8652
G1 X1.9305
G1 X1.9267 Y1.078
G1 X1.9229 Y0.9107
G3 X1.9244 Y0.9089 I0.0018 J0.0
G1 X1.9448 Y0.906
G1 X1.9652 Y0.9031
G3 X1.9667 Y0.9036 I0.0003 J0.0018
G1 X1.9738 Y0.9107
G1 X1.9808 Y0.9177
G3 X1.9814 Y0.919 I-0.0013 J0.0013
G1 Y0.9653
G1 Y1.0115
G3 X1.9808 Y1.0128 I-0.0018 J0.0
G1 X1.9712 Y1.0224
G1 X1.9621 Y1.0316
G1 X1.9592 Y1.1505
G1 X1.9564 Y1.2702
G3 X1.9547 Y1.2719 I-0.0018 J0.0
G1 X1.8692 Y1.2748
G1 X1.7837 Y1.2776
G3 X1.7823 Y1.2771 I-0.0001 J-0.0018
G1 X1.7639 Y1.2567
G1 X1.746 Y1.237
G1 X1.69
G1 X1.6341
G1 X1.5925 Y1.2863
G1 X1.5504 Y1.3362
G3 X1.549 Y1.3368 I-0.0014 J-0.0012
G1 X1.5109
G1 X1.4736
G1 X1.448 Y1.3704
G1 X1.4222 Y1.4042
G1 Y1.8935
G1 Y2.3817
G1 X1.4648
G1 X1.5081
G1 X1.5138 Y2.3725
G1 X1.5199 Y2.3625
G3 X1.5215 Y2.3617 I0.0015 J0.0009
G1 X1.5852
G1 X1.6489
G3 X1.6504 Y2.3625 I0.0 J0.0018
G1 X1.6566 Y2.3725
G1 X1.6622 Y2.3817
G1 X1.7455
G1 X1.828
G1 X1.8255 Y2.2961
G1 X1.823 Y2.2088
G3 X1.8248 Y2.2069 I0.0018 J-0.0001
G1 X1.8498
G1 X1.8747
G3 X1.8765 Y2.2086 I0.0 J0.0018
G1 X1.8797 Y2.2529
G1 X1.8829 Y2.2973
G3 X1.8827 Y2.2982 I-0.0018 J0.0001
G1 X1.8723 Y2.3187
G2 X1.8594 Y2.3736 I0.1451 J0.0633
G1 X1.8566 Y2.4086
G3 X1.8548 Y2.4102 I-0.0018 J-0.0001
G1 X1.7611 Y2.4131
G1 X1.6679 Y2.416
G1 X1.6475 Y2.4302
G1 X1.6267 Y2.4448
G3 X1.6257 Y2.4452 I-0.001 J-0.0015
G1 X1.5852
G1 X1.5447
G3 X1.5437 Y2.4448 I0.0 J-0.0018
G1 X1.5231 Y2.4304
G1 X1.503 Y2.4163
G1 X1.4494 Y2.4133
G1 X1.3954 Y2.4102
G3 X1.3937 Y2.4084 I0.0001 J-0.0018
G1 X1.3911 Y1.9003
G1 X1.3885 Y1.3922
G3 X1.3889 Y1.3911 I0.0018 J0.0
G1 X1.4246 Y1.3475
G1 X1.4541 Y1.3115
G0 Z0.125
G0 X1.5293 Y1.4234
G0 Z0.0748
G1 F20.0 Z-0.0027
G3 F40.0 X1.5303 Y1.4231 I0.001 J0.0015
G1 X1.9176
G1 X2.305
G3 X2.3063 Y1.4236 I0.0 J0.0018
G1 X2.3455 Y1.4638
G1 X2.3844 Y1.5036
G1 X2.4272 Y1.5244
G1 X2.47 Y1.545
G1 X2.7288 Y1.5377
G1 X2.988 Y1.5304
G3 X2.9899 Y1.5322 I0.0001 J0.0018
G1 Y1.7681
G1 Y2.004
G3 X2.9881 Y2.0058 I-0.0018 J0.0
G1 X2.9728
G2 X2.9338 Y2.0216 I0.0115 J0.0844
G1 Y2.0217
G1 X2.9092 Y2.0378
G3 X2.9072 I-0.001 J-0.0015
G1 X2.8826 Y2.0217
G1 X2.8584 Y2.0058
G1 X2.7987
G1 X2.7402
G1 Y2.1238
G1 Y2.2419
G1 X2.7987
G1 X2.8584
G1 X2.8812 Y2.227
G1 X2.9044 Y2.2118
G3 X2.906 Y2.2116 I0.001 J0.0015
G1 X2.9227 Y2.218
G3 X2.9228 I-0.0006 J0.0017
G3 X2.9503 Y2.244 I-0.0262 J0.0554
G1 X2.9604 Y2.2628
G3 Y2.2645 I-0.0016 J0.0008
G1 X2.9503 Y2.2833
G3 X2.9235 Y2.309 I-0.0545 J-0.0301
G3 X2.9234 I-0.0008 J-0.0016
G1 X2.9074 Y2.3152
G3 X2.9059 Y2.3151 I-0.0006 J-0.0017
G1 X2.8867 Y2.3048
G3 X2.8666 Y2.2839 I0.016 J-0.0356
G3 X2.8664 Y2.2833 I0.0017 J-0.0007
G1 Y2.2754
G1 X2.8033
G1 X2.7402
G1 Y2.3984
G1 Y2.5214
G1 X2.7987
G1 X2.8584
G1 X2.8819 Y2.5061
G1 X2.9059 Y2.4904
G3 X2.9077 Y2.4903 I0.001 J0.0015
G1 X2.9271 Y2.5007
G3 X2.9532 Y2.5272 I-0.0272 J0.0529
G3 X2.9533 Y2.5273 I-0.0016 J0.0008
G1 X2.9591 Y2.5426
G3 Y2.5439 I-0.0017 J0.0006
G1 X2.9533 Y2.5591
G3 X2.9532 Y2.5593 I-0.0017 J-0.0006
G3 X2.9279 Y2.5853 I-0.0603 J-0.0334
G1 X2.9278 Y2.5854
G1 X2.909 Y2.5954
G3 X2.9073 I-0.0008 J-0.0016
G1 X2.8874 Y2.5848
G3 X2.8666 Y2.564 I0.0155 J-0.0363
G3 X2.8664 Y2.5633 I0.0017 J-0.0007
G1 Y2.5558
G1 X2.7908 Y2.5529
G1 X2.7134 Y2.55
G3 X2.7117 Y2.5482 I0.0001 J-0.0018
G1 X2.7147 Y2.0664
G1 X2.7176 Y1.5865
G1 X2.5888
G1 X2.4587
G1 X2.435 Y1.602
G1 X2.4108 Y1.6178
G3 X2.4089 Y1.6179 I-0.001 J-0.0015
G1 X2.3986 Y1.6116
G1 X2.3893 Y1.6058
G1 X2.3704 Y1.6159
G1 X2.352 Y1.6257
G1 X2.3568 Y1.6383
G1 X2.3622 Y1.6524
G3 X2.3618 Y1.6543 I-0.0017 J0.0006
G1 X2.3411 Y1.675
G3 X2.3097 Y1.6962 I-0.064 J-0.061
G3 X2.3084 I-0.0007 J-0.0017
G3 X2.2778 Y1.6758 I0.0324 J-0.0817
G1 X2.2584 Y1.6564
G1 X2.2449
G1 X2.2315
G1 X2.201 Y1.6931
G1 X2.1705 Y1.7299
G1 X2.175 Y1.7474
G1 X2.1797 Y1.7659
G3 X2.1796 Y1.767 I-0.0017 J0.0004
G1 X2.1741 Y1.7813
G3 X2.174 Y1.7814 I-0.0017 J-0.0006
G3 X2.1497 Y1.8062 I-0.052 J-0.0268
G1 X2.1316 Y1.8158
G3 X2.1302 Y1.8159 I-0.0008 J-0.0016
G1 X2.1142 Y1.8098
G3 X2.114 Y1.8097 I0.0006 J-0.0017
G3 X2.0872 Y1.7841 I0.0285 J-0.0566
G1 Y1.784
G1 X2.0771 Y1.7652
G3 Y1.7635 I0.0016 J-0.0008
G1 X2.0875 Y1.7442
G1 X2.0978 Y1.725
G3 X2.0988 Y1.7241 I0.0016 J0.0008
G1 X2.1213 Y1.717
G1 X2.1433 Y1.71
G1 X2.1813 Y1.6669
G1 X2.2196 Y1.6234
G3 X2.2209 Y1.6228 I0.0013 J0.0012
G1 X2.2364
G2 X2.3037 Y1.5983 I-0.0841 J-0.3356
G1 X2.3552 Y1.5739
G1 X2.3603 Y1.5606
G1 X2.3653 Y1.5478
G1 X2.3241 Y1.5074
G1 X2.2826 Y1.4666
G1 X1.9259
G1 X1.5704
G1 X1.5767 Y1.5271
G3 X1.5829 Y1.6696 I-1.0675 J0.1178
G1 X1.5822 Y1.7139
G1 Y1.714
G1 X1.5799 Y1.7804
G3 X1.5784 Y1.8138 I-0.2568 J0.0051
G1 X1.5776 Y1.8302
G3 X1.5766 Y1.847 I-0.0446 J0.0059
G1 X1.5707 Y1.9423
G1 X1.5933
G1 X1.6164
G1 X1.6215 Y1.9229
G1 X1.6269 Y1.9021
G3 X1.6289 Y1.9008 I0.0017 J0.0005
G1 X1.6521 Y1.9041
G1 X1.6753 Y1.9074
G3 X1.6768 Y1.9092 I-0.0003 J0.0018
G1 Y1.9641
G1 Y2.019
G3 X1.6753 Y2.0208 I-0.0018 J0.0
G1 X1.6521 Y2.0241
G1 X1.6289 Y2.0274
G3 X1.6269 Y2.026 I-0.0003 J-0.0018
G1 X1.6216 Y2.0058
G1 X1.6167 Y1.9868
G1 X1.5765 Y1.9839
G1 X1.5351 Y1.9809
G3 X1.5335 Y1.9791 I0.0001 J-0.0018
G1 X1.5306 Y1.8794
G1 X1.5277 Y1.7804
G1 X1.5186 Y1.7713
G1 X1.509 Y1.7617
G3 X1.5085 Y1.7604 I0.0013 J-0.0013
G1 Y1.6681
G1 Y1.5759
G3 X1.5093 Y1.5743 I0.0018 J0.0
G1 X1.5193 Y1.5682
G1 X1.5285 Y1.5625
G1 Y1.4942
G1 Y1.4249
G3 X1.5293 Y1.4234 I0.0018 J0.0
G0 Z0.125
G0 X1.6139 Y1.5085
G0 Z0.0748
G1 F20.0 Z-0.0027
G3 F40.0 X1.6151 Y1.508 I0.0013 J0.0013
G1 X1.7304 Y1.5052
G1 X1.8458 Y1.5024
G3 X1.8471 Y1.5029 I0.0 J0.0018
G1 X1.8541 Y1.5099
G3 X1.8544 Y1.5103 I-0.0013 J0.0013
G3 X1.8616 Y1.5411 I-0.0537 J0.0287
G1 Y1.564
G3 X1.8606 Y1.5656 I-0.0018 J0.0
G1 X1.8413 Y1.5759
G1 X1.822 Y1.5862
G3 X1.8211 Y1.5865 I-0.0008 J-0.0016
G1 X1.7805
G1 X1.7417
G1 Y1.6546
G1 Y1.7227
G1 X1.7496
G3 X1.7503 Y1.7228 I0.0 J0.0018
G3 X1.7719 Y1.7443 I-0.0172 J0.0388
G1 X1.7829 Y1.7649
G3 X1.7828 Y1.7667 I-0.0016 J0.0008
G1 X1.7671 Y1.7907
G1 X1.7517 Y1.8141
G1 Y1.8399
G1 Y1.8658
G1 X1.7672 Y1.8983
G1 X1.7828 Y1.9312
G3 X1.7829 Y1.9321 I-0.0016 J0.0008
G1 X1.7798 Y1.9756
G1 X1.7767 Y2.0191
G3 X1.7749 Y2.0208 I-0.0018 J-0.0001
G1 X1.7499
G1 X1.725
G3 X1.7232 Y2.019 I0.0 J-0.0018
G1 X1.7217 Y1.9227
G1 X1.7203 Y1.827
G1 X1.6981 Y1.797
G1 X1.6756 Y1.7665
G3 X1.6755 Y1.7645 I0.0014 J-0.0011
G1 X1.692 Y1.7393
G1 X1.7082 Y1.7146
G1 Y1.6499
G1 Y1.5865
G1 X1.6769
G1 X1.6439
G3 X1.6428 Y1.5861 I0.0 J-0.0018
G1 X1.625 Y1.5731
G1 X1.6072 Y1.56
G3 X1.6065 Y1.5583 I0.0011 J-0.0015
G1 X1.6099 Y1.5339
G1 X1.6134 Y1.5095
G3 X1.6139 Y1.5085 I0.0018 J0.0003
G0 Z0.125
G0 X1.6645 Y1.3429
G0 Z0.0748
G1 F20.0 Z-0.0027
G3 F40.0 X1.6643 Y1.3428 I0.0005 J-0.0017
G1 X1.6462 Y1.3341
G1 X1.6281 Y1.3253
G3 X1.6271 Y1.3235 I0.0008 J-0.0016
G1 X1.6302 Y1.2967
G1 X1.6333 Y1.2699
G3 X1.635 Y1.2683 I0.0018 J0.0002
G1 X1.6832 Y1.2653
G1 X1.7314 Y1.2622
G3 X1.7333 Y1.2635 I0.0001 J0.0018
G1 X1.7386 Y1.2841
G1 X1.7437 Y1.3033
G1 X1.8872
G1 X2.0304
G1 X2.0266 Y1.1079
G1 X2.0227 Y0.9107
G3 X2.0243 Y0.9089 I0.0018 J0.0
G1 X2.0446 Y0.906
G1 X2.065 Y0.9031
G3 X2.0665 Y0.9036 I0.0003 J0.0018
G1 X2.0736 Y0.9107
G1 X2.0807 Y0.9177
G3 X2.0812 Y0.919 I-0.0013 J0.0013
G1 Y0.9653
G1 Y1.0115
G3 X2.0807 Y1.0128 I-0.0018 J0.0
G1 X2.071 Y1.0225
G1 X2.0618 Y1.0317
G1 X2.059 Y1.1805
G1 X2.0563 Y1.3301
G3 X2.0545 Y1.3318 I-0.0018 J0.0
G1 X1.8598 Y1.3374
G1 X1.6651 Y1.343
G3 X1.6645 Y1.3429 I-0.0001 J-0.0018
G0 Z0.125
G0 X1.8171 Y1.1977
G0 Z0.0748
G1 F20.0 Z-0.0027
G3 F40.0 X1.8073 Y1.1843 I0.0461 J-0.0439
G1 X1.7968 Y1.1648
G3 X1.7969 Y1.163 I0.0016 J-0.0008
G1 X1.8132 Y1.1381
G1 X1.8292 Y1.1137
G1 X1.8261 Y1.0125
G1 X1.823 Y0.9107
G3 X1.8246 Y0.9089 I0.0018 J-0.0001
G1 X1.8461 Y0.9058
G1 X1.8676 Y0.9028
G3 X1.8694 Y0.9036 I0.0003 J0.0018
G1 X1.8762 Y0.9147
G1 X1.883 Y0.9257
G3 X1.8833 Y0.9268 I-0.0015 J0.0009
G1 X1.8763 Y1.0198
G1 X1.8694 Y1.1123
G1 X1.8854 Y1.1366
G1 X1.9017 Y1.1615
G3 X1.9018 Y1.1631 I-0.0015 J0.001
G1 X1.8954 Y1.1798
G3 Y1.1799 I-0.0017 J-0.0006
G3 X1.8702 Y1.2071 I-0.0533 J-0.0242
G1 X1.8701
G1 X1.8521 Y1.2167
G3 X1.8506 Y1.2168 I-0.0008 J-0.0016
G1 X1.8346 Y1.2107
G3 X1.8344 Y1.2106 I0.0006 J-0.0017
G3 X1.8171 Y1.1977 I0.0287 J-0.0568
G0 Z0.125
G0 X1.9539 Y1.5081
G0 Z0.0748
G1 F20.0 Z-0.0027
G3 F40.0 X1.9546 Y1.508 I0.0007 J0.0016
G1 X2.0699 Y1.5052
G1 X2.1853 Y1.5024
G3 X2.1866 Y1.5029 I0.0 J0.0018
G1 X2.1936 Y1.5099
G3 X2.1939 Y1.5103 I-0.0013 J0.0013
G3 X2.201 Y1.5411 I-0.0538 J0.0287
G1 Y1.564
G3 X2.2001 Y1.5656 I-0.0018 J0.0
G1 X2.1808 Y1.5759
G1 X2.1615 Y1.5862
G3 X2.1606 Y1.5865 I-0.0008 J-0.0016
G1 X2.0716
G1 X1.9835
G1 X1.9672 Y1.6044
G1 X1.9512 Y1.6221
G1 X1.9568 Y1.6367
G1 X1.9628 Y1.6524
G3 X1.9624 Y1.6543 I-0.0017 J0.0006
G1 X1.9417 Y1.675
G3 X1.9103 Y1.6962 I-0.064 J-0.0611
G3 X1.909 I-0.0007 J-0.0017
G3 X1.8785 Y1.6758 I0.0325 J-0.0819
G3 X1.8581 Y1.6451 I0.045 J-0.0521
G3 Y1.644 I0.0017 J-0.0006
G3 X1.8793 Y1.6125 I0.0705 J0.0247
G1 X1.9 Y1.5918
G3 X1.9019 Y1.5914 I0.0013 J0.0013
G1 X1.9154 Y1.5966
G1 X1.9276 Y1.6013
G1 X1.9394 Y1.5871
G1 X1.9516 Y1.5724
G1 X1.9522 Y1.5414
G1 X1.9528 Y1.5097
G3 X1.9539 Y1.5081 I0.0018 J0.0
G0 Z0.125
G0 Y1.8225
G0 Z0.0748
G1 F20.0 Z-0.0027
G1 F40.0 X2.0461
G3 X2.0474 Y1.823 I0.0 J0.0018
G1 X2.0541 Y1.8297
G3 X2.0544 Y1.8302 I-0.0013 J0.0013
G3 X2.0613 Y1.869 I-0.075 J0.0331
G1 Y1.8994
G1 X2.0713 Y1.9095
G1 X2.0819 Y1.9201
G3 X2.0824 Y1.9215 I-0.0013 J0.0013
G1 X2.0793 Y1.9703
G1 X2.0762 Y2.0191
G3 X2.0744 Y2.0208 I-0.0018 J-0.0001
G1 X2.0495
G1 X2.0245
G3 X2.0227 Y2.019 I0.0 J-0.0018
G1 X2.0249 Y1.9366
G1 X2.0271 Y1.8561
G1 X1.9443
G1 X1.8616
G1 Y1.8772
G1 Y1.8994
G1 X1.8716 Y1.9095
G1 X1.8822 Y1.9201
G3 X1.8827 Y1.9215 I-0.0013 J0.0013
G1 X1.8796 Y1.9703
G1 X1.8765 Y2.0191
G3 X1.8747 Y2.0208 I-0.0018 J-0.0001
G1 X1.8498
G1 X1.8248
G3 X1.823 Y2.019 I0.0 J-0.0018
G1 X1.8254 Y1.9342
G3 X1.8326 Y1.8366 I0.9558 J0.0214
G3 X1.8327 Y1.8362 I0.0018 J0.0002
G1 X1.8375 Y1.8237
G3 X1.8392 Y1.8225 I0.0017 J0.0006
G1 X1.9427
G1 X1.9539
G0 Z0.125
G0 Y1.9074
G0 Z0.0748
G1 F20.0 Z-0.0027
G1 F40.0 X1.9746
G3 X1.9764 Y1.9091 I0.0 J0.0018
G1 X1.9795 Y1.9579
G1 X1.9826 Y2.0067
G3 X1.9821 Y2.0081 I-0.0018 J0.0001
G1 X1.9715 Y2.0187
G1 X1.9614 Y2.0287
G1 Y2.0659
G1 Y2.1021
G1 X2.0455
G1 X2.1295
G1 X2.1227 Y2.0162
G1 X2.1158 Y1.9283
G3 X2.116 Y1.9273 I0.0018 J-0.0001
G1 X2.1451 Y1.8778
G1 X2.1741 Y1.8284
G3 X2.1756 Y1.8275 I0.0015 J0.0009
G1 X2.3262 Y1.8247
G1 X2.4754 Y1.822
G1 X2.4821 Y1.7962
G2 X2.4905 Y1.6995 I-0.4938 J-0.0919
G1 X2.492 Y1.6296
G3 X2.4936 Y1.6278 I0.0018 J0.0
G1 X2.5204 Y1.6247
G1 X2.5472 Y1.6216
G3 X2.549 Y1.6226 I0.0002 J0.0018
G1 X2.5596 Y1.6425
G1 X2.5703 Y1.6624
G3 X2.5705 Y1.6632 I-0.0016 J0.0008
G1 Y1.7038
G1 Y1.7444
G3 X2.5699 Y1.7457 I-0.0018 J0.0
G1 X2.5475 Y1.7676
G2 X2.5103 Y1.8196 I0.1596 J0.1536
G1 X2.4953 Y1.8501
G3 X2.4937 Y1.8511 I-0.0016 J-0.0008
G1 X2.3421 Y1.8538
G1 X2.1917 Y1.8565
G1 X2.1846 Y1.8776
G1 X2.1772 Y1.8994
G1 X2.18 Y1.9554
G1 X2.1828 Y2.0117
G3 X2.1819 Y2.0133 I-0.0018 J0.0001
G1 X2.1711 Y2.02
G1 X2.1611 Y2.0262
G1 Y2.1125
G1 Y2.199
G1 X2.1712 Y2.209
G1 X2.1818 Y2.2196
G3 X2.1823 Y2.221 I-0.0013 J0.0013
G1 X2.1792 Y2.2698
G1 X2.1761 Y2.3187
G3 X2.1743 Y2.3203 I-0.0018 J-0.0001
G1 X2.1493
G1 X2.1244
G3 X2.1226 Y2.3185 I0.0 J-0.0018
G1 X2.1253 Y2.2261
G1 X2.128 Y2.1356
G1 X1.9449
G1 X1.7617
G1 Y2.1668
G1 Y2.199
G1 X1.7718 Y2.209
G1 X1.7824 Y2.2196
G3 X1.7829 Y2.221 I-0.0013 J0.0013
G1 X1.7798 Y2.2698
G1 X1.7767 Y2.3187
G3 X1.7749 Y2.3203 I-0.0018 J-0.0001
G1 X1.7499
G1 X1.725
G3 X1.7232 Y2.3185 I0.0 J-0.0018
G1 X1.7259 Y2.2261
G1 X1.7286 Y2.1357
G1 X1.7078 Y2.1359
G1 X1.6856 Y2.1363
G1 X1.6667 Y2.1506
G1 X1.6473 Y2.1652
G3 X1.6463 Y2.1656 I-0.0011 J-0.0014
G1 X1.5952
G1 X1.5441
G3 X1.543 Y2.1652 I0.0 J-0.0018
G1 X1.5252 Y2.1522
G1 X1.5073 Y2.1392
G3 X1.5066 Y2.1375 I0.0011 J-0.0015
G1 X1.5101 Y2.1131
G1 X1.5135 Y2.0886
G3 X1.5152 Y2.0871 I0.0018 J0.0003
G1 X1.5891 Y2.0841
G1 X1.663 Y2.0812
G3 X1.6644 Y2.0817 I0.0001 J0.0018
G1 X1.6748 Y2.0922
G1 X1.6848 Y2.1021
G1 X1.8073
G1 X1.9288
G1 X1.9258 Y2.0066
G1 X1.9229 Y1.9092
G3 X1.9247 Y1.9074 I0.0018 J-0.0001
G1 X1.9496
G1 X1.9539
G0 Z0.125
G0 X2.2224 Y1.9092
G0 Z0.0748
G1 F20.0 Z-0.0027
G3 F40.0 X2.224 Y1.9074 I0.0018 J0.0
G1 X2.2472 Y1.9041
G1 X2.2703 Y1.9008
G3 X2.2723 Y1.9021 I0.0003 J0.0018
G1 X2.2776 Y1.9224
G1 X2.2826 Y1.9414
G1 X2.3277 Y1.9443
G1 X2.3741 Y1.9473
G3 X2.3758 Y1.949 I-0.0001 J0.0018
G1 X2.3788 Y2.0119
G1 X2.3817 Y2.0741
G1 X2.4007 Y2.0931
G3 X2.4206 Y2.1232 I-0.0606 J0.0617
G3 Y2.1245 I-0.0017 J0.0007
G3 X2.4002 Y2.1551 I-0.0819 J-0.0325
G1 X2.3808 Y2.1745
G1 Y2.2636
G1 Y2.3528
G1 X2.4002 Y2.3722
G3 X2.4206 Y2.4029 I-0.045 J0.0521
G3 Y2.4041 I-0.0017 J0.0006
G3 X2.4002 Y2.4347 I-0.0817 J-0.0324
G1 X2.3808 Y2.4541
G1 Y2.4883
G1 Y2.5214
G1 X2.4193
G1 X2.459
G1 X2.4825 Y2.5061
G1 X2.5065 Y2.4904
G3 X2.5083 Y2.4903 I0.001 J0.0015
G1 X2.5277 Y2.5007
G3 X2.5538 Y2.5272 I-0.0272 J0.0529
G3 X2.5539 Y2.5273 I-0.0016 J0.0008
G1 X2.5598 Y2.5426
G3 Y2.5439 I-0.0017 J0.0006
G1 X2.5539 Y2.5591
G3 X2.5538 Y2.5593 I-0.0017 J-0.0006
G3 X2.5285 Y2.5853 I-0.0602 J-0.0333
G1 X2.5284 Y2.5854
G1 X2.5096 Y2.5954
G3 X2.5079 I-0.0008 J-0.0016
G1 X2.488 Y2.5848
G3 X2.4672 Y2.5641 I0.018 J-0.0389
G3 X2.467 Y2.5633 I0.0016 J-0.0008
G1 Y2.5559
G1 X2.4113 Y2.553
G1 X2.3539 Y2.55
G3 X2.3522 Y2.5483 I0.0001 J-0.0018
G1 X2.3491 Y2.4996
G1 X2.3461 Y2.4514
G1 X2.3308 Y2.4281
G1 X2.3153 Y2.4044
G3 Y2.4024 I0.0015 J-0.001
G1 X2.3314 Y2.3778
G1 X2.3472 Y2.3537
G1 Y2.2636
G1 Y2.1736
G1 X2.3314 Y2.1494
G1 X2.3153 Y2.1248
G3 Y2.1229 I0.0015 J-0.001
G1 X2.3314 Y2.0982
G1 X2.3472 Y2.0741
G1 Y2.0243
G1 Y1.9759
G1 X2.3148
G1 X2.2821
G1 X2.2791 Y1.9968
G1 X2.2759 Y2.0193
G3 X2.2741 Y2.0208 I-0.0018 J-0.0003
G1 X2.2492
G1 X2.2242
G3 X2.2224 Y2.019 I0.0 J-0.0018
G1 Y1.9641
G1 Y1.9092
G0 Z0.125
G0 X2.4557 Y1.9848
G0 Z0.0748
G1 F20.0 Z-0.0027
G3 F40.0 X2.4559 Y1.9845 I0.0017 J0.0006
G1 X2.4665 Y1.9646
G1 X2.4772 Y1.9446
G3 X2.4782 Y1.9438 I0.0016 J0.0008
G1 X2.4957 Y1.9381
G1 X2.5126 Y1.9326
G1 X2.557 Y1.8558
G1 X2.6017 Y1.7788
G1 X2.6067 Y1.7044
G1 X2.6118 Y1.6295
G3 X2.6134 Y1.6278 I0.0018 J0.0001
G1 X2.6402 Y1.6247
G1 X2.667 Y1.6216
G3 X2.6688 Y1.6226 I0.0002 J0.0018
G1 X2.6794 Y1.6425
G1 X2.6901 Y1.6624
G3 X2.6903 Y1.6632 I-0.0016 J0.0008
G1 Y1.6995
G1 Y1.7357
G3 X2.6901 Y1.7366 I-0.0018 J0.0
G1 X2.6798 Y1.7559
G1 X2.6694 Y1.7752
G3 X2.6678 Y1.7762 I-0.0016 J-0.0008
G1 X2.654
G1 X2.6412
G1 X2.5918 Y1.8623
G1 X2.5424 Y1.9484
G1 X2.5514 Y1.9654
G1 X2.561 Y1.9832
G3 Y1.9849 I-0.0016 J0.0008
G1 X2.5503 Y2.0048
G3 X2.5291 Y2.0257 I-0.0354 J-0.0149
G3 X2.5284 Y2.0258 I-0.0007 J-0.0017
G1 X2.5206
G1 Y2.0474
G1 Y2.0696
G1 X2.545 Y2.0807
G1 X2.5698 Y2.092
G1 X2.5884 Y2.082
G1 X2.6078 Y2.0716
G3 X2.6095 I0.0008 J0.0016
G1 X2.6283 Y2.0817
G3 X2.654 Y2.1085 I-0.0301 J0.0545
G3 Y2.1087 I-0.0016 J0.0008
G1 X2.6602 Y2.1246
G3 X2.6601 Y2.1261 I-0.0017 J0.0006
G1 X2.6504 Y2.1442
G1 Y2.1443
G3 X2.624 Y2.1692 I-0.0539 J-0.0306
G3 X2.6238 I-0.0008 J-0.0016
G1 X2.6078 Y2.1754
G3 X2.6063 Y2.1753 I-0.0006 J-0.0017
G1 X2.5871 Y2.165
G1 X2.5687 Y2.1551
G1 X2.5496 Y2.1654
G1 X2.5296 Y2.1761
G3 X2.5279 I-0.0008 J-0.0016
G1 X2.5079 Y2.1654
G1 X2.488 Y2.1547
G3 X2.487 Y2.1533 I0.0008 J-0.0016
G1 X2.4857 Y2.1412
G3 Y2.1409 I0.0018 J-0.0002
G1 X2.4866 Y2.0823
G1 X2.4887 Y2.0364
G1 X2.4725 Y2.0116
G1 X2.4559 Y1.9864
G3 X2.4557 Y1.9848 I0.0015 J-0.001
G0 Z0.125
G0 X2.5084 Y2.212
G0 Z0.0748
G1 F20.0 Z-0.0027
G3 F40.0 X2.5094 I0.0004 J0.0018
G3 X2.54 Y2.2324 I-0.0325 J0.0819
G3 X2.5604 Y2.2631 I-0.045 J0.0521
G3 Y2.2643 I-0.0017 J0.0006
G3 X2.54 Y2.2949 I-0.0819 J-0.0325
G1 X2.5206 Y2.3143
G1 Y2.3319
G1 Y2.3491
G1 X2.545 Y2.3603
G1 X2.5698 Y2.3716
G1 X2.5877 Y2.362
G1 X2.6063 Y2.352
G3 X2.6078 Y2.3519 I0.0008 J0.0016
G1 X2.6238 Y2.358
G3 X2.6239 Y2.3581 I-0.0006 J0.0017
G3 X2.6504 Y2.383 I-0.0262 J0.0543
G1 Y2.3831
G1 X2.6601 Y2.4011
G3 X2.6602 Y2.4026 I-0.0016 J0.0008
G1 X2.654 Y2.4186
G3 Y2.4188 I-0.0017 J-0.0006
G3 X2.6283 Y2.4456 I-0.0565 J-0.0284
G1 X2.6095 Y2.4556
G3 X2.6078 I-0.0008 J-0.0016
G1 X2.5878 Y2.4449
G1 X2.5687 Y2.4347
G1 X2.5496 Y2.4449
G1 X2.5296 Y2.4556
G3 X2.5279 I-0.0008 J-0.0016
G1 X2.5079 Y2.4449
G1 X2.488 Y2.4343
G3 X2.487 Y2.4329 I0.0008 J-0.0016
G1 X2.4857 Y2.4207
G3 X2.4866 Y2.3613 I0.3904 J-0.0239
G1 X2.4888 Y2.315
G1 X2.4732 Y2.2929
G1 Y2.2928
G3 X2.4572 Y2.2621 I0.1302 J-0.0875
G3 Y2.2606 I0.0017 J-0.0006
G3 X2.4775 Y2.2324 I0.0913 J0.0443
G3 X2.5082 Y2.212 I0.0521 J0.045
G3 X2.5084 I0.0006 J0.0017
G0 Z0.125
G0 X2.2771 Y2.2266
G0 Z0.0748
G1 F20.0 Z-0.0027
G1 F40.0 X2.279 Y2.2574
G1 X2.2821 Y2.3062
G3 X2.2816 Y2.3076 I-0.0018 J0.0001
G1 X2.271 Y2.3182
G1 X2.261 Y2.3283
G1 Y2.4853
G1 Y2.6413
G1 X2.6635
G1 X3.0661
G1 Y2.0639
G1 Y1.4866
G1 X2.7557
G1 X2.4435
G3 X2.4423 Y1.4861 I0.0 J-0.0018
G1 X2.3361 Y1.3787
G1 X2.2299 Y1.2714
G3 X2.2294 Y1.2702 I0.0013 J-0.0013
G1 X2.2259 Y1.0904
G1 X2.2224 Y0.9107
G3 X2.2242 Y0.9089 I0.0018 J0.0
G1 X2.2492
G1 X2.2741
G3 X2.2759 Y0.9107 I0.0 J0.0018
G1 X2.2721 Y1.0789
G1 X2.2682 Y1.2463
G1 X2.3662 Y1.3447
G1 X2.4642 Y1.4431
G1 X2.7857
G1 X3.1079
G3 X3.1097 Y1.4449 I0.0 J0.0018
G1 Y2.064
G1 Y2.6831
G3 X3.1079 Y2.6849 I-0.0018 J0.0
G1 X1.6326 Y2.6823
G1 X0.1573 Y2.6798
G3 X0.1555 Y2.678 I0.0 J-0.0018
G1 X0.1529 Y2.259
G1 X0.1503 Y1.8408
G1 X0.141 Y1.8315
G1 X0.1311 Y1.8216
G3 X0.1306 Y1.8203 I0.0013 J-0.0013
G1 Y1.7081
G1 Y1.5958
G3 X0.1314 Y1.5943 I0.0018 J0.0
G1 X0.1414 Y1.5881
G1 X0.1505 Y1.5825
G1 Y1.4988
G1 Y1.4148
G1 X0.1347 Y1.3906
G1 X0.1186 Y1.366
G3 Y1.364 I0.0015 J-0.001
G1 X0.1344 Y1.3399
G1 X0.1499 Y1.3162
G1 X0.1527 Y1.2036
G1 X0.1555 Y1.0904
G3 X0.1573 Y1.0886 I0.0018 J0.0
G1 X0.4456 Y1.086
G1 X0.732 Y1.0833
G1 X0.7284 Y0.948
G1 X0.7247 Y0.8109
G3 X0.7262 Y0.8091 I0.0018 J0.0
G1 X0.7466 Y0.8061
G1 X0.767 Y0.8032
G3 X0.7685 Y0.8037 I0.0003 J0.0018
G1 X0.7756 Y0.8108
G1 X0.7827 Y0.8179
G3 X0.7832 Y0.8192 I-0.0013 J0.0013
G1 Y0.8654
G1 Y0.9117
G3 X0.7827 Y0.913 I-0.0018 J0.0
G1 X0.7731 Y0.9225
G1 X0.764 Y0.9316
G1 X0.7611 Y1.0206
G1 X0.7582 Y1.1104
G3 X0.7564 Y1.1122 I-0.0018 J-0.0001
G1 X0.4694 Y1.1148
G1 X0.1841 Y1.1175
G1 Y1.2204
G1 Y1.3233
G1 X0.1919
G3 X0.1927 Y1.3234 I0.0 J0.0018
G3 X0.2142 Y1.3449 I-0.0172 J0.0388
G1 X0.2252 Y1.3655
G3 Y1.3673 I-0.0016 J0.0008
G1 X0.2088 Y1.3923
G1 X0.1928 Y1.4167
G1 X0.1988 Y1.5128
G3 X0.2043 Y1.7095 I-2.358 J0.1643
G1 X0.2017 Y1.9504
G1 X0.2002 Y2.0709
G1 X0.1987 Y2.1913
G1 X0.1936 Y2.5714
G1 X0.2999
G1 X0.408
G3 X0.4092 Y2.5719 I0.0 J0.0018
G1 X0.4212 Y2.5839
G1 X0.4332 Y2.5959
G3 X0.4337 Y2.5971 I-0.0013 J0.0013
G1 Y2.6201
G1 Y2.6413
G1 X0.8413
G1 X1.2489
G1 Y2.4583
G1 Y2.2754
G1 X1.1665
G1 X1.0839
G1 X1.0809 Y2.2963
G1 X1.0777 Y2.3188
G3 X1.0759 Y2.3203 I-0.0018 J-0.0003
G1 X1.051
G1 X1.026
G3 X1.0242 Y2.3186 I0.0 J-0.0018
G1 Y2.2636
G1 Y2.2087
G3 X1.0258 Y2.2069 I0.0018 J0.0
G1 X1.049 Y2.2037
G1 X1.0722 Y2.2004
G3 X1.0741 Y2.2017 I0.0003 J0.0018
G1 X1.0795 Y2.2221
G1 X1.0845 Y2.2412
G1 X1.1794 Y2.244
G1 X1.2757 Y2.2469
G3 X1.2774 Y2.2486 I-0.0001 J0.0018
G1 X1.2801 Y2.4458
G1 X1.2828 Y2.6413
G1 X1.7565
G1 X2.23
G1 X2.2262 Y2.4259
G1 X2.2224 Y2.2087
G3 X2.2242 Y2.2069 I0.0018 J0.0
G1 X2.2492
G1 X2.2741
G3 X2.2759 Y2.2086 I0.0 J0.0018
G1 X2.2771 Y2.2266
G0 Z0.125
G0 X1.9814
G0 Z0.0748
G1 F20.0 Z-0.0027
G1 F40.0 Y2.2647
G1 Y2.3124
G3 X1.9805 Y2.3139 I-0.0018 J0.0
G1 X1.9705 Y2.3201
G1 X1.9614 Y2.3257
G1 Y2.379
G1 Y2.4326
G1 X1.9808 Y2.452
G3 X2.0013 Y2.4827 I-0.045 J0.0521
G3 X2.0012 Y2.4839 I-0.0017 J0.0006
G3 X1.98 Y2.5153 I-0.0705 J-0.0247
G1 X1.9593 Y2.536
G3 X1.9573 Y2.5364 I-0.0013 J-0.0013
G1 X1.9406 Y2.5281
G1 X1.9242 Y2.52
G1 X1.7272 Y2.5171
G1 X1.5303 Y2.5143
G1 X1.5089 Y2.5293
G1 X1.4869 Y2.5447
G3 X1.4859 Y2.545 I-0.001 J-0.0015
G1 X1.4551
G1 X1.4242
G3 X1.4232 Y2.5447 I0.0 J-0.0018
G1 X1.4053 Y2.5316
G1 X1.3875 Y2.5186
G3 X1.3868 Y2.5169 I0.0011 J-0.0015
G1 X1.3902 Y2.4925
G1 X1.3937 Y2.4681
G3 X1.3954 Y2.4665 I0.0018 J0.0003
G1 X1.4492 Y2.4635
G1 X1.5031 Y2.4604
G3 X1.5044 Y2.4609 I0.0001 J0.0018
G1 X1.515 Y2.4715
G1 X1.525 Y2.4815
G1 X1.7108
G1 X1.8964
G1 X1.9129 Y2.4564
G1 X1.9295 Y2.431
G1 X1.9262 Y2.3202
G1 X1.9229 Y2.2088
G3 X1.9244 Y2.2069 I0.0018 J-0.0001
G1 X1.9448 Y2.204
G1 X1.9652 Y2.2011
G3 X1.9667 Y2.2016 I0.0003 J0.0018
G1 X1.9738 Y2.2087
G1 X1.9809 Y2.2158
G3 X1.9814 Y2.217 I-0.0013 J0.0013
G1 Y2.2266
G0 Z0.125
G0 X1.2936 Y2.1315
G0 Z0.0748
G1 F20.0 Z-0.0027
G3 F40.0 X1.293 Y2.1325 I-0.0018 J-0.0002
G1 X1.278 Y2.1476
G1 X1.263 Y2.1626
G3 X1.2616 Y2.1631 I-0.0013 J-0.0013
G1 X1.0614 Y2.1579
G1 X0.8631 Y2.1528
G1 Y2.1753
G1 Y2.199
G1 X0.8731 Y2.209
G1 X0.8837 Y2.2196
G3 X0.8842 Y2.221 I-0.0013 J0.0013
G1 X0.8811 Y2.2698
G1 X0.878 Y2.3187
G3 X0.8762 Y2.3203 I-0.0018 J-0.0001
G1 X0.8513
G1 X0.8263
G3 X0.8245 Y2.3185 I0.0 J-0.0018
G1 X0.8269 Y2.2337
G3 X0.8341 Y2.1362 I0.9681 J0.0223
G3 X0.8342 Y2.1358 I0.0018 J0.0002
G1 X0.839 Y2.1232
G3 X0.8407 Y2.122 I0.0017 J0.0006
G1 X0.9846
G1 X1.1271
G1 X1.132 Y2.1034
G1 X1.1372 Y2.0835
G3 X1.139 Y2.0821 I0.0017 J0.0005
G1 X1.1848
G1 X1.2289
G1 X1.2286 Y2.0465
G1 X1.2283 Y2.0096
G1 X1.214 Y1.9907
G3 X1.1991 Y1.9627 I0.0753 J-0.0582
G3 Y1.9614 I0.0017 J-0.0006
G3 X1.2194 Y1.9329 I0.0836 J0.038
G3 X1.2501 Y1.9125 I0.0521 J0.045
G3 X1.2513 I0.0006 J0.0017
G3 X1.2819 Y1.9328 I-0.0325 J0.0819
G3 X1.3023 Y1.9612 I-0.0487 J0.0565
G3 Y1.9624 I-0.0017 J0.0007
G3 X1.2861 Y1.9935 I-0.0885 J-0.0264
G1 X1.2706 Y2.0156
G1 X1.2748 Y2.0568
G1 Y2.0569
G2 X1.2862 Y2.1144 I0.2757 J-0.0247
G1 X1.2934 Y2.1305
G3 X1.2936 Y2.1315 I-0.0016 J0.0007
G0 Z0.125
G0 X1.0775 Y2.0192
G0 Z0.0748
G1 F20.0 Z-0.0027
G3 F40.0 X1.0763 Y2.0201 I-0.0016 J-0.0008
G1 X1.0578 Y2.0239
G1 X1.0392 Y2.0276
G3 X1.0376 Y2.0271 I-0.0004 J-0.0018
G1 X1.0281 Y2.0176
G1 X1.0185 Y2.008
G3 X1.018 Y2.0067 I0.0013 J-0.0013
G1 X1.025 Y1.8955
G1 X1.0321 Y1.7842
G3 X1.0338 Y1.7826 I0.0018 J0.0001
G1 X1.0799 Y1.7822
G1 X1.1253 Y1.7819
G1 X1.1442 Y1.7676
G3 X1.1721 Y1.7527 I0.0583 J0.0756
G3 X1.1735 Y1.7528 I0.0006 J0.0017
G3 X1.202 Y1.7731 I-0.038 J0.0837
G3 X1.2224 Y1.8038 I-0.045 J0.0521
G3 Y1.805 I-0.0017 J0.0006
G3 X1.2021 Y1.8355 I-0.0819 J-0.0325
G3 X1.1734 Y1.8559 I-0.0578 J-0.0509
G3 X1.1722 Y1.856 I-0.0007 J-0.0017
G3 X1.1441 Y1.841 I0.0201 J-0.0716
G1 X1.1253 Y1.8267
G1 X1.0979 Y1.8264
G1 X1.0719 Y1.8261
G1 X1.0748 Y1.9213
G1 X1.0777 Y2.0183
G3 X1.0775 Y2.0192 I-0.0018 J0.0001
G0 Z0.125
G0 X0.9842 Y1.9982
G0 Z0.0748
G1 F20.0 Z-0.0027
G3 F40.0 X0.984 Y1.9987 I-0.0018 J-0.0004
G1 X0.9738 Y2.0192
G2 X0.9608 Y2.0642 I0.1497 J0.0676
G1 X0.9579 Y2.0891
G3 X0.9562 Y2.0907 I-0.0018 J-0.0002
G1 X0.8588 Y2.0936
G1 X0.7632 Y2.0964
G1 Y2.1472
G1 Y2.199
G1 X0.7733 Y2.209
G1 X0.7839 Y2.2196
G3 X0.7844 Y2.221 I-0.0013 J0.0013
G1 X0.7813 Y2.2698
G1 X0.7782 Y2.3187
G3 X0.7764 Y2.3203 I-0.0018 J-0.0001
G1 X0.7514
G1 X0.7265
G3 X0.7247 Y2.3185 I0.0 J-0.0018
G1 X0.7266 Y2.0465
G1 X0.7286 Y1.7762
G1 X0.6211
G1 X0.5136
G1 Y1.784
G3 X0.5135 Y1.7847 I-0.0018 J0.0
G3 X0.4933 Y1.8056 I-0.0363 J-0.0148
G1 X0.4742 Y1.8158
G3 X0.4727 Y1.8159 I-0.0008 J-0.0016
G1 X0.4567 Y1.8098
G3 X0.4565 Y1.8097 I0.0006 J-0.0017
G3 X0.4301 Y1.7848 I0.0263 J-0.0543
G1 X0.4204 Y1.7667
G3 X0.4203 Y1.7652 I0.0016 J-0.0008
G1 X0.4265 Y1.7492
G3 Y1.749 I0.0017 J0.0006
G3 X0.4529 Y1.7219 I0.0567 J0.0287
G1 X0.4724 Y1.7115
G3 X0.4742 I0.0008 J0.0016
G1 X0.4981 Y1.7272
G1 X0.5216 Y1.7426
G1 X0.6259
G1 X0.729
G1 X0.7318 Y1.657
G1 X0.7347 Y1.5696
G3 X0.7363 Y1.5679 I0.0018 J0.0001
G1 X0.7702 Y1.5647
G1 X0.8037 Y1.5615
G1 X0.8268 Y1.5463
G1 X0.8503 Y1.5309
G3 X0.8523 I0.001 J0.0015
G1 X0.8769 Y1.5471
G1 X0.901 Y1.5629
G1 X0.9533 Y1.5626
G1 X1.0054 Y1.5623
G1 X1.0243 Y1.548
G3 X1.0523 Y1.533 I0.0583 J0.0755
G3 X1.0536 Y1.5331 I0.0006 J0.0017
G3 X1.0822 Y1.5534 I-0.038 J0.0836
G3 X1.1026 Y1.5841 I-0.045 J0.0521
G3 Y1.5853 I-0.0017 J0.0006
G3 X1.0823 Y1.6158 I-0.0819 J-0.0325
G3 X1.0515 Y1.6363 I-0.0521 J-0.045
G3 X1.0503 I-0.0006 J-0.0017
G3 X1.0198 Y1.6159 I0.0324 J-0.0817
G1 X1.0003 Y1.5964
G1 X0.9511
G1 X0.902
G1 X0.8826 Y1.6158
G3 X0.8518 Y1.6363 I-0.0521 J-0.045
G3 X0.8506 I-0.0006 J-0.0017
G3 X0.8201 Y1.6159 I0.0325 J-0.0819
G1 X0.8006 Y1.5964
G1 X0.7814
G1 X0.7632
G1 Y1.7488
G1 Y1.902
G1 X0.7724 Y1.9076
G1 X0.7823 Y1.9138
G3 X0.7832 Y1.9153 I-0.0009 J0.0015
G1 Y1.9641
G1 Y2.0128
G3 X0.7823 Y2.0144 I-0.0018 J0.0
G1 X0.7724 Y2.0205
G1 X0.7632 Y2.0262
G1 Y2.0446
G1 Y2.0621
G1 X0.8456
G1 X0.928
G1 X0.9262 Y1.9866
G1 X0.9244 Y1.9092
G3 X0.9262 Y1.9074 I0.0018 J0.0
G1 X0.9511
G1 X0.9761
G3 X0.9779 Y1.909 I0.0 J0.0018
G1 X0.9811 Y1.9534
G1 X0.9842 Y1.9977
G3 Y1.9982 I-0.0018 J0.0001
G0 Z0.125
G0 X0.8775 Y2.0015
G0 Z0.0748
G1 F20.0 Z-0.0027
G1 F40.0 X0.878 Y2.0183
G3 X0.8766 Y2.0201 I-0.0018 J0.0001
G1 X0.8581 Y2.0239
G1 X0.8395 Y2.0276
G3 X0.8379 Y2.0271 I-0.0004 J-0.0018
G1 X0.8284 Y2.0176
G1 X0.8188 Y2.008
G3 X0.8183 Y2.0067 I0.0013 J-0.0013
G1 X0.8253 Y1.8955
G1 X0.8324 Y1.7842
G3 X0.8341 Y1.7826 I0.0018 J0.0001
G1 X0.8602 Y1.7822
G1 X0.8856 Y1.7819
G1 X0.9045 Y1.7676
G3 X0.9325 Y1.7527 I0.0581 J0.0752
G3 X0.9338 Y1.7528 I0.0006 J0.0017
G3 X0.9624 Y1.7731 I-0.0381 J0.0838
G3 X0.9828 Y1.8038 I-0.045 J0.0521
G3 Y1.805 I-0.0017 J0.0006
G3 X0.9624 Y1.8355 I-0.0819 J-0.0325
G3 X0.9338 Y1.8559 I-0.0577 J-0.0508
G3 X0.9326 Y1.856 I-0.0007 J-0.0017
G3 X0.9045 Y1.841 I0.0202 J-0.0718
G2 X0.8779 Y1.8264 I-0.062 J0.0814
G1 X0.8722 Y1.8262
G1 X0.8751 Y1.9213
G1 X0.8775 Y2.0015
G0 Z0.125
G0 X0.6833
G0 Z0.0748
G1 F20.0 Z-0.0027
G1 F40.0 Y2.01
G3 X0.6828 Y2.0113 I-0.0018 J0.0
G1 X0.6735 Y2.0208
G1 X0.6646 Y2.0298
G1 X0.6615 Y2.0691
G1 X0.6584 Y2.109
G3 X0.6567 Y2.1107 I-0.0018 J-0.0001
G1 X0.6093 Y2.1137
G1 X0.5635 Y2.1166
G1 Y2.1573
G1 Y2.199
G1 X0.5736 Y2.209
G1 X0.5842 Y2.2196
G3 X0.5847 Y2.221 I-0.0013 J0.0013
G1 X0.5816 Y2.2698
G1 X0.5785 Y2.3187
G3 X0.5767 Y2.3203 I-0.0018 J-0.0001
G1 X0.5517
G1 X0.5268
G3 X0.525 Y2.3185 I0.0 J-0.0018
G1 X0.5281 Y2.2162
G1 X0.5312 Y2.1157
G1 X0.4975
G1 X0.4637
G1 Y2.1568
G1 Y2.199
G1 X0.4737 Y2.209
G1 X0.4843 Y2.2196
G3 X0.4848 Y2.221 I-0.0013 J0.0013
G1 X0.4817 Y2.2698
G1 X0.4786 Y2.3187
G3 X0.4769 Y2.3203 I-0.0018 J-0.0001
G1 X0.4519
G1 X0.4269
G3 X0.4251 Y2.3185 I0.0 J-0.0018
G1 X0.4283 Y2.2162
G1 X0.4314 Y2.1157
G1 X0.3577
G1 X0.2839
G1 Y2.2986
G1 Y2.4815
G1 X0.6061
G1 X0.929
G1 X0.9346 Y2.4724
G1 X0.9408 Y2.4624
G3 X0.9423 Y2.4615 I0.0015 J0.0009
G1 X1.0063
G1 X1.0703
G3 X1.0718 Y2.4625 I0.0 J0.0018
G1 X1.0821 Y2.4817
G3 X1.0927 Y2.5065 I-0.0693 J0.0441
G3 X1.0925 Y2.5077 I-0.0017 J0.0004
G3 X1.0765 Y2.5288 I-0.0606 J-0.0293
G1 X1.0608 Y2.5445
G3 X1.0595 Y2.545 I-0.0013 J-0.0013
G1 X1.0193
G1 X0.9791
G3 X0.9783 Y2.5448 I0.0 J-0.0018
G1 X0.9469 Y2.53
G1 X0.9158 Y2.5152
G1 X0.5867 Y2.5127
G1 X0.2572 Y2.5101
G3 X0.2554 Y2.5083 I0.0 J-0.0018
G1 Y2.2986
G1 Y2.0889
G3 X0.2572 Y2.0871 I0.0018 J0.0
G1 X0.4444 Y2.0844
G1 X0.6298 Y2.0817
G1 X0.6273 Y1.9964
G1 X0.6248 Y1.9092
G3 X0.6264 Y1.9074 I0.0018 J-0.0001
G1 X0.6468 Y1.9045
G1 X0.6671 Y1.9016
G3 X0.6687 Y1.9021 I0.0003 J0.0018
G1 X0.6757 Y1.9091
G1 X0.6828 Y1.9162
G3 X0.6833 Y1.9175 I-0.0013 J0.0013
G1 Y1.9638
G1 Y2.0015
G0 Z0.125
G0 X0.5785
G0 Z0.0748
G1 F20.0 Z-0.0027
G1 F40.0 Y2.019
G3 X0.5767 Y2.0208 I-0.0018 J0.0
G1 X0.5517
G1 X0.5268
G3 X0.525 Y2.0193 I0.0 J-0.0018
G1 X0.5218 Y1.9968
G1 X0.5188 Y1.9759
G1 X0.5018
G1 X0.4848
G1 X0.4818 Y1.9968
G1 X0.4786 Y2.0193
G3 X0.4769 Y2.0208 I-0.0018 J-0.0003
G1 X0.4519
G1 X0.4269
G3 X0.4251 Y2.0191 I0.0 J-0.0018
G1 X0.4222 Y1.9736
G1 X0.4193 Y1.9292
G1 X0.3784 Y1.9144
G1 X0.3365 Y1.8991
G3 X0.3353 Y1.8976 I0.0006 J-0.0017
G1 X0.3321 Y1.8547
G1 X0.329 Y1.8123
G1 X0.3138 Y1.789
G1 X0.2983 Y1.7654
G3 Y1.7634 I0.0015 J-0.001
G1 X0.3144 Y1.7388
G1 X0.3303 Y1.7146
G1 Y1.6745
G1 Y1.6344
G1 X0.3144 Y1.6103
G1 X0.2983 Y1.5856
G3 Y1.5837 I0.0015 J-0.001
G1 X0.3144 Y1.5591
G1 X0.3303 Y1.5349
G1 Y1.5001
G1 Y1.4648
G3 X0.3321 Y1.463 I0.0018 J0.0
G1 X0.6012
G1 X0.8686
G1 X0.8715 Y1.4073
G1 X0.8745 Y1.3499
G3 X0.876 Y1.3482 I0.0018 J0.0001
G1 X0.9004 Y1.3448
G1 X0.9248 Y1.3413
G3 X0.9265 Y1.3421 I0.0003 J0.0018
G1 X0.9395 Y1.3599
G1 X0.9526 Y1.3777
G3 X0.9529 Y1.3788 I-0.0015 J0.0011
G1 Y1.4218
G1 Y1.463
G1 X1.051
G1 X1.149
G1 Y1.3251
G1 Y1.1871
G1 X1.1335 Y1.1874
G2 X1.0976 Y1.202 I0.0135 J0.0847
G3 X1.0696 Y1.2169 I-0.0582 J-0.0755
G3 X1.0683 I-0.0006 J-0.0017
G3 X1.0398 Y1.1966 I0.038 J-0.0836
G3 X1.0193 Y1.1659 I0.045 J-0.0521
G3 X1.0194 Y1.1646 I0.0017 J-0.0006
G3 X1.0397 Y1.1341 I0.0817 J0.0324
G3 X1.0681 Y1.1137 I0.0565 J0.0487
G3 X1.0693 I0.0007 J0.0017
G3 X1.0978 Y1.1281 I-0.0332 J0.1008
G1 X1.1177 Y1.142
G1 X1.1516 Y1.1453
G1 X1.186 Y1.1485
G3 X1.1876 Y1.1503 I-0.0002 J0.0018
G1 X1.1903 Y1.3874
G1 X1.1929 Y1.6228
G1 X1.2305
G1 X1.2699
G3 X1.2715 Y1.6238 I0.0 J0.0018
G1 X1.2818 Y1.643
G3 X1.2924 Y1.6677 I-0.0691 J0.044
G3 X1.2922 Y1.6689 I-0.0017 J0.0004
G3 X1.2762 Y1.6901 I-0.0606 J-0.0294
G1 X1.2605 Y1.7058
G3 X1.2592 Y1.7063 I-0.0013 J-0.0013
G1 X1.2207
G1 X1.1821
G3 X1.1814 Y1.7062 I0.0 J-0.0018
G1 X1.1558 Y1.6964
G1 X1.1302 Y1.6867
G3 X1.1291 Y1.685 I0.0006 J-0.0017
G1 Y1.6604
G1 Y1.6358
G3 X1.1299 Y1.6342 I0.0018 J0.0
G1 X1.1399 Y1.6281
G1 X1.149 Y1.6224
G1 Y1.5641
G1 Y1.5066
G1 X0.7614
G1 X0.3738
G1 Y1.52
G2 X0.3896 Y1.559 I0.0842 J-0.0114
G1 Y1.5591
G1 X0.4058 Y1.5837
G3 Y1.5856 I-0.0015 J0.001
G1 X0.3896 Y1.6103
G1 X0.3738 Y1.6344
G1 Y1.6745
G1 Y1.7146
G1 X0.3896 Y1.7388
G1 X0.4058 Y1.7634
G3 Y1.7654 I-0.0015 J0.001
G1 X0.3896 Y1.79
G1 X0.3738 Y1.8141
G1 Y1.8391
G1 Y1.8633
G1 X0.4277 Y1.8871
G1 X0.4826 Y1.9114
G3 X0.4836 Y1.9131 I-0.0007 J0.0016
G1 Y1.9286
G1 Y1.9423
G1 X0.5007
G1 X0.5181
G1 X0.5231 Y1.9229
G1 X0.5286 Y1.9021
G3 X0.5306 Y1.9008 I0.0017 J0.0005
G1 X0.5538 Y1.9041
G1 X0.577 Y1.9074
G3 X0.5785 Y1.9092 I-0.0003 J0.0018
G1 Y1.9641
G1 Y2.0015
G0 Z0.125
G0 X0.6262 Y2.207
G0 Z0.0748
G1 F20.0 Z-0.0027
G3 F40.0 X0.6264 Y2.2069 I0.0004 J0.0018
G1 X0.6468 Y2.204
G1 X0.6671 Y2.2011
G3 X0.6687 Y2.2016 I0.0003 J0.0018
G1 X0.6757 Y2.2087
G1 X0.6828 Y2.2158
G3 X0.6833 Y2.217 I-0.0013 J0.0013
G1 Y2.2633
G1 Y2.3096
G3 X0.6828 Y2.3108 I-0.0018 J0.0
G1 X0.6737 Y2.3202
G2 X0.6616 Y2.3586 I0.0677 J0.0424
G3 Y2.3587 I-0.0018 J-0.0001
G1 X0.6584 Y2.3886
G3 X0.6566 Y2.3902 I-0.0018 J-0.0002
G1 X0.5343 Y2.393
G1 X0.4137 Y2.3958
G1 Y2.4034
G3 X0.4136 Y2.4041 I-0.0018 J0.0
G3 X0.3928 Y2.425 I-0.0375 J-0.0166
G1 X0.3729 Y2.4357
G3 X0.3712 I-0.0008 J-0.0016
G1 X0.3524 Y2.4256
G1 X0.3523
G3 X0.3267 Y2.3988 I0.0301 J-0.0545
G3 X0.3266 Y2.3986 I0.0016 J-0.0008
G1 X0.3205 Y2.3827
G3 X0.3206 Y2.3812 I0.0017 J-0.0006
G1 X0.3302 Y2.3631
G1 X0.3303 Y2.363
G3 X0.3574 Y2.3379 I0.0569 J0.0341
G3 X0.3575 Y2.3378 I0.0008 J0.0016
G1 X0.3742 Y2.3314
G3 X0.3758 Y2.3316 I0.0006 J0.0017
G1 X0.399 Y2.3468
G1 X0.4218 Y2.3617
G1 X0.5258
G1 X0.6284
G1 X0.6267 Y2.2861
G1 X0.6248 Y2.2088
G3 X0.6262 Y2.207 I0.0018 J0.0
G0 Z0.125
G0 X0.9244 Y2.2087
G0 Z0.0748
G1 F20.0 Z-0.0027
G3 F40.0 X0.9259 Y2.2069 I0.0018 J0.0
G1 X0.9462 Y2.204
G3 X0.9463 I0.0004 J0.0018
G1 X0.9667 Y2.2011
G3 X0.9682 Y2.2016 I0.0003 J0.0018
G1 X0.9753 Y2.2087
G1 X0.9824 Y2.2158
G3 X0.9829 Y2.217 I-0.0013 J0.0013
G1 Y2.2647
G1 Y2.3124
G3 X0.982 Y2.3139 I-0.0018 J0.0
G1 X0.9721 Y2.3201
G1 X0.9629 Y2.3257
G1 Y2.3541
G1 Y2.3817
G1 X1.0254
G1 X1.0887
G1 X1.0944 Y2.3725
G1 X1.1006 Y2.3625
G3 X1.1021 Y2.3617 I0.0015 J0.0009
G1 X1.1561
G1 X1.21
G3 X1.2116 Y2.3626 I0.0 J0.0018
G1 X1.2219 Y2.3819
G3 X1.2325 Y2.4066 I-0.0693 J0.0441
G3 X1.2323 Y2.4078 I-0.0017 J0.0004
G3 X1.2163 Y2.429 I-0.0606 J-0.0293
G1 X1.2006 Y2.4446
G3 X1.1993 Y2.4452 I-0.0013 J-0.0013
G1 X1.1676 Y2.4451
G1 X1.1359 Y2.445
G3 X1.135 Y2.4448 I0.0 J-0.0018
G1 X1.1064 Y2.4299
G1 X1.0782 Y2.4152
G1 X1.0096
G1 X0.9405
G3 X0.9388 Y2.414 I0.0 J-0.0018
G1 X0.9342 Y2.4016
G3 X0.9341 Y2.4011 I0.0017 J-0.0006
G1 X0.9291 Y2.3501
G3 X0.9269 Y2.2986 I0.3785 J-0.0417
G1 X0.9244 Y2.2088
G1 Y2.2087
G0 Z0.125
G0 X0.6575 Y1.6348
G0 Z0.0748
G1 F20.0 Z-0.0027
G3 F40.0 X0.6542 Y1.6363 I-0.0324 J-0.0698
G3 X0.653 I-0.0007 J-0.0017
G3 X0.6249 Y1.6213 I0.0203 J-0.0718
G1 X0.606 Y1.6071
G1 X0.5639 Y1.6067
G1 X0.5216 Y1.6064
G1 X0.4989 Y1.6213
G1 X0.4757 Y1.6365
G3 X0.474 Y1.6367 I-0.001 J-0.0015
G1 X0.4574 Y1.6303
G3 X0.4573 I0.0006 J-0.0017
G3 X0.4301 Y1.605 I0.0242 J-0.0533
G1 X0.4204 Y1.587
G3 X0.4203 Y1.5855 I0.0016 J-0.0008
G1 X0.4265 Y1.5695
G3 Y1.5693 I0.0017 J0.0006
G3 X0.4529 Y1.5422 I0.0567 J0.0286
G1 X0.4724 Y1.5317
G3 X0.4742 Y1.5318 I0.0008 J0.0016
G1 X0.4981 Y1.5475
G1 X0.5216 Y1.5629
G1 X0.5639 Y1.5626
G1 X0.606 Y1.5623
G1 X0.6249 Y1.548
G3 X0.6529 Y1.533 I0.0582 J0.0753
G3 X0.6542 Y1.5331 I0.0006 J0.0017
G3 X0.6828 Y1.5534 I-0.038 J0.0837
G3 X0.7032 Y1.5841 I-0.045 J0.0521
G3 Y1.5853 I-0.0017 J0.0006
G3 X0.6828 Y1.6159 I-0.082 J-0.0326
G3 X0.6575 Y1.6348 I-0.0578 J-0.0509
G0 Z0.125
G0 X0.5277 Y1.4294
G0 Z0.0748
G1 F20.0 Z-0.0027
G3 F40.0 X0.5124 Y1.4366 I-0.0368 J-0.0582
G3 X0.5112 I-0.0006 J-0.0017
G3 X0.483 Y1.4183 I0.02 J-0.0617
G1 X0.4666 Y1.4015
G1 X0.4414 Y1.4157
G1 X0.4151 Y1.4305
G3 X0.4138 Y1.4307 I-0.0009 J-0.0016
G1 X0.3752 Y1.4212
G1 X0.3366 Y1.4117
G3 X0.3353 Y1.4099 I0.0004 J-0.0017
G1 Y1.38
G1 Y1.35
G3 X0.337 Y1.3482 I0.0018 J0.0
G1 X0.3902 Y1.3452
G1 X0.4434 Y1.3421
G3 X0.4447 Y1.3425 I0.0001 J0.0018
G1 X0.4564 Y1.3523
G1 X0.467 Y1.3611
G1 X0.4852 Y1.3478
G3 X0.5132 Y1.3333 I0.0498 J0.0622
G3 X0.5145 Y1.3334 I0.0005 J0.0017
G3 X0.543 Y1.3537 I-0.038 J0.0837
G3 X0.5634 Y1.3844 I-0.045 J0.0521
G3 Y1.3856 I-0.0017 J0.0006
G3 X0.5431 Y1.4162 I-0.0819 J-0.0325
G3 X0.5277 Y1.4294 I-0.0521 J-0.045
G0 Z0.125
G0 X0.5118 Y1.2969
G0 Z0.0748
G1 F20.0 Z-0.0027
G3 F40.0 X0.5116 I-0.0002 J-0.0018
G1 X0.4927
G2 X0.4448 Y1.3137 I0.0176 J0.1271
G1 X0.4447
G1 X0.4151 Y1.3307
G3 X0.4138 Y1.3309 I-0.0009 J-0.0016
G1 X0.3752 Y1.3213
G1 X0.3366 Y1.3118
G3 X0.3353 Y1.3101 I0.0004 J-0.0017
G1 Y1.2801
G1 Y1.2502
G3 X0.337 Y1.2484 I0.0018 J0.0
G1 X0.3908 Y1.2453
G1 X0.4447 Y1.2422
G3 X0.446 Y1.2428 I0.0001 J0.0018
G1 X0.4565 Y1.2533
G2 X0.4832 Y1.2633 I0.0287 J-0.0356
G1 X0.4992
G1 X0.5046 Y1.246
G1 X0.5104 Y1.2281
G1 X0.5046 Y1.2131
G1 X0.4986 Y1.1974
G3 X0.499 Y1.1955 I0.0017 J-0.0006
G1 X0.5197 Y1.1748
G3 X0.5511 Y1.1536 I0.0641 J0.0611
G3 X0.5524 I0.0007 J0.0017
G3 X0.5829 Y1.174 I-0.0325 J0.0819
G3 X0.6034 Y1.2047 I-0.045 J0.0521
G3 X0.6033 Y1.2059 I-0.0017 J0.0006
G3 X0.583 Y1.2365 I-0.0819 J-0.0325
G3 X0.5497 Y1.2569 I-0.0575 J-0.0563
G3 X0.5491 Y1.257 I-0.0005 J-0.0017
G1 X0.5376
G1 X0.5256 Y1.2761
G1 X0.5132 Y1.2961
G3 X0.5118 Y1.2969 I-0.0015 J-0.001
G0 Z0.125
G0 X0.4627 Y1.2072
G0 Z0.0748
G1 F20.0 Z-0.0027
G3 F40.0 X0.4626 Y1.2073 I-0.0009 J-0.0016
G1 X0.437 Y1.219
G1 X0.4114 Y1.2306
G3 X0.4102 Y1.2307 I-0.0007 J-0.0016
G1 X0.3693 Y1.2198
G1 X0.329 Y1.209
G1 X0.3062 Y1.2194
G1 X0.2839 Y1.2296
G1 Y1.5962
G1 Y1.9623
G1 X0.2918
G3 X0.2925 Y1.9625 I0.0 J0.0018
G3 X0.3137 Y1.9832 I-0.0185 J0.04
G1 X0.3244 Y2.0032
G3 Y2.0049 I-0.0016 J0.0008
G1 X0.3143 Y2.0237
G3 X0.2882 Y2.0491 I-0.0506 J-0.0259
G3 X0.2881 I-0.0008 J-0.0016
G1 X0.2728 Y2.055
G3 X0.2715 I-0.0006 J-0.0017
G1 X0.2563 Y2.0491
G3 X0.256 Y2.049 I0.0006 J-0.0017
G3 X0.2297 Y2.023 I0.0333 J-0.0601
G1 X0.2192 Y2.0035
G3 X0.2193 Y2.0017 I0.0016 J-0.0008
G1 X0.235 Y1.9778
G1 X0.2504 Y1.9543
G1 Y1.5845
G1 Y1.2143
G3 X0.2513 Y1.2127 I0.0018 J0.0
G1 X0.2828 Y1.1957
G2 X0.3295 Y1.1615 I-0.1049 J-0.1925
G1 X0.3452 Y1.1441
G3 X0.3465 Y1.1435 I0.0013 J0.0012
G1 X0.3975
G1 X0.4486
G3 X0.4498 Y1.1441 I0.0 J0.0018
G1 X0.4565 Y1.1507
G3 X0.4568 Y1.1511 I-0.0013 J0.0013
G3 X0.4637 Y1.1822 I-0.0524 J0.0279
G1 Y1.2057
G3 X0.4627 Y1.2072 I-0.0018 J0.0
G0 Z0.125
G0 X0.452 Y1.0573
G0 Z0.0748
G1 F20.0 Z-0.0027
G3 F40.0 X0.4512 Y1.0571 I-0.0001 J-0.0018
G3 X0.4207 Y1.0368 I0.0325 J-0.0819
G1 X0.4012 Y1.0173
G1 X0.3617
G1 X0.3215
G3 X0.3197 Y1.0161 I0.0 J-0.0018
G1 X0.3143 Y0.9986
G2 X0.2943 Y0.9542 I-0.2555 J0.0881
G1 X0.2797 Y0.9269
G3 Y0.9252 I0.0016 J-0.0009
G1 X0.2898 Y0.9062
G1 X0.2899 Y0.9061
G3 X0.3167 Y0.8804 I0.059 J0.0345
G3 X0.3169 Y0.8803 I0.0008 J0.0016
G1 X0.3329 Y0.8741
G3 X0.3344 Y0.8742 I0.0006 J0.0017
G1 X0.3524 Y0.8839
G1 X0.3525
G3 X0.3774 Y0.9103 I-0.0306 J0.0539
G3 X0.3775 Y0.9105 I-0.0016 J0.0008
G1 X0.3836 Y0.9265
G3 X0.3835 Y0.928 I-0.0017 J0.0006
G1 X0.3732 Y0.9472
G3 X0.3524 Y0.9673 I-0.0356 J-0.0161
G3 X0.3517 Y0.9674 I-0.0007 J-0.0017
G2 X0.3439 Y0.9755 I0.0001 J0.008
G1 Y0.9756
G1 Y0.9838
G1 X0.3764
G1 X0.4098
G1 X0.4173 Y0.9721
G1 X0.4251 Y0.9601
G1 Y0.8857
G1 Y0.8108
G3 X0.4267 Y0.8091 I0.0018 J0.0
G1 X0.4499 Y0.8058
G1 X0.4731 Y0.8025
G3 X0.4751 Y0.8038 I0.0003 J0.0018
G1 X0.4805 Y0.8246
G1 X0.4856 Y0.844
G1 X0.5018
G1 X0.5181
G1 X0.5229 Y0.8254
G1 X0.5282 Y0.8054
G3 X0.5299 Y0.804 I0.0017 J0.0005
G1 X0.5511
G1 X0.5723
G3 X0.574 Y0.8052 I0.0 J0.0018
G1 X0.5793 Y0.819
G3 X0.5794 Y0.8194 I-0.0017 J0.0006
G3 X0.5816 Y0.8772 I-0.2347 J0.0379
G1 X0.5785 Y0.9208
G3 X0.577 Y0.9224 I-0.0018 J-0.0001
G1 X0.5538 Y0.9257
G1 X0.5306 Y0.929
G3 X0.5286 Y0.9277 I-0.0003 J-0.0018
G1 X0.5231 Y0.9069
G1 X0.5181 Y0.8875
G1 X0.5032 Y0.8876
G1 X0.488 Y0.8877
G1 X0.476 Y0.9135
G1 Y0.9136
G2 X0.4637 Y0.9475 I0.1176 J0.0615
G2 X0.483 Y0.9742 I0.0632 J-0.0252
G3 X0.5035 Y1.005 I-0.0449 J0.0522
G3 Y1.0062 I-0.0017 J0.0006
G3 X0.4832 Y1.0367 I-0.0819 J-0.0325
G3 X0.4525 Y1.0572 I-0.0521 J-0.045
G3 X0.452 Y1.0573 I-0.0006 J-0.0017
G0 Z0.125
G0 X0.5993 Y1.0061
G0 Z0.0748
G1 F20.0 Z-0.0027
G3 F40.0 X0.5994 Y1.0046 I0.0017 J-0.0006
G1 X0.6122 Y0.9822
G1 X0.6248 Y0.9601
G1 Y0.8857
G1 Y0.8108
G3 X0.6264 Y0.8091 I0.0018 J0.0
G1 X0.6468 Y0.8061
G1 X0.6671 Y0.8032
G3 X0.6687 Y0.8037 I0.0003 J0.0018
G1 X0.6757 Y0.8108
G1 X0.6828 Y0.8179
G3 X0.6833 Y0.8192 I-0.0013 J0.0013
G1 Y0.8668
G1 Y0.9145
G3 X0.6825 Y0.916 I-0.0018 J0.0
G1 X0.6725 Y0.9222
G1 X0.6634 Y0.9278
G1 Y0.9462
G1 Y0.9638
G1 X0.6712
G3 X0.6719 Y0.9639 I0.0 J0.0018
G3 X0.6928 Y0.9841 I-0.0148 J0.0363
G1 X0.703 Y1.0032
G3 X0.7031 Y1.0047 I-0.0016 J0.0008
G1 X0.697 Y1.0207
G3 X0.6969 Y1.0209 I-0.0017 J-0.0006
G3 X0.672 Y1.0473 I-0.0543 J-0.0263
G1 X0.6539 Y1.057
G3 X0.6524 Y1.0571 I-0.0008 J-0.0016
G1 X0.6364 Y1.0509
G3 X0.6363 I0.0006 J-0.0017
G3 X0.6095 Y1.0252 I0.0284 J-0.0565
G1 X0.6094
G1 X0.5994 Y1.0064
G3 X0.5993 Y1.0061 I0.0016 J-0.0008
G0 Z0.125
G0 X0.8274 Y1.0027
G0 Z0.0748
G1 F20.0 Z-0.0027
G1 F40.0 X0.8245 Y0.8109
G3 X0.8261 Y0.8091 I0.0018 J0.0
G1 X0.8465 Y0.8061
G1 X0.8668 Y0.8032
G3 X0.8684 Y0.8037 I0.0003 J0.0018
G1 X0.8754 Y0.8108
G1 X0.8825 Y0.8179
G3 X0.883 Y0.8192 I-0.0013 J0.0013
G1 Y0.8668
G1 Y0.9145
G3 X0.8822 Y0.916 I-0.0018 J0.0
G1 X0.8722 Y0.9222
G1 X0.8631 Y0.9278
G1 Y1.106
G1 Y1.2833
G1 X0.9315
G1 X1.0012
G1 X1.024 Y1.2684
G1 X1.0472 Y1.2532
G3 X1.0488 Y1.253 I0.001 J0.0015
G1 X1.0655 Y1.2594
G3 X1.0656 Y1.2595 I-0.0006 J0.0017
G3 X1.0931 Y1.2854 I-0.0262 J0.0554
G1 X1.1032 Y1.3042
G3 Y1.3059 I-0.0016 J0.0008
G1 X1.0931 Y1.3247
G3 X1.0663 Y1.3504 I-0.0545 J-0.0301
G3 X1.0662 Y1.3505 I-0.0008 J-0.0016
G1 X1.0502 Y1.3566
G3 X1.0487 Y1.3565 I-0.0006 J-0.0017
G1 X1.0295 Y1.3463
G3 X1.0094 Y1.3254 I0.0161 J-0.0356
G3 X1.0092 Y1.3247 I0.0017 J-0.0007
G1 Y1.3169
G1 X0.9268
G1 X0.8425
G3 X0.8409 Y1.316 I0.0 J-0.0018
G1 X0.8365 Y1.3085
G3 X0.8363 Y1.3078 I0.0015 J-0.0009
G3 X0.8326 Y1.2447 I0.7553 J-0.0763
G3 X0.8299 Y1.1501 I2.3624 J-0.1125
G3 X0.829 Y1.1027 I0.4338 J-0.0325
G1 X0.8282 Y1.0555
G1 X0.8274 Y1.0027
G0 Z0.125
G0 X0.8256 Y0.7536
G0 Z0.0748
G1 F20.0 Z-0.0027
G1 F40.0 X0.5858 Y0.7553
G1 X0.2166 Y0.7579
G1 X0.2036 Y0.7823
G1 X0.1905 Y0.8066
G1 X0.2077 Y0.8358
G1 X0.2255 Y0.8658
G3 X0.2254 Y0.8677 I-0.0015 J0.0009
G1 X0.2094 Y0.8922
G1 X0.194 Y0.9157
G1 X0.2092 Y0.939
G1 X0.2252 Y0.9633
G3 Y0.9651 I-0.0015 J0.001
G1 X0.2148 Y0.9846
G3 X0.1877 Y1.0109 I-0.0569 J-0.0315
G3 X0.1875 Y1.011 I-0.0008 J-0.0016
G1 X0.1715 Y1.0171
G3 X0.17 Y1.017 I-0.0006 J-0.0017
G1 X0.1519 Y1.0074
G1 Y1.0073
G3 X0.1267 Y0.9803 I0.0341 J-0.0569
G3 Y0.9801 I0.0016 J-0.0008
G1 X0.1203 Y0.9634
G3 X0.1204 Y0.9618 I0.0017 J-0.0006
G1 X0.1359 Y0.9382
G1 X0.1507 Y0.9157
G1 X0.1353 Y0.8922
G1 X0.1192 Y0.8677
G3 Y0.8658 I0.0015 J-0.001
G1 X0.1371 Y0.8353
G1 X0.1546 Y0.8058
G1 X0.1379 Y0.7777
G1 X0.1208 Y0.7486
G3 X0.1206 Y0.7471 I0.0015 J-0.0009
G1 X0.1268 Y0.7309
G3 X0.1269 Y0.7307 I0.0017 J0.0006
G3 X0.1533 Y0.7034 I0.0607 J0.0323
G1 X0.1728 Y0.693
G3 X0.1746 Y0.6931 I0.0008 J0.0016
G1 X0.1986 Y0.7088
G1 X0.2221 Y0.7242
G1 X0.5771
G1 X0.9309
G1 X0.9277 Y0.6187
G1 X0.9244 Y0.5113
G3 X0.9259 Y0.5095 I0.0018 J-0.0001
G1 X0.9463 Y0.5066
G1 X0.9667 Y0.5037
G3 X0.9682 Y0.5042 I0.0003 J0.0018
G1 X0.9753 Y0.5113
G1 X0.9824 Y0.5183
G3 X0.9829 Y0.5196 I-0.0013 J0.0013
G1 Y0.5659
G1 Y0.6121
G3 X0.9824 Y0.6134 I-0.0018 J0.0
G1 X0.9729 Y0.6229
G1 X0.964 Y0.6319
G1 X0.961 Y0.6911
G1 X0.9579 Y0.751
G3 X0.9561 Y0.7527 I-0.0018 J-0.0001
G1 X0.8256 Y0.7536
G0 Z0.125
G0 X0.8263 Y0.6229
G0 Z0.0748
G1 F20.0 Z-0.0027
G3 F40.0 X0.8245 Y0.6212 I0.0 J-0.0018
G1 X0.8215 Y0.5737
G1 X0.8184 Y0.5261
G3 X0.819 Y0.5247 I0.0018 J-0.0001
G1 X0.872 Y0.4753
G1 X0.9249 Y0.4259
G3 X0.9262 Y0.4254 I0.0012 J0.0013
G1 X1.026 Y0.4247
G1 X1.1253 Y0.424
G1 X1.1442 Y0.4097
G3 X1.1721 Y0.3948 I0.0584 J0.0757
G3 X1.1735 I0.0006 J0.0017
G3 X1.202 Y0.4151 I-0.038 J0.0837
G3 X1.2224 Y0.4458 I-0.0451 J0.0522
G3 Y0.447 I-0.0017 J0.0006
G3 X1.2021 Y0.4776 I-0.0819 J-0.0325
G3 X1.1714 Y0.498 I-0.0521 J-0.045
G3 X1.1701 I-0.0006 J-0.0017
G3 X1.1396 Y0.4776 I0.0325 J-0.0819
G1 X1.1201 Y0.4582
G1 X1.0279
G1 X0.9357
G1 X0.91 Y0.4851
G1 X0.8842 Y0.512
G1 X0.8811 Y0.5663
G1 X0.878 Y0.6212
G3 X0.8762 Y0.6229 I-0.0018 J-0.0001
G1 X0.8513
G1 X0.8263
G0 Z0.125
G0 X0.7782 Y0.6212
G0 Z0.0748
G1 F20.0 Z-0.0027
G3 F40.0 X0.7764 Y0.6229 I-0.0018 J-0.0001
G1 X0.7514
G1 X0.7265
G3 X0.7247 Y0.6211 I0.0 J-0.0018
G1 X0.7283 Y0.4938
G1 X0.7319 Y0.3683
G1 X0.7083
G1 X0.7082
G3 X0.656 Y0.3582 I0.0072 J-0.1773
G1 X0.6559
G1 X0.6297 Y0.3482
G3 X0.6285 Y0.3463 I0.0006 J-0.0017
G1 X0.6317 Y0.3189
G1 X0.6348 Y0.2914
G3 X0.6366 Y0.2898 I0.0018 J0.0002
G1 X0.7419 Y0.287
G1 X0.8473 Y0.2842
G3 X0.8486 Y0.2847 I0.0 J0.0018
G1 X0.8556 Y0.2917
G3 X0.8559 Y0.2921 I-0.0013 J0.0013
G3 X0.8631 Y0.3235 I-0.0539 J0.0289
G1 Y0.347
G3 X0.862 Y0.3486 I-0.0018 J0.0
G1 X0.8371 Y0.36
G1 X0.8131 Y0.3709
G1 Y0.418
G1 Y0.4664
G3 X0.8126 Y0.4676 I-0.0018 J0.0
G1 X0.7951 Y0.4851
G1 X0.7782 Y0.502
G1 Y0.5612
G1 Y0.6211
G1 Y0.6212
G0 Z0.125
G0 X0.6849 Y0.6075
G0 Z0.0748
G1 F20.0 Z-0.0027
G2 F40.0 Y0.6072 I-0.0018 J-0.0003
G1 X0.6828 Y0.5592
G1 X0.6807 Y0.5115
G1 X0.6882 Y0.4836
G1 X0.6958 Y0.4554
G2 X0.6957 Y0.4542 I-0.0017 J-0.0005
G1 X0.6844 Y0.4293
G1 X0.673 Y0.4044
G2 X0.6712 Y0.4033 I-0.0016 J0.0007
G1 X0.6438 Y0.4065
G1 X0.6164 Y0.4097
G2 X0.6148 Y0.4114 I0.0002 J0.0018
G1 X0.6149 Y0.4614
G2 X0.6223 Y0.5889 I1.1016 J0.0003
G1 X0.6294 Y0.6643
G1 X0.4867
G1 X0.3439
G1 Y0.6161
G1 Y0.568
G1 X0.3517
G2 X0.3524 Y0.5679 I0.0 J-0.0018
G2 X0.3732 Y0.5478 I-0.0147 J-0.0362
G1 X0.3835 Y0.5286
G2 X0.3836 Y0.5271 I-0.0016 J-0.0008
G1 X0.3775 Y0.5111
G2 X0.3774 Y0.5109 I-0.0017 J0.0006
G2 X0.3525 Y0.4845 I-0.0555 J0.0274
G1 X0.3524
G1 X0.3344 Y0.4748
G2 X0.3329 Y0.4747 I-0.0008 J0.0016
G1 X0.3169 Y0.4809
G2 X0.3167 I0.0006 J0.0017
G2 X0.2896 Y0.5073 I0.0297 J0.0578
G1 X0.2791 Y0.5268
G2 X0.2792 Y0.5286 I0.0016 J0.0008
G1 X0.2944 Y0.5517
G1 X0.3093 Y0.5744
G1 X0.3123 Y0.6325
G1 X0.3153 Y0.6911
G2 X0.3171 Y0.6928 I0.0018 J-0.0001
G1 X0.4868
G1 X0.6566
G2 X0.6584 Y0.6912 I0.0 J-0.0018
G1 X0.6617 Y0.6613
G1 Y0.6612
G3 X0.6747 Y0.6202 I0.1063 J0.011
G1 X0.6845 Y0.6084
G2 X0.6849 Y0.6075 I-0.0014 J-0.0011
G0 Z0.125
G0 X0.5798 Y0.6008
G0 Z0.0748
G1 F20.0 Z-0.0027
G1 F40.0 X0.5785 Y0.6212
G3 X0.5767 Y0.6229 I-0.0018 J-0.0001
G1 X0.5517
G1 X0.5268
G3 X0.525 Y0.6211 I0.0 J-0.0018
G1 X0.5287 Y0.4214
G1 X0.5312 Y0.3177
G1 X0.5331 Y0.2659
G3 X0.5368 Y0.2141 I0.8808 J0.0365
G3 X0.537 Y0.2133 I0.0018 J0.0002
G1 X0.5414 Y0.2058
G3 X0.5429 Y0.205 I0.0016 J0.0009
G1 X0.8752
G1 X1.2074
G3 X1.2087 Y0.2055 I0.0 J0.0018
G1 X1.2153 Y0.2121
G3 X1.2157 Y0.2127 I-0.0013 J0.0013
G3 X1.2225 Y0.2523 I-0.0752 J0.0333
G1 Y0.2833
G1 X1.2371 Y0.2888
G1 X1.252 Y0.2946
G1 X1.2698 Y0.285
G1 X1.2883 Y0.2751
G3 X1.2898 Y0.275 I0.0008 J0.0016
G1 X1.3058 Y0.2812
G3 X1.306 I-0.0006 J0.0017
G3 X1.3328 Y0.3069 I-0.0284 J0.0565
G1 X1.3428 Y0.3257
G3 Y0.3274 I-0.0016 J0.0008
G1 X1.3328 Y0.3462
G3 X1.306 Y0.3719 I-0.0545 J-0.0301
G3 X1.3058 Y0.372 I-0.0008 J-0.0016
G1 X1.2898 Y0.3781
G3 X1.2883 Y0.378 I-0.0006 J-0.0017
G1 X1.2691 Y0.3677
G1 X1.2507 Y0.3579
G1 X1.2323 Y0.3677
G1 X1.213 Y0.378
G3 X1.2115 Y0.3781 I-0.0008 J-0.0016
G1 X1.1956 Y0.372
G3 X1.1954 Y0.3719 I0.0006 J-0.0017
G3 X1.1682 Y0.3456 I0.0287 J-0.0567
G1 Y0.3455
G1 X1.1578 Y0.3261
G3 X1.1579 Y0.3242 I0.0016 J-0.0008
G1 X1.1736 Y0.3003
G1 X1.189 Y0.2768
G1 Y0.257
G1 Y0.2385
G1 X0.8762
G1 X0.5635
G1 Y0.3695
G1 Y0.5016
G1 X0.5736 Y0.5116
G1 X0.5842 Y0.5222
G3 X0.5847 Y0.5236 I-0.0013 J0.0013
G1 X0.5816 Y0.5724
G1 X0.5798 Y0.6008
G0 Z0.125
G0 X0.4806 Y0.5937
G0 Z0.0748
G1 F20.0 Z-0.0027
G1 F40.0 X0.4786 Y0.6212
G3 X0.4769 Y0.6229 I-0.0018 J-0.0001
G1 X0.4519
G1 X0.4269
G3 X0.4251 Y0.6211 I0.0 J-0.0018
G1 Y0.5512
G1 Y0.4819
G1 X0.4187 Y0.472
G3 X0.4184 Y0.4714 I0.0015 J-0.001
G3 X0.4086 Y0.3928 I0.4531 J-0.0966
G1 X0.4055 Y0.3248
G3 X0.4063 Y0.3232 I0.0018 J-0.0001
G1 X0.4255 Y0.3092
G3 X0.4533 Y0.2949 I0.0546 J0.072
G3 X0.4546 Y0.295 I0.0005 J0.0017
G3 X0.4839 Y0.3161 I-0.0443 J0.0924
G1 X0.5046 Y0.3368
G3 X0.505 Y0.3387 I-0.0013 J0.0013
G1 X0.4993 Y0.3536
G2 X0.4936 Y0.4115 I0.2473 J0.0536
G1 Y0.4549
G3 X0.4931 Y0.4562 I-0.0018 J0.0
G1 X0.4768 Y0.4725
G1 X0.4614 Y0.4879
G1 X0.4728 Y0.5092
G1 X0.4848 Y0.5316
G3 X0.485 Y0.5326 I-0.0016 J0.0008
G1 X0.4818 Y0.5769
G1 X0.4806 Y0.5937
G0 Z0.125
G0 X2.5757 Y0.6361
G0 Z0.0748
G1 F20.0 Z-0.0027
G3 F40.0 X2.5775 Y0.6343 I0.0018 J0.0
G1 X2.8277
G1 X3.0779
G3 X3.0797 Y0.6361 I0.0 J0.0018
G1 Y0.691
G1 Y0.7459
G3 X3.0779 Y0.7477 I-0.0018 J0.0
G1 X3.0679
G1 X3.0579
G3 X3.0562 Y0.7459 I0.0 J-0.0018
G1 Y0.701
G1 Y0.6579
G1 X2.8239
G1 X2.5898
G3 X2.5883 Y0.657 I0.0 J-0.0018
G1 X2.5821 Y0.647
G1 X2.576 Y0.637
G3 X2.5757 Y0.6361 I0.0015 J-0.0009
G0 Z0.125
G0 X2.5785 Y0.6742
G0 Z0.0748
G1 F20.0 Z-0.0027
G3 F40.0 X2.5787 I0.0001 J0.0018
G1 X2.6292
G1 X2.6797
G3 X2.6815 Y0.6762 I0.0 J0.0018
G1 X2.6784 Y0.7136
G1 X2.6753 Y0.7511
G3 X2.6737 Y0.7527 I-0.0018 J-0.0001
G1 X2.6362 Y0.7558
G1 X2.6004 Y0.7588
G1 Y0.7665
G1 Y0.7741
G1 X2.6342
G1 X2.6697
G3 X2.6712 Y0.7768 I0.0 J0.0018
G1 X2.6651 Y0.7868
G1 X2.6589 Y0.7968
G3 X2.6574 Y0.7977 I-0.0015 J-0.0009
G1 X2.618
G1 X2.5787
G3 X2.5769 Y0.7959 I0.0 J-0.0018
G1 Y0.7659
G1 Y0.7359
G3 X2.5787 Y0.7341 I0.0018 J0.0
G1 X2.6186
G1 X2.6568
G1 Y0.716
G1 Y0.6978
G1 X2.6186
G1 X2.5787
G3 X2.5769 Y0.696 I0.0 J-0.0018
G1 Y0.686
G1 Y0.676
G3 X2.5785 Y0.6742 I0.0018 J0.0
G0 Z0.125
G0 X2.6967 Y0.676
G0 Z0.0748
G1 F20.0 Z-0.0027
G3 F40.0 X2.6985 Y0.6742 I0.0018 J0.0
G1 X2.7484
G1 X2.7983
G3 X2.8001 Y0.676 I0.0 J0.0018
G1 Y0.7299
G1 Y0.7837
G3 X2.799 Y0.7854 I-0.0018 J0.0
G1 X2.7832 Y0.7915
G1 X2.7831
G3 X2.7527 Y0.7976 I-0.0372 J-0.1055
G3 X2.7526 Y0.7977 I-0.0001 J-0.0018
G1 X2.7384
G3 X2.7366 Y0.7959 I0.0 J-0.0018
G1 Y0.7859
G1 Y0.7759
G3 X2.7384 Y0.7741 I0.0018 J0.0
G1 X2.7584
G1 X2.7766
G1 Y0.7359
G1 Y0.6978
G1 X2.7484
G1 X2.7203
G1 Y0.7409
G1 Y0.7859
G3 X2.7185 Y0.7877 I-0.0018 J0.0
G1 X2.7085
G1 X2.6985
G3 X2.6967 Y0.7859 I0.0 J-0.0018
G1 Y0.731
G1 Y0.676
G0 Z0.125
G0 X2.8155
G0 Z0.0748
G1 F20.0 Z-0.0027
G3 F40.0 X2.8173 Y0.6742 I0.0018 J0.0
G1 X2.8278
G1 X2.8383
G3 X2.8401 Y0.676 I0.0 J0.0018
G1 Y0.706
G1 Y0.7341
G1 X2.8632
G1 X2.8882
G3 X2.89 Y0.7359 I0.0 J0.0018
G1 Y0.7459
G1 Y0.7559
G3 X2.8882 Y0.7577 I-0.0018 J0.0
G1 X2.8632
G1 X2.8401
G1 Y0.7659
G1 Y0.7741
G1 X2.8732
G1 X2.9082
G3 X2.91 Y0.7759 I0.0 J0.0018
G1 Y0.7864
G1 Y0.797
G3 X2.908 Y0.7988 I-0.0018 J0.0
G1 X2.8656 Y0.7957
G1 X2.8232 Y0.7927
G3 X2.8215 Y0.791 I0.0001 J-0.0018
G1 X2.8185 Y0.7335
G1 X2.8155 Y0.6761
G1 Y0.676
G0 Z0.125
G0 Y0.814
G0 Z0.0748
G1 F20.0 Z-0.0027
G1 F40.0 X2.8483
G1 X2.9182
G3 X2.92 Y0.8158 I0.0 J0.0018
G1 Y0.9307
G1 Y1.0455
G3 X2.9182 Y1.0473 I-0.0018 J0.0
G1 X2.9082
G1 X2.8982
G3 X2.8964 Y1.0455 I0.0 J-0.0018
G1 Y0.9406
G1 Y0.8376
G1 X2.8483
G1 X2.8001
G1 Y0.8608
G1 Y0.8857
G3 X2.7983 Y0.8875 I-0.0018 J0.0
G1 X2.7884
G1 X2.7784
G3 X2.7766 Y0.8857 I0.0 J-0.0018
G1 Y0.8508
G1 Y0.8158
G3 X2.7784 Y0.814 I0.0018 J0.0
G1 X2.8155
G0 Z0.125
G0 X2.7612 Y0.8158
G0 Z0.0748
G1 F20.0 Z-0.0027
G3 F40.0 Y0.8159 I-0.0018 J0.0001
G1 X2.7582 Y0.8733
G1 X2.7552 Y0.9307
G3 X2.7535 Y0.9324 I-0.0018 J-0.0001
G1 X2.7061 Y0.9355
G1 X2.6603 Y0.9384
G1 Y0.9462
G1 Y0.9538
G1 X2.709
G1 X2.7595
G3 X2.7613 Y0.9557 I0.0 J0.0018
G1 X2.7582 Y1.0032
G1 X2.7552 Y1.0506
G3 X2.7534 Y1.0523 I-0.0018 J-0.0001
G1 X2.6785
G1 X2.6036
G3 X2.6018 Y1.0505 I0.0 J-0.0018
G1 X2.5989 Y0.967
G1 X2.596 Y0.8842
G1 X2.582 Y0.8702
G3 X2.567 Y0.8463 I0.033 J-0.0374
G3 Y0.8452 I0.0017 J-0.0005
G3 X2.5831 Y0.8203 I0.0597 J0.021
G3 X2.6081 Y0.8041 I0.0415 J0.0368
G3 X2.6092 I0.0005 J0.0017
G3 X2.6341 Y0.8202 I-0.021 J0.0597
G3 X2.6503 Y0.8452 I-0.0368 J0.0415
G3 Y0.8463 I-0.0017 J0.0005
G3 X2.6348 Y0.8706 I-0.048 J-0.0134
G1 X2.6204 Y0.885
G1 Y0.9599
G1 Y1.0337
G1 X2.6785
G1 X2.7366
G1 Y1.0055
G1 Y0.9774
G1 X2.6885
G1 X2.6386
G3 X2.6368 Y0.9756 I0.0 J-0.0018
G1 Y0.9456
G1 Y0.9157
G3 X2.6386 Y0.9139 I0.0018 J0.0
G1 X2.6885
G1 X2.7366
G1 Y0.8657
G1 Y0.8158
G3 X2.7384 Y0.814 I0.0018 J0.0
G1 X2.7489
G1 X2.7594
G3 X2.7612 Y0.8158 I0.0 J0.0018
G0 Z0.125
G0 X2.6202 Y0.8435
G0 Z0.0748
G1 F20.0 Z-0.0027
G2 F40.0 X2.6086 Y0.834 I-0.0116 J0.0023
G2 X2.5968 Y0.8458 I0.0 J0.0118
G2 X2.6086 Y0.8576 I0.0118 J0.0
G2 X2.6204 Y0.8458 I0.0 J-0.0118
G2 X2.6202 Y0.8435 I-0.0118 J0.0
G0 Z0.125
G0 X2.7179 Y1.1137
G0 Z0.0748
G1 F20.0 Z-0.0027
G3 F40.0 X2.7185 Y1.1136 I0.0006 J0.0017
G1 X2.9032
G1 X3.0879
G3 X3.0897 Y1.1154 I0.0 J0.0018
G1 Y1.2602
G1 Y1.4049
G3 X3.0879 Y1.4067 I-0.0018 J0.0
G1 X2.9032
G1 X2.7185
G3 X2.7167 Y1.4049 I0.0 J-0.0018
G1 Y1.2602
G1 Y1.1154
G3 X2.7179 Y1.1137 I0.0018 J0.0
G0 Z0.125
G0 X2.9364 Y1.046
G0 Z0.0748
G1 F20.0 Z-0.0027
G3 F40.0 X2.9363 Y1.0455 I0.0017 J-0.0005
G1 Y0.9307
G1 Y0.8158
G3 X2.9381 Y0.814 I0.0018 J0.0
G1 X2.9681
G1 X2.998
G3 X2.9998 Y0.8158 I0.0 J0.0018
G1 Y0.8657
G1 Y0.9139
G1 X3.008
G1 X3.0162
G1 Y0.8657
G1 Y0.8158
G3 X3.018 Y0.814 I0.0018 J0.0
G1 X3.048
G1 X3.0779
G3 X3.0797 Y0.8158 I0.0 J0.0018
G1 Y0.9014
G1 Y0.9863
G1 X3.0942 Y1.0007
G3 X3.1096 Y1.0249 I-0.0456 J0.046
G3 Y1.0261 I-0.0017 J0.0006
G3 X3.0935 Y1.051 I-0.0597 J-0.021
G3 X3.0685 Y1.0672 I-0.0415 J-0.0368
G3 X3.0673 Y1.0671 I-0.0005 J-0.0017
G3 X3.0424 Y1.0511 I0.021 J-0.0597
G3 X3.0263 Y1.026 I0.0368 J-0.0415
G3 Y1.025 I0.0017 J-0.0005
G3 X3.0417 Y1.0007 I0.048 J0.0134
G1 X3.0562 Y0.9863
G1 Y0.9114
G1 Y0.8376
G1 X3.0485
G1 X3.0408
G1 X3.0378 Y0.8833
G1 X3.0348 Y0.9308
G3 X3.033 Y0.9324 I-0.0018 J-0.0001
G1 X3.008
G1 X2.9831
G3 X2.9813 Y0.9308 I0.0 J-0.0018
G1 X2.9782 Y0.8833
G1 X2.9753 Y0.8376
G1 X2.9675
G1 X2.9599
G1 Y0.9406
G1 Y1.0455
G3 X2.9581 Y1.0473 I-0.0018 J0.0
G1 X2.9481
G1 X2.9381
G3 X2.9364 Y1.046 I0.0 J-0.0018
G0 Z0.125
G0 X3.0563 Y1.0273
G0 Z0.0748
G1 F20.0 Z-0.0027
G2 F40.0 X3.0679 Y1.0373 I0.0117 J-0.0018
G2 X3.0797 Y1.0255 I0.0 J-0.0118
G2 X3.0679 Y1.0137 I-0.0118 J0.0
G2 X3.0562 Y1.0255 I0.0 J0.0118
G2 X3.0563 Y1.0273 I0.0118 J0.0
G0 Z0.125
G0 Y0.7977
G0 Z0.0748
G1 F20.0 Z-0.0027
G1 F40.0 X3.0086
G1 X2.9493
G3 X2.9478 Y0.7968 I0.0 J-0.0018
G1 X2.9416 Y0.7868
G1 X2.9354 Y0.7768
G3 X2.937 Y0.7741 I0.0015 J-0.0009
G1 X2.9675
G1 X2.9962
G1 Y0.726
G1 Y0.676
G3 X2.998 Y0.6742 I0.0018 J0.0
G1 X3.008
G1 X3.018
G3 X3.0198 Y0.676 I0.0 J0.0018
G1 Y0.726
G1 Y0.7741
G1 X3.043
G1 X3.0679
G3 X3.0697 Y0.7759 I0.0 J0.0018
G1 Y0.7859
G1 Y0.7959
G3 X3.0679 Y0.7977 I-0.0018 J0.0
G1 X3.0563
G0 Z0.125
G0 X2.9966 Y2.0706
G0 Z0.0748
G1 F20.0 Z-0.0027
G3 F40.0 X2.9978 Y2.0711 I-0.0001 J0.0018
G1 X3.0185 Y2.0918
G3 X3.0396 Y2.1232 I-0.061 J0.064
G3 X3.0397 Y2.1244 I-0.0017 J0.0007
G3 X3.0185 Y2.1559 I-0.0705 J-0.0247
G1 X2.9978 Y2.1766
G3 X2.9958 Y2.177 I-0.0013 J-0.0013
G1 X2.9791 Y2.1698
G2 X2.9481 Y2.1627 I-0.0397 J0.1025
G2 X2.9172 Y2.1698 I0.0031 J0.0851
G1 X2.9171
G1 X2.9004 Y2.177
G3 X2.8985 Y2.1766 I-0.0007 J-0.0017
G1 X2.8777 Y2.1559
G3 X2.8566 Y2.1245 I0.061 J-0.064
G3 Y2.1233 I0.0017 J-0.0007
G3 X2.8778 Y2.0918 I0.0705 J0.0247
G1 X2.8985 Y2.0711
G3 X2.9004 Y2.0707 I0.0013 J0.0013
G1 X2.9171 Y2.0779
G2 X2.9482 Y2.085 I0.0397 J-0.1027
G2 X2.9791 Y2.0779 I-0.0032 J-0.0853
G1 X2.9958 Y2.0707
G3 X2.9966 Y2.0706 I0.0007 J0.0017
G0 Z0.125
G0 X2.9965 Y2.3502
G0 Z0.0748
G1 F20.0 Z-0.0027
G3 F40.0 X2.9978 Y2.3507 I0.0 J0.0018
G1 X3.0185 Y2.3714
G3 X3.0396 Y2.4028 I-0.061 J0.064
G3 X3.0397 Y2.404 I-0.0017 J0.0007
G3 X3.0185 Y2.4355 I-0.0705 J-0.0246
G1 X2.9978 Y2.4562
G3 X2.9958 Y2.4565 I-0.0013 J-0.0013
G1 X2.9791 Y2.4493
G2 X2.9481 Y2.4423 I-0.0397 J0.1025
G2 X2.9172 Y2.4493 I0.0031 J0.085
G1 X2.9171
G1 X2.9004 Y2.4565
G3 X2.8985 Y2.4562 I-0.0007 J-0.0017
G1 X2.8777 Y2.4354
G3 X2.8566 Y2.4041 I0.0611 J-0.064
G3 Y2.4028 I0.0017 J-0.0007
G3 X2.8778 Y2.3714 I0.0705 J0.0247
G1 X2.8985 Y2.3507
G3 X2.9004 Y2.3503 I0.0013 J0.0013
G1 X2.9171 Y2.3575
G2 X2.9482 Y2.3646 I0.0397 J-0.1027
G2 X2.9791 Y2.3575 I-0.0032 J-0.0853
G1 X2.9958 Y2.3503
G3 X2.9965 Y2.3502 I0.0007 J0.0017
G0 Z0.125
M5
M30
