( Made using CamBam - http://www.cambam.co.uk )
( adsr_w_leds 12/23/2014 11:01:44 PM )
( T1 : 0.04 )
( T2 : 0.031 )
( T3 : 0.0039 )
G20 G90 G64 G40
G0 Z0.125
( T1 : 0.04 )
T1 M6
( .04 Drills )
G17
M3 S1000
G0 X0.4514 Y1.0058
G98
G81 X0.4514 Y1.0058 Z-0.075 R0.125 F20.0
G81 X0.652 Z-0.075
G81 X0.1717 Y0.8672 Z-0.075
G81 X0.173 Y0.4252 Z-0.075
G81 X0.2126 Y0.1864 Z-0.075
G81 X1.1705 Y1.0044 Z-0.075
G81 X1.4506 Y1.0258 Z-0.075
G81 X1.7305 Y0.5066 Z-0.075
G81 X0.8511 Y1.5842 Z-0.075
G81 X0.6515 Y1.5853 Z-0.075
G81 X0.9307 Y1.8044 Z-0.075
G81 X1.1706 Z-0.075
G81 X0.2706 Y2.0035 Z-0.075
G81 X0.3717 Y2.3832 Z-0.075
G81 X0.2839 Y2.622 Z-0.075
G81 X0.2111 Y2.623 Z-0.075
G81 X1.9492 Y2.483 Z-0.075
G81 X2.988 Y2.4026 Z-0.075
G81 Y2.1232 Z-0.075
G80
( .031 Drills )
G0 Z0.125
( T2 : 0.031 )
T2 M6
M3 S1000
G0 X0.4514 Y0.0465
G98
G81 X0.4514 Y0.0465 Z-0.075 R0.125 F20.0
G81 X0.6916 Y0.1468 Z-0.075
G81 Y0.3263 Z-0.075
G81 X0.7707 Y0.3856 Z-0.075
G81 Y0.4463 Z-0.075
G81 X0.652 Z-0.075
G81 Y0.5664 Z-0.075
G81 X0.7509 Y0.5651 Z-0.075
G81 X0.8512 Z-0.075
G81 X0.9502 Y0.5664 Z-0.075
G81 X1.0504 Z-0.075
G81 X1.1705 Y0.4463 Z-0.075
G81 X1.2101 Y0.3263 Z-0.075
G81 X1.2906 Y0.3249 Z-0.075
G81 X1.4494 Y0.466 Z-0.075
G81 X1.5296 Y0.6048 Z-0.075
G81 X1.6494 Y0.6652 Z-0.075
G81 X1.7494 Y0.6661 Z-0.075
G81 X1.8486 Y0.6652 Z-0.075
G81 X1.9495 Y0.6661 Z-0.075
G81 X2.0495 Z-0.075
G81 X2.1488 Y0.6653 Z-0.075
G81 X2.2491 Z-0.075
G81 X2.1496 Y0.5057 Z-0.075
G81 Y0.266 Z-0.075
G81 X2.0694 Y0.1263 Z-0.075
G81 X1.9693 Z-0.075
G81 X1.8486 Y0.2669 Z-0.075
G81 X1.7504 Y0.3858 Z-0.075
G81 X1.8504 Y0.5057 Z-0.075
G81 X1.85 Y0.9646 Z-0.075
G81 X1.9484 Z-0.075
G81 X2.0491 Y0.9658 Z-0.075
G81 X2.1487 Y0.9646 Z-0.075
G81 X2.2482 Z-0.075
G81 X2.1487 Y1.1446 Z-0.075
G81 X2.409 Y1.2453 Z-0.075
G81 X2.5289 Y1.3437 Z-0.075
G81 X2.6489 Z-0.075
G81 Y1.6639 Z-0.075
G81 X2.5289 Y1.6627 Z-0.075
G81 X2.4078 Y1.5656 Z-0.075
G81 X2.3094 Y1.6447 Z-0.075
G81 X2.1487 Y1.544 Z-0.075
G81 X2.0095 Y1.5428 Z-0.075
G81 X1.9088 Y1.6447 Z-0.075
G81 X1.8092 Y1.544 Z-0.075
G81 X1.6497 Z-0.075
G81 X1.5501 Y1.6651 Z-0.075
G81 X1.7301 Y1.7635 Z-0.075
G81 X1.7501 Y1.9636 Z-0.075
G81 X1.8497 Z-0.075
G81 X1.9492 Z-0.075
G81 X2.0488 Z-0.075
G81 X2.1483 Z-0.075
G81 X2.2491 Z-0.075
G81 X2.369 Y2.1232 Z-0.075
G81 X2.5286 Z-0.075
G81 X2.6089 Z-0.075
G81 X2.5082 Y2.2635 Z-0.075
G81 X2.5286 Y2.4038 Z-0.075
G81 X2.6089 Y2.4026 Z-0.075
G81 X2.5094 Y2.543 Z-0.075
G81 X2.369 Y2.4026 Z-0.075
G81 X2.2491 Y2.2623 Z-0.075
G81 X2.1495 Y2.2635 Z-0.075
G81 X2.05 Y2.2623 Z-0.075
G81 X1.9492 Z-0.075
G81 X1.8497 Y2.2635 Z-0.075
G81 X1.7501 Z-0.075
G81 X1.6494 Z-0.075
G81 X1.5504 Y2.402 Z-0.075
G81 X1.4304 Y2.5031 Z-0.075
G81 X1.1905 Y2.402 Z-0.075
G81 X1.0507 Y2.5031 Z-0.075
G81 Y2.2632 Z-0.075
G81 X0.9496 Y2.2622 Z-0.075
G81 X0.8515 Y2.2632 Z-0.075
G81 X0.7514 Y2.2622 Z-0.075
G81 X0.6503 Y2.2632 Z-0.075
G81 X0.5511 Z-0.075
G81 X0.451 Y2.2622 Z-0.075
G81 Y1.9638 Z-0.075
G81 X0.5511 Z-0.075
G81 X0.6513 Z-0.075
G81 X0.7514 Z-0.075
G81 X0.8515 Z-0.075
G81 X0.9506 Z-0.075
G81 X1.0507 Y1.9628 Z-0.075
G81 X1.25 Z-0.075
G81 Y2.1224 Z-0.075
G81 X1.5504 Y2.1234 Z-0.075
G81 X1.6494 Y1.9636 Z-0.075
G81 X1.2513 Y1.6638 Z-0.075
G81 X1.2502 Y1.5449 Z-0.075
G81 X1.0506 Y1.5842 Z-0.075
G81 X0.9111 Y1.3835 Z-0.075
G81 X1.0506 Y1.3039 Z-0.075
G81 X1.0703 Y1.1644 Z-0.075
G81 X0.9503 Y1.2047 Z-0.075
G81 X0.9502 Y0.8659 Z-0.075
G81 X0.8499 Y0.8646 Z-0.075
G81 X0.7509 Z-0.075
G81 X0.6507 Y0.8659 Z-0.075
G81 X0.5517 Y0.8646 Z-0.075
G81 X0.4528 Y0.8659 Z-0.075
G81 X0.3314 Y0.9253 Z-0.075
G81 X0.1704 Y0.9649 Z-0.075
G81 X0.1717 Y0.7445 Z-0.075
G81 Y0.5849 Z-0.075
G81 X0.3314 Y0.5255 Z-0.075
G81 X0.4514 Y0.5651 Z-0.075
G81 X0.5517 Y0.5664 Z-0.075
G81 X0.4514 Y0.4463 Z-0.075
G81 Y0.3447 Z-0.075
G81 X0.813 Y0.3249 Z-0.075
G81 X1.0504 Y0.8646 Z-0.075
G81 X1.1692 Z-0.075
G81 X1.2906 Y0.7247 Z-0.075
G81 X1.5307 Y0.9055 Z-0.075
G81 X1.6497 Y0.9646 Z-0.075
G81 X1.7493 Z-0.075
G81 X1.8488 Y1.1661 Z-0.075
G81 X1.6701 Y1.3053 Z-0.075
G81 X1.5501 Y1.1661 Z-0.075
G81 X1.4698 Z-0.075
G81 X1.3505 Y1.305 Z-0.075
G81 X0.5512 Y1.2058 Z-0.075
G81 X0.392 Y1.1851 Z-0.075
G81 Y1.2854 Z-0.075
G81 Y1.3846 Z-0.075
G81 X0.5109 Z-0.075
G81 X0.4716 Y1.5842 Z-0.075
G81 X0.3528 Z-0.075
G81 X0.3517 Y1.7641 Z-0.075
G81 X0.4716 Z-0.075
G81 X0.1718 Y1.7041 Z-0.075
G81 X0.0322 Z-0.075
G81 X0.1728 Y1.365 Z-0.075
G81 X1.4494 Y0.0659 Z-0.075
G81 X1.5701 Y0.1272 Z-0.075
G81 X2.41 Y0.3849 Z-0.075
G81 X2.4686 Y0.1254 Z-0.075
G81 X2.1295 Y1.7647 Z-0.075
G81 X2.5082 Y1.9828 Z-0.075
G81 X2.9076 Z-0.075
G81 Y2.1232 Z-0.075
G81 Y2.2635 Z-0.075
G81 Y2.4026 Z-0.075
G81 Y2.5418 Z-0.075
G80
( Engrave1 )
G0 Z0.125
( T3 : 0.0039 )
T3 M6
M3 S1000
G0 X2.8732 Y0.014
G0 Z0.0745
G1 F20.0 Z-0.003
G1 F40.0 X3.0879
G3 X3.0909 Y0.017 I0.0 J0.003
G1 Y0.3016
G1 Y0.5862
G3 X3.0879 Y0.5892 I-0.003 J0.0
G1 X2.8732
G1 X2.6586
G3 X2.6556 Y0.5862 I0.0 J-0.003
G1 Y0.3016
G1 Y0.017
G3 X2.6586 Y0.014 I0.003 J0.0
G1 X2.8732
G0 Z0.125
G0 X2.6175 Y0.0056
G0 Z0.0745
G1 F20.0 Z-0.003
G1 F40.0 X2.617 Y0.0194
G1 X2.6195 Y0.0874
G3 Y0.0875 I-0.003 J0.0001
G3 X2.6193 Y0.2918 I-20.9922 J0.0758
G1 X2.6166 Y0.5512
G3 X2.6154 Y0.5536 I-0.003 J0.0
G1 X2.548 Y0.6032
G1 X2.4818 Y0.652
G1 Y0.8312
G1 Y1.0103
G1 X2.5679 Y1.0687
G1 X2.6552 Y1.1279
G3 X2.6566 Y1.1301 I-0.0017 J0.0025
G1 X2.6597 Y1.1743
G1 X2.6628 Y1.2177
G1 X2.6766 Y1.2374
G1 X2.691 Y1.2579
G3 X2.6915 Y1.2596 I-0.0025 J0.0017
G1 Y1.3066
G1 Y1.3536
G3 X2.6906 Y1.3557 I-0.003 J0.0
G1 X2.675 Y1.3714
G3 X2.6536 Y1.3876 I-0.0632 J-0.061
G3 X2.651 Y1.3877 I-0.0014 J-0.0026
G1 X2.6268 Y1.3774
G3 X2.6265 Y1.3773 I0.0012 J-0.0028
G1 X2.6072 Y1.3669
G3 X2.6056 Y1.3643 I0.0014 J-0.0026
G1 Y1.3003
G1 Y1.2364
G3 X2.6071 Y1.2338 I0.003 J0.0
G1 X2.617 Y1.2276
G1 X2.6256 Y1.2224
G1 Y1.1865
G1 Y1.1505
G1 X2.5395 Y1.0922
G1 X2.4522 Y1.033
G3 X2.4509 Y1.0305 I0.0017 J-0.0025
G1 X2.4482 Y0.8333
G1 X2.4454 Y0.6361
G3 X2.4467 Y0.6337 I0.003 J0.0
G1 X2.5168 Y0.5825
G1 X2.5857 Y0.5323
G1 Y0.2854
G1 Y0.04
G1 X2.4539
G1 X2.3221
G1 Y0.2548
G1 Y0.4726
G3 X2.3211 Y0.4748 I-0.003 J0.0
G1 X2.2912 Y0.5035
G1 X2.2622 Y0.5313
G1 Y0.5661
G1 Y0.6009
G1 X2.2719 Y0.6106
G1 X2.2825 Y0.6212
G3 X2.2833 Y0.6235 I-0.0021 J0.0021
G1 X2.2802 Y0.6723
G1 X2.2771 Y0.7212
G3 X2.2741 Y0.724 I-0.003 J-0.0002
G1 X2.2492
G1 X2.2242
G3 X2.2212 Y0.7209 I0.0 J-0.003
G1 X2.2243 Y0.621
G1 X2.2273 Y0.5212
G3 X2.2274 Y0.5208 I0.003 J0.0001
G1 X2.23 Y0.5026
G3 X2.2309 Y0.5009 I0.003 J0.0004
G1 X2.2791 Y0.4527
G1 X2.2837 Y-0.0046
G3 X2.2867 Y-0.0075 I0.003 J0.0
G1 X2.6148
G3 X2.6178 Y-0.0044 I0.0 J0.003
G1 X2.6175 Y0.0056
G0 Z0.125
G0 X2.5495 Y0.0838
G0 Z0.0745
G1 F20.0 Z-0.003
G3 F40.0 X2.5502 Y0.0847 I-0.002 J0.0023
G1 X2.5608 Y0.1044
G1 X2.5713 Y0.1241
G3 X2.5717 Y0.1256 I-0.0026 J0.0014
G1 Y0.1939
G1 Y0.2622
G3 X2.5711 Y0.2639 I-0.003 J0.0
G1 X2.5565 Y0.2848
G1 X2.5424 Y0.305
G1 X2.5396 Y0.4176
G1 X2.5367 Y0.531
G3 X2.5354 Y0.5334 I-0.003 J-0.0001
G1 X2.478 Y0.5729
G1 X2.4219 Y0.6114
G1 Y0.8308
G1 Y1.0502
G1 X2.478 Y1.0887
G1 X2.5354 Y1.1281
G3 X2.5367 Y1.1303 I-0.0017 J0.0025
G1 X2.5399 Y1.1744
G1 X2.543 Y1.2177
G1 X2.5568 Y1.2374
G1 X2.5711 Y1.2579
G3 X2.5717 Y1.2596 I-0.0025 J0.0017
G1 Y1.3066
G1 Y1.3536
G3 X2.5708 Y1.3557 I-0.003 J0.0
G1 X2.5551 Y1.3714
G3 X2.5338 Y1.3876 I-0.0633 J-0.0611
G3 X2.5312 Y1.3877 I-0.0014 J-0.0026
G1 X2.5069 Y1.3774
G3 X2.5067 Y1.3773 I0.0012 J-0.0028
G1 X2.4874 Y1.3669
G3 X2.4858 Y1.3643 I0.0014 J-0.0026
G1 Y1.3003
G1 Y1.2364
G3 X2.4872 Y1.2338 I0.003 J0.0
G1 X2.4972 Y1.2276
G1 X2.5058 Y1.2224
G1 Y1.1865
G1 Y1.1506
G1 X2.4497 Y1.112
G1 X2.3923 Y1.0726
G3 X2.391 Y1.0701 I0.0017 J-0.0025
G1 Y0.8308
G1 Y0.5915
G3 X2.3923 Y0.589 I0.003 J0.0
G1 X2.4497 Y0.5496
G1 X2.5058 Y0.511
G1 Y0.4052
G1 Y0.2995
G1 X2.4972 Y0.2942
G1 X2.4872 Y0.288
G3 X2.4858 Y0.2854 I0.0016 J-0.0026
G1 Y0.2261
G1 Y0.1698
G1 X2.4645
G3 X2.4643 I0.0 J-0.003
G3 X2.413 Y0.1597 I0.0175 J-0.2234
G3 X2.4128 Y0.1596 I0.0009 J-0.0029
G1 X2.3866 Y0.1496
G3 X2.3847 Y0.1465 I0.0011 J-0.0028
G1 X2.3878 Y0.119
G1 X2.391 Y0.0916
G3 X2.3938 Y0.0889 I0.003 J0.0003
G1 X2.4707 Y0.086
G1 X2.5475 Y0.0831
G3 X2.5495 Y0.0838 I0.0001 J0.003
G0 Z0.125
G0 X2.429 Y0.3028
G0 Z0.0745
G1 F20.0 Z-0.003
G3 F40.0 X2.4302 Y0.304 I-0.0014 J0.0026
G1 X2.4409 Y0.3239
G1 X2.4515 Y0.3438
G3 X2.4519 Y0.3452 I-0.0026 J0.0014
G1 Y0.4114
G1 Y0.4777
G3 X2.4515 Y0.4791 I-0.003 J0.0
G1 X2.4412 Y0.4984
G1 X2.4308 Y0.5177
G3 X2.4282 Y0.5193 I-0.0026 J-0.0014
G1 X2.4101
G1 X2.3934
G1 X2.3778 Y0.5366
G1 X2.362 Y0.554
G1 Y0.8325
G1 Y1.1109
G1 X2.3793 Y1.1266
G1 X2.3967 Y1.1423
G1 X2.4119
G1 X2.4282
G3 X2.4308 Y1.1439 I0.0 J0.003
G1 X2.4412 Y1.1632
G1 X2.4515 Y1.1825
G3 X2.4519 Y1.184 I-0.0026 J0.0014
G1 Y1.2188
G1 Y1.2537
G3 X2.451 Y1.2559 I-0.003 J0.0
G1 X2.4353 Y1.2715
G3 X2.414 Y1.2878 I-0.0633 J-0.0611
G3 X2.4114 Y1.2879 I-0.0014 J-0.0026
G1 X2.3871 Y1.2775
G3 X2.3869 Y1.2774 I0.0012 J-0.0028
G1 X2.3676 Y1.2671
G3 X2.366 Y1.2644 I0.0014 J-0.0026
G1 Y1.2114
G1 Y1.1597
G1 X2.347 Y1.1426
G1 X2.327 Y1.1245
G3 X2.3261 Y1.1223 I0.002 J-0.0022
G1 Y0.8308
G1 Y0.5393
G3 X2.327 Y0.5371 I0.003 J0.0
G1 X2.3467 Y0.5194
G1 X2.3653 Y0.5025
G1 X2.3681 Y0.4076
G1 X2.371 Y0.3115
G3 X2.3736 Y0.3086 I0.003 J0.0001
G1 X2.4004 Y0.3055
G1 X2.4272 Y0.3024
G3 X2.429 Y0.3028 I0.0003 J0.003
G0 Z0.125
G0 X2.2583 Y0.3
G0 Z0.0745
G1 F20.0 Z-0.003
G1 F40.0 X2.2572 Y0.3715
G3 X2.2544 Y0.3745 I-0.003 J0.0
G1 X2.1995 Y0.3795
G1 X2.1453 Y0.3844
G1 X2.1034 Y0.4084
G1 X2.0625 Y0.4318
G1 Y0.5175
G1 Y0.6033
G1 X2.071 Y0.6086
G1 X2.081 Y0.6148
G3 X2.0824 Y0.6173 I-0.0016 J0.0026
G1 Y0.6661
G1 Y0.715
G3 X2.081 Y0.7175 I-0.003 J0.0
G1 X2.0687 Y0.7253
G2 X2.047 Y0.7617 I0.0583 J0.0594
G3 Y0.7619 I-0.0029 J-0.0008
G1 X2.0369 Y0.7918
G3 X2.0341 Y0.7939 I-0.0028 J-0.001
G1 X1.7968 Y0.7965
G1 X1.5595 Y0.7992
G3 X1.5569 Y0.7977 I0.0 J-0.003
G1 X1.5399 Y0.7681
G1 X1.5236 Y0.7396
G1 X1.5067 Y0.7352
G1 X1.4887 Y0.7305
G3 X1.4865 Y0.7275 I0.0008 J-0.0029
G1 X1.4894 Y0.6493
G1 X1.4923 Y0.5711
G3 X1.495 Y0.5682 I0.003 J0.0001
G1 X1.5218 Y0.5651
G1 X1.5485 Y0.562
G3 X1.5515 Y0.5636 I0.0003 J0.003
G1 X1.5635 Y0.5859
G1 X1.5754 Y0.6083
G3 X1.5758 Y0.6099 I-0.0026 J0.0014
G1 X1.5707 Y0.6755
G1 Y0.6756
G2 X1.5702 Y0.7528 I0.4158 J0.0413
G1 X1.574 Y0.7629
G1 X1.7901
G1 X2.0067
G1 X2.0105 Y0.7567
G2 X2.0181 Y0.6699 I-0.8566 J-0.1188
G1 Y0.6698
G1 X2.0225 Y0.5818
G1 X2.0296 Y0.4141
G3 X2.031 Y0.4117 I0.003 J0.0001
G1 X2.0839 Y0.3778
G1 X2.1368 Y0.344
G3 X2.1384 Y0.3435 I0.0016 J0.0025
G1 X2.1838
G1 X2.2262
G1 Y0.1918
G1 Y0.04
G1 X1.8591
G1 X1.4931
G1 X1.498 Y0.0556
G1 X1.5042 Y0.075
G3 X1.5034 Y0.078 I-0.0029 J0.0009
G1 X1.483 Y0.0985
G3 X1.4514 Y0.1197 I-0.0559 J-0.049
G3 X1.4493 I-0.001 J-0.0028
G3 X1.4178 Y0.0985 I0.0325 J-0.0824
G1 X1.3973 Y0.078
G3 X1.3966 Y0.075 I0.0021 J-0.0021
G1 X1.4028 Y0.0556
G1 X1.4077 Y0.04
G1 X1.0067
G1 X0.6047
G1 Y0.0516
G1 Y0.0663
G3 X0.6031 Y0.0689 I-0.003 J0.0
G1 X0.5838 Y0.0792
G1 X0.5645 Y0.0896
G3 X0.563 Y0.0899 I-0.0014 J-0.0026
G1 X0.5044
G1 X0.4457
G3 X0.444 Y0.0894 I0.0 J-0.003
G1 X0.4261 Y0.0763
G1 X0.4083 Y0.0633
G3 X0.4071 Y0.0604 I0.0018 J-0.0024
G1 X0.4105 Y0.036
G1 X0.414 Y0.0116
G3 X0.4141 Y0.0111 I0.003 J0.0004
G1 X0.4193 Y-0.0051
G3 X0.4222 Y-0.0072 I0.0029 J0.0009
G1 X2.2571 Y-0.009
G3 X2.2601 Y-0.006 I0.0 J0.003
G1 X2.2602 Y0.0653
G3 X2.2599 Y0.2022 I-3.3399 J0.0614
G1 X2.2583 Y0.3
G0 Z0.125
G0 X2.2022 Y0.2866
G0 Z0.0745
G1 F20.0 Z-0.003
G3 F40.0 X2.2007 Y0.2886 I-0.0029 J-0.0007
G1 X2.1794 Y0.3
G1 X2.1581 Y0.3114
G3 X2.1562 Y0.3117 I-0.0014 J-0.0026
G1 X2.1169 Y0.3054
G1 X2.0788 Y0.2993
G1 X2.0205 Y0.3353
G1 X1.9626 Y0.371
G1 Y0.4857
G1 Y0.6009
G1 X1.9723 Y0.6106
G1 X1.9829 Y0.6212
G3 X1.9838 Y0.6235 I-0.0021 J0.0021
G1 X1.9807 Y0.6723
G1 X1.9776 Y0.7212
G3 X1.975 Y0.7239 I-0.003 J-0.0002
G1 X1.9525 Y0.7271
G1 X1.93 Y0.7303
G3 X1.9267 Y0.7283 I-0.0004 J-0.003
G1 X1.9222 Y0.7152
G3 X1.922 Y0.7143 I0.0028 J-0.001
G3 X1.9246 Y0.5262 I2.0975 J-0.0657
G1 X1.9317 Y0.3516
G3 X1.933 Y0.3492 I0.003 J0.0001
G1 X1.9976 Y0.307
G1 X2.0613 Y0.2654
G1 X2.0685 Y0.246
G1 X2.076 Y0.2257
G3 X2.0788 Y0.2237 I0.0028 J0.001
G1 X2.1324
G1 X2.1859
G3 X2.1881 Y0.2246 I0.0 J0.003
G1 X2.1947 Y0.2313
G3 X2.1952 Y0.232 I-0.0021 J0.0021
G3 X2.2022 Y0.2631 I-0.0525 J0.0282
G1 Y0.2859
G3 Y0.2866 I-0.003 J0.0
G0 Z0.125
G0 X2.1687 Y0.4223
G0 Z0.0745
G1 F20.0 Z-0.003
G3 F40.0 X2.1706 Y0.4238 I-0.0007 J0.0029
G1 X2.1813 Y0.4437
G1 X2.1919 Y0.4636
G3 X2.1923 Y0.465 I-0.0026 J0.0014
G1 Y0.5034
G1 Y0.5418
G3 X2.1917 Y0.5435 I-0.003 J0.0
G1 X2.1752 Y0.5671
G1 X2.1598 Y0.589
G1 X2.1703 Y0.6058
G1 X2.1818 Y0.6243
G3 X2.1823 Y0.6258 I-0.0025 J0.0016
G1 Y0.6703
G1 Y0.7148
G3 X2.1809 Y0.7173 I-0.003 J0.0
G1 X2.1709 Y0.7235
G1 X2.1623 Y0.7288
G1 Y0.8158
G1 Y0.9028
G1 X2.1709 Y0.9081
G1 X2.1809 Y0.9143
G3 X2.1823 Y0.9169 I-0.0016 J0.0026
G1 Y0.9613
G1 Y1.0058
G3 X2.1818 Y1.0074 I-0.003 J0.0
G1 X2.1696 Y1.027
G1 X2.1583 Y1.0451
G1 X2.1746 Y1.0727
G1 X2.1918 Y1.102
G3 X2.1923 Y1.1035 I-0.0026 J0.0015
G1 Y1.1621
G1 Y1.2208
G3 X2.1917 Y1.2225 I-0.003 J0.0
G1 X2.1773 Y1.2431
G1 X2.1633 Y1.2631
G1 X2.1603 Y1.3261
G1 X2.1573 Y1.3901
G3 X2.1543 Y1.393 I-0.003 J-0.0001
G1 X1.8348 Y1.3956
G1 X1.5168 Y1.3982
G1 X1.5004 Y1.4194
G1 X1.4838 Y1.4409
G1 X1.4836 Y1.8418
G1 X1.4833 Y2.2407
G1 X1.5491
G1 X1.6155
G1 X1.6203 Y2.2221
G1 X1.6257 Y2.2014
G3 X1.6291 Y2.1992 I0.0029 J0.0008
G1 X1.6523 Y2.2025
G1 X1.6755 Y2.2057
G3 X1.678 Y2.2087 I-0.0004 J0.003
G1 Y2.2636
G1 Y2.3186
G3 X1.675 Y2.3216 I-0.003 J0.0
G1 X1.6501
G1 X1.6251
G3 X1.6221 Y2.319 I0.0 J-0.003
G1 X1.619 Y2.2969
G1 X1.6162 Y2.2773
G1 X1.537 Y2.2745
G1 X1.4553 Y2.2716
G3 X1.4524 Y2.2686 I0.0001 J-0.003
G1 X1.4498 Y1.8504
G1 X1.4472 Y1.4321
G3 X1.4478 Y1.4303 I0.003 J0.0
G1 X1.4734 Y1.3967
G1 X1.4989 Y1.3632
G3 X1.5013 Y1.362 I0.0024 J0.0018
G1 X1.8153
G1 X2.1264
G1 Y1.3107
G1 Y1.258
G1 X2.1178 Y1.2527
G1 X2.1078 Y1.2465
G3 X2.1064 Y1.244 I0.0016 J-0.0026
G1 Y1.1603
G1 Y1.0766
G3 X2.1078 Y1.0741 I0.003 J0.0
G1 X2.116 Y1.069
G1 X2.1227 Y1.0649
G1 X2.1213 Y0.8239
G1 X2.1198 Y0.5818
G1 X2.1128 Y0.5663
G1 X2.1056 Y0.5502
G3 X2.1053 Y0.5488 I0.0027 J-0.0012
G1 X2.1083 Y0.49
G1 X2.1114 Y0.4313
G3 X2.114 Y0.4284 I0.003 J0.0002
G1 X2.1408 Y0.4253
G1 X2.1676 Y0.4222
G3 X2.1687 Y0.4223 I0.0003 J0.003
G0 Z0.125
G0 X2.1015 Y0.1697
G0 Z0.0745
G1 F20.0 Z-0.003
G3 F40.0 X2.1007 Y0.1698 I-0.0008 J-0.0029
G1 X2.027
G1 X1.9546
G1 X1.9279 Y0.1977
G1 X1.9028 Y0.2239
G1 X1.9104 Y0.2287
G1 X1.9212 Y0.2353
G3 X1.9227 Y0.2379 I-0.0016 J0.0026
G1 Y0.2631
G1 Y0.2884
G3 X1.9207 Y0.2912 I-0.003 J0.0
G1 X1.8908 Y0.3025
G1 X1.8628 Y0.313
G1 X1.8631 Y0.3662
G1 X1.8634 Y0.4204
G1 X1.8774 Y0.439
G1 X1.8921 Y0.4584
G3 X1.8927 Y0.4602 I-0.0024 J0.0018
G1 Y0.501
G1 Y0.5418
G3 X1.8922 Y0.5435 I-0.003 J0.0
G1 X1.876 Y0.5666
G1 X1.8609 Y0.5882
G1 X1.8719 Y0.6087
G1 X1.8837 Y0.6309
G3 X1.8841 Y0.6325 I-0.0026 J0.0014
G1 X1.8809 Y0.6768
G1 X1.8777 Y0.7212
G3 X1.8747 Y0.724 I-0.003 J-0.0002
G1 X1.8498
G1 X1.8248
G3 X1.8218 Y0.721 I0.0 J-0.003
G1 Y0.6495
G1 Y0.5792
G1 X1.8152 Y0.5725
G1 X1.8077 Y0.565
G3 X1.8068 Y0.5629 I0.0021 J-0.0021
G1 Y0.5002
G1 Y0.4376
G3 X1.8083 Y0.435 I0.003 J0.0
G1 X1.8182 Y0.4289
G1 X1.8268 Y0.4236
G1 Y0.3621
G1 Y0.3013
G1 X1.8083 Y0.2964
G1 X1.7876 Y0.291
G3 X1.7854 Y0.2878 I0.0008 J-0.0029
G1 X1.7886 Y0.2596
G1 X1.7919 Y0.2314
G3 X1.7944 Y0.2287 I0.003 J0.0003
G1 X1.8154 Y0.2258
G1 X1.8353 Y0.2229
G1 X1.8703 Y0.1867
G1 X1.9053 Y0.1505
G1 X1.9085 Y0.1216
G1 X1.9117 Y0.0916
G3 X1.9146 Y0.0889 I0.003 J0.0003
G1 X2.02 Y0.0861
G1 X2.1253 Y0.0833
G3 X2.1275 Y0.0842 I0.0001 J0.003
G1 X2.1345 Y0.0911
G3 X2.135 Y0.0918 I-0.0021 J0.0021
G3 X2.1423 Y0.1232 I-0.0533 J0.029
G1 Y0.1461
G3 X2.1408 Y0.1488 I-0.003 J0.0
G1 X2.1214 Y0.1591
G1 X2.1021 Y0.1695
G3 X2.1015 Y0.1697 I-0.0014 J-0.0026
G0 Z0.125
G0 X1.7723 Y0.3459
G0 Z0.0745
G1 F20.0 Z-0.003
G1 F40.0 X1.7821 Y0.3644
G1 X1.7924 Y0.3836
G3 X1.7926 Y0.3861 I-0.0026 J0.0014
G1 X1.7865 Y0.4019
G1 X1.7805 Y0.4177
G3 X1.7784 Y0.4195 I-0.0028 J-0.0011
G1 X1.7548 Y0.4254
G1 X1.7312 Y0.4314
G3 X1.73 I-0.0007 J-0.0029
G1 X1.6824 Y0.4252
G1 X1.6175 Y0.4185
G1 X1.6174
G2 X1.5526 Y0.4132 I-0.0813 J0.6007
G3 X1.5525 I0.0001 J-0.003
G1 X1.4734 Y0.4076
G1 Y0.4131
G2 X1.4843 Y0.4322 I0.0352 J-0.0075
G3 X1.4845 Y0.4323 I-0.002 J0.0022
G1 X1.4956 Y0.4434
G1 X1.5472
G1 X1.6001
G3 X1.6027 Y0.4448 I0.0 J0.003
G1 X1.6323 Y0.4922
G1 X1.662 Y0.5396
G3 X1.6624 Y0.5406 I-0.0025 J0.0016
G1 X1.6733 Y0.5927
G1 X1.6842 Y0.6447
G3 X1.6843 Y0.6455 I-0.0029 J0.0006
G1 X1.6812 Y0.6834
G1 X1.678 Y0.7212
G3 X1.675 Y0.724 I-0.003 J-0.0002
G1 X1.6501
G1 X1.6251
G3 X1.6221 Y0.721 I0.0 J-0.003
G1 X1.6219 Y0.6411
G1 X1.6216 Y0.5621
G1 X1.5989 Y0.5253
G1 X1.5765 Y0.4893
G1 X1.5389
G1 X1.5005
G1 X1.4773 Y0.5045
G1 X1.4534 Y0.5202
G3 X1.4503 Y0.5203 I-0.0016 J-0.0025
G1 X1.4308 Y0.5099
G3 X1.4307 I0.0014 J-0.0026
G3 X1.4037 Y0.4816 I0.0353 J-0.0607
G3 X1.4036 Y0.4813 I0.0027 J-0.0014
G1 X1.3972 Y0.4646
G3 X1.3975 Y0.4619 I0.0028 J-0.0011
G1 X1.4127 Y0.4387
G1 X1.4274 Y0.4162
G1 Y0.3276
G1 Y0.2395
G1 X1.3847 Y0.2045
G1 X1.3417 Y0.1693
G1 X1.0247 Y0.1734
G1 X0.6916 Y0.1777
G1 X0.6915
G1 X0.5909 Y0.1757
G1 X0.5658 Y0.1752
G3 X0.4904 Y0.1734 I0.1935 J-9.915
G1 X0.307 Y0.169
G1 X0.3011 Y0.2005
G1 X0.2947 Y0.2345
G3 X0.2938 Y0.2362 I-0.0029 J-0.0006
G1 X0.2758 Y0.2524
G1 X0.2579 Y0.2686
G3 X0.2565 Y0.2694 I-0.002 J-0.0022
G1 X0.2247 Y0.2757
G1 X0.1953 Y0.2816
G1 Y0.3282
G1 Y0.3763
G1 X0.2109 Y0.4002
G1 X0.227 Y0.4248
G3 Y0.4281 I-0.0025 J0.0016
G1 X0.2109 Y0.4527
G1 X0.1953 Y0.4765
G1 Y0.5063
G1 Y0.5361
G1 X0.21 Y0.5585
G1 X0.2252 Y0.5817
G3 X0.2255 Y0.5844 I-0.0025 J0.0016
G1 X0.2191 Y0.6011
G3 X0.219 Y0.6013 I-0.0028 J-0.0011
G3 X0.1933 Y0.629 I-0.0544 J-0.0247
G1 X0.1932
G1 X0.1752 Y0.6387
G3 X0.1727 Y0.6388 I-0.0014 J-0.0026
G1 X0.1567 Y0.6327
G3 X0.1564 Y0.6326 I0.0011 J-0.0028
G3 X0.1288 Y0.6057 I0.0292 J-0.0578
G1 X0.1287
G1 X0.1183 Y0.5862
G3 X0.1185 Y0.5832 I0.0026 J-0.0014
G1 X0.1341 Y0.5592
G1 X0.1493 Y0.5361
G1 Y0.5063
G1 Y0.4765
G1 X0.1337 Y0.4527
G1 X0.1176 Y0.4281
G3 Y0.4248 I0.0025 J-0.0016
G1 X0.1337 Y0.4002
G1 X0.1493 Y0.3763
G1 Y0.3189
G1 Y0.2613
G1 X0.1371 Y0.235
G1 X0.1255 Y0.2099
G1 X0.0898 Y0.2098
G1 X0.0552 Y0.2097
G1 X0.0596 Y0.8932
G1 X0.064 Y1.5795
G1 X0.0704 Y1.6661
G1 X0.0769 Y1.7528
G3 X0.0765 Y1.7545 I-0.003 J0.0002
G1 X0.0652 Y1.7757
G1 X0.0538 Y1.797
G3 X0.0508 Y1.7985 I-0.0026 J-0.0014
G1 X0.024 Y1.7954
G1 X-0.0028 Y1.7923
G3 X-0.0054 Y1.7894 I0.0003 J-0.003
G1 X-0.0083 Y1.6855
G1 X-0.0111 Y1.5815
G3 X-0.0103 Y1.5793 I0.003 J-0.0001
G1 X0.0001 Y1.5689
G1 X0.0096 Y1.5595
G1 Y0.8638
G1 Y0.1668
G3 X0.0126 Y0.1638 I0.003 J0.0
G1 X0.0725
G1 X0.1294
G1 Y0.1534
G1 Y0.1399
G3 X0.1304 Y0.1377 I0.003 J0.0
G1 X0.1478 Y0.122
G3 X0.148 Y0.1219 I0.002 J0.0022
G3 X0.1932 Y0.0989 I0.076 J0.0937
G1 X0.2198 Y0.0923
G3 X0.2218 Y0.0925 I0.0007 J0.0029
G1 X0.2561 Y0.1087
G1 X0.2898 Y0.1247
G1 X0.4828 Y0.1203
G1 X0.587 Y0.118
G3 X0.6135 Y0.1174 I0.0154 J0.101
G1 X0.6328 Y0.117
G3 X0.6916 Y0.116 I0.0366 J0.421
G1 X1.0347 Y0.1203
G1 X1.3628 Y0.1244
G3 X1.3647 Y0.1251 I0.0 J0.003
G1 X1.4065 Y0.1593
G1 X1.4462 Y0.1918
G1 X1.4837 Y0.1548
G2 X1.5404 Y0.0956 I-0.5969 J-0.6281
G3 X1.5691 Y0.0741 I0.0522 J0.0398
G3 X1.5713 Y0.0742 I0.0011 J0.0028
G3 X1.6022 Y0.0947 I-0.033 J0.0831
G3 X1.623 Y0.1259 I-0.0458 J0.053
G3 X1.6229 Y0.128 I-0.0029 J0.0009
G3 X1.6017 Y0.1595 I-0.0824 J-0.0325
G1 X1.5813 Y0.1799
G3 X1.5783 Y0.1807 I-0.0021 J-0.0021
G1 X1.561 Y0.1752
G1 X1.5454 Y0.1702
G1 X1.5094 Y0.1998
G1 X1.4734 Y0.2296
G1 Y0.2973
G1 Y0.3635
G1 X1.5397
G1 X1.6073
G1 X1.6126 Y0.3549
G1 X1.6188 Y0.345
G3 X1.6213 Y0.3435 I0.0026 J0.0016
G1 X1.6952
G1 X1.7692
G3 X1.7718 Y0.3451 I0.0 J0.003
G1 X1.7723 Y0.3459
G0 Z0.125
G0 X1.7322 Y0.454
G0 Z0.0745
G1 F20.0 Z-0.003
G3 F40.0 X1.7629 Y0.4751 I-0.0264 J0.0712
G1 X1.7835 Y0.4957
G3 X1.7842 Y0.499 I-0.0021 J0.0021
G1 X1.777 Y0.5157
G2 X1.7652 Y0.56 I0.1984 J0.0767
G1 X1.7605 Y0.5873
G1 X1.772 Y0.6086
G1 X1.7839 Y0.6309
G3 X1.7842 Y0.6325 I-0.0026 J0.0014
G1 X1.781 Y0.6768
G1 X1.7779 Y0.7212
G3 X1.7749 Y0.724 I-0.003 J-0.0002
G1 X1.7499
G1 X1.725
G3 X1.722 Y0.721 I0.0 J-0.003
G1 Y0.6411
G1 Y0.5625
G1 X1.7005 Y0.5409
G3 X1.6772 Y0.5073 I0.0537 J-0.062
G3 Y0.5052 I0.0028 J-0.001
G3 X1.6978 Y0.4743 I0.083 J0.0329
G3 X1.729 Y0.4535 I0.053 J0.0458
G3 X1.7309 I0.0009 J0.0029
G3 X1.7322 Y0.454 I-0.0251 J0.0716
G0 Z0.125
G0 X1.4582 Y0.5502
G0 Z0.0745
G1 F20.0 Z-0.003
G3 F40.0 X1.4584 Y0.5511 I-0.0028 J0.001
G1 X1.4611 Y0.661
G1 X1.4639 Y0.7708
G3 X1.463 Y0.773 I-0.003 J0.0001
G1 X1.3829 Y0.8527
G1 X1.3036 Y0.9314
G1 X1.3034 Y0.9804
G1 X1.3032 Y1.0305
G3 X1.3025 Y1.0323 I-0.003 J0.0
G1 X1.283 Y1.0573
G1 X1.2641 Y1.0815
G1 X1.2639 Y1.2933
G1 X1.2637 Y1.505
G1 X1.2778 Y1.5191
G3 X1.2934 Y1.5437 I-0.0464 J0.0468
G3 X1.2935 Y1.5457 I-0.0028 J0.001
G3 X1.2771 Y1.5711 I-0.0609 J-0.0214
G3 X1.2516 Y1.5875 I-0.0424 J-0.0377
G3 X1.2496 I-0.0009 J-0.0029
G3 X1.2237 Y1.5705 I0.028 J-0.0709
G1 X1.2075 Y1.5543
G3 X1.2069 Y1.5508 I0.0021 J-0.0021
G1 X1.215 Y1.5346
G1 X1.2227 Y1.519
G1 X1.2256 Y1.2961
G1 X1.2285 Y1.0724
G3 X1.229 Y1.0707 I0.003 J0.0
G1 X1.2486 Y1.0432
G1 X1.2677 Y1.0165
G1 Y0.9688
G1 Y0.9202
G3 X1.2685 Y0.9181 I0.003 J0.0
G1 X1.3484 Y0.8387
G1 X1.4274 Y0.7601
G1 Y0.6688
G1 Y0.5792
G1 X1.2564
G1 X1.0849
G1 X1.0821 Y0.5991
G1 X1.0789 Y0.6215
G3 X1.0759 Y0.6241 I-0.003 J-0.0004
G1 X1.051
G1 X1.026
G3 X1.023 Y0.6211 I0.0 J-0.003
G1 Y0.5662
G1 Y0.5113
G3 X1.0256 Y0.5083 I0.003 J0.0
G1 X1.0488 Y0.505
G1 X1.072 Y0.5017
G3 X1.0753 Y0.504 I0.0004 J0.003
G1 X1.0807 Y0.5245
G1 X1.0855 Y0.5428
G1 X1.2693 Y0.5455
G1 X1.4554 Y0.5482
G3 X1.4582 Y0.5502 I0.0 J0.003
G0 Z0.125
G0 X1.3243 Y0.6953
G0 Z0.0745
G1 F20.0 Z-0.003
G3 F40.0 X1.3434 Y0.725 I-0.0475 J0.0515
G3 X1.3433 Y0.7271 I-0.0029 J0.0009
G3 X1.3227 Y0.758 I-0.083 J-0.0329
G3 X1.2884 Y0.7788 I-0.0527 J-0.0484
G3 X1.2876 Y0.7789 I-0.0008 J-0.0029
G1 X1.2758
G1 X1.2445 Y0.8112
G1 X1.2136 Y0.8431
G1 X1.219 Y0.8572
G1 X1.2251 Y0.8731
G3 X1.2244 Y0.8763 I-0.0028 J0.0011
G1 X1.2037 Y0.8971
G1 X1.1838 Y0.9169
G1 Y0.9356
G1 Y0.9544
G1 X1.2028 Y0.9734
G3 X1.2236 Y1.0046 I-0.0458 J0.053
G3 X1.2235 Y1.0066 I-0.0029 J0.0009
G3 X1.2029 Y1.0376 I-0.083 J-0.0329
G3 X1.1717 Y1.0583 I-0.053 J-0.0458
G3 X1.1697 I-0.0009 J-0.0029
G3 X1.1387 Y1.0376 I0.0329 J-0.083
G1 X1.1196 Y1.0185
G1 X1.041
G1 X0.9641
G1 Y1.0904
G1 Y1.1623
G1 X0.9708
G3 X0.972 Y1.1626 I0.0 J0.003
G3 X0.9937 Y1.1839 I-0.019 J0.0411
G1 X1.0044 Y1.2038
G3 Y1.2067 I-0.0026 J0.0014
G1 X0.9943 Y1.2254
G1 Y1.2255
G3 X0.967 Y1.2516 I-0.0556 J-0.0307
G3 X0.9667 Y1.2518 I-0.0013 J-0.0027
G1 X0.9508 Y1.2579
G3 X0.9483 Y1.2577 I-0.0011 J-0.0028
G1 X0.9302 Y1.2481
G3 X0.9301 Y1.248 I0.0014 J-0.0026
G3 X0.9045 Y1.2204 I0.0347 J-0.0579
G3 X0.9044 Y1.2202 I0.0027 J-0.0013
G1 X0.898 Y1.2035
G3 X0.8982 Y1.2008 I0.0028 J-0.0011
G1 X0.913 Y1.1782
G1 X0.9274 Y1.1564
G1 X0.9302 Y1.0738
G1 X0.9332 Y0.9905
G3 X0.9361 Y0.9876 I0.003 J0.0001
G1 X1.0304 Y0.9847
G1 X1.1237 Y0.9818
G1 X1.1359 Y0.9717
G1 X1.1478 Y0.9617
G1 Y0.9364
G1 Y0.9109
G1 X1.1367 Y0.8998
G1 X1.1256 Y0.8887
G1 X1.1051
G1 X1.0856
G1 X1.0809 Y0.9064
G1 X1.0757 Y0.9264
G3 X1.0728 Y0.9287 I-0.0029 J-0.0008
G1 X1.051
G1 X1.0291
G3 X1.0262 Y0.9264 I0.0 J-0.003
G1 X1.021 Y0.9064
G1 X1.0164 Y0.8887
G1 X1.0011
G1 X0.9857
G1 X0.9809 Y0.9072
G1 X0.9755 Y0.928
G3 X0.9721 Y0.9302 I-0.0029 J-0.0008
G1 X0.9489 Y0.9269
G1 X0.9258 Y0.9236
G3 X0.9232 Y0.9207 I0.0004 J-0.003
G1 Y0.8657
G1 Y0.8108
G3 X0.9258 Y0.8079 I0.003 J0.0
G1 X0.9489 Y0.8046
G1 X0.9721 Y0.8013
G3 X0.9755 Y0.8035 I0.0004 J0.003
G1 X0.9809 Y0.8243
G1 X0.9857 Y0.8428
G1 X1.0011
G1 X1.0164
G1 X1.021 Y0.8251
G1 X1.0262 Y0.8051
G3 X1.0291 Y0.8028 I0.0029 J0.0008
G1 X1.051
G1 X1.0728
G3 X1.0757 Y0.8051 I0.0 J0.003
G1 X1.0809 Y0.8251
G1 X1.0856 Y0.8428
G1 X1.1024
G1 X1.1207
G1 X1.1441 Y0.8274
G1 X1.1683 Y0.8116
G3 X1.1715 I0.0016 J0.0025
G1 X1.1803 Y0.817
G1 X1.1871 Y0.8212
G1 X1.218 Y0.7894
G1 X1.2493 Y0.7571
G1 X1.2433 Y0.7384
G1 X1.2368 Y0.7179
G3 X1.2376 Y0.7149 I0.0029 J-0.0009
G1 X1.258 Y0.6945
G3 X1.2896 Y0.6732 I0.0559 J0.049
G3 X1.2917 I0.001 J0.0028
G3 X1.3226 Y0.6938 I-0.033 J0.083
G3 X1.3243 Y0.6953 I-0.0458 J0.053
G0 Z0.125
G0 X1.493 Y0.8289
G0 Z0.0745
G1 F20.0 Z-0.003
G3 F40.0 X1.4952 Y0.8278 I0.0024 J0.0019
G1 X1.612 Y0.8249
G1 X1.7287 Y0.822
G3 X1.7315 Y0.8236 I0.0001 J0.003
G1 X1.742 Y0.8433
G3 X1.7529 Y0.8786 I-0.0801 J0.0441
G3 Y0.8788 I-0.003 J0.0003
G1 Y0.8919
G1 X1.7668 Y0.9034
G1 X1.7818 Y0.9158
G3 X1.7829 Y0.9181 I-0.0019 J0.0023
G1 Y0.9648
G1 Y1.0115
G3 X1.782 Y1.0136 I-0.003 J0.0
G1 X1.7725 Y1.0231
G1 X1.7639 Y1.0318
G1 X1.7609 Y1.1005
G1 X1.7579 Y1.1704
G3 X1.755 Y1.1733 I-0.003 J-0.0001
G1 X1.6759 Y1.1762
G1 X1.5983 Y1.1791
G1 X1.5875 Y1.1938
G1 X1.576 Y1.2096
G3 X1.5736 Y1.2108 I-0.0024 J-0.0018
G1 X1.5148 Y1.2123
G1 X1.456 Y1.2138
G3 X1.4538 Y1.2129 I-0.0001 J-0.003
G1 X1.4361 Y1.1952
G3 X1.4177 Y1.1684 I0.0593 J-0.0604
G3 X1.4175 Y1.1664 I0.0028 J-0.0012
G3 X1.4313 Y1.1391 I0.0744 J0.0205
G1 X1.4446 Y1.121
G3 X1.447 Y1.1198 I0.0024 J0.0018
G1 X1.5047 Y1.1183
G1 X1.5625 Y1.1169
G3 X1.5644 Y1.1175 I0.0001 J0.003
G1 X1.5807 Y1.1299
G1 X1.5962 Y1.1417
G1 X1.6632 Y1.142
G1 X1.7282 Y1.1423
G1 X1.7223 Y1.0092
G1 X1.7184 Y0.9367
G3 Y0.9365 I0.003 J-0.0002
G2 X1.7113 Y0.8654 I-0.3631 J0.0007
G1 X1.7071 Y0.8588
G1 X1.6395
G1 X1.5732
G1 Y0.8888
G1 Y0.9218
G3 X1.5726 Y0.9236 I-0.003 J0.0
G1 X1.5596 Y0.9414
G1 X1.5465 Y0.9593
G3 X1.5437 Y0.9605 I-0.0024 J-0.0018
G1 X1.5193 Y0.957
G1 X1.4949 Y0.9536
G3 X1.4923 Y0.9506 I0.0004 J-0.003
G1 Y0.8907
G1 Y0.8308
G3 X1.493 Y0.8289 I0.003 J0.0
G0 Z0.125
G0 X1.4512 Y0.9727
G0 Z0.0745
G1 F20.0 Z-0.003
G3 F40.0 X1.4514 Y0.9728 I-0.0008 J0.0029
G3 X1.4833 Y0.9943 I-0.0251 J0.0717
G1 X1.504 Y1.0149
G3 X1.5046 Y1.0181 I-0.0021 J0.0021
G1 X1.4992 Y1.0323
G1 X1.4953 Y1.0425
G1 X1.5588
G1 X1.6237
G1 X1.6229 Y0.9781
G1 X1.6221 Y0.9107
G3 X1.6247 Y0.9077 I0.003 J0.0
G1 X1.6451 Y0.9048
G1 X1.6655 Y0.9019
G3 X1.668 Y0.9027 I0.0004 J0.003
G1 X1.6751 Y0.9098
G1 X1.6822 Y0.9169
G3 X1.683 Y0.919 I-0.0021 J0.0021
G1 Y0.9624
G1 Y1.0058
G3 X1.6827 Y1.0072 I-0.003 J0.0
G1 X1.6734 Y1.0245
G2 X1.6588 Y1.0594 I0.2116 J0.1095
G1 X1.6532 Y1.0774
G3 X1.6502 Y1.0795 I-0.0029 J-0.0009
G1 X1.5436 Y1.0773
G1 X1.437 Y1.0751
G3 X1.4349 Y1.0742 I0.0001 J-0.003
G1 X1.4167 Y1.056
G3 X1.3976 Y1.0264 I0.0441 J-0.0494
G3 X1.3977 Y1.0244 I0.0029 J-0.0009
G3 X1.4182 Y0.9935 I0.083 J0.0329
G3 X1.4494 Y0.9727 I0.053 J0.0458
G3 X1.4512 I0.0009 J0.0029
G0 Z0.125
G0 X1.37 Y1.2411
G0 Z0.0745
G1 F20.0 Z-0.003
G3 F40.0 X1.3718 Y1.2426 I-0.0009 J0.0029
G1 X1.3825 Y1.2625
G1 X1.3931 Y1.2824
G3 X1.3935 Y1.2838 I-0.0026 J0.0014
G1 Y1.3125
G1 Y1.3412
G3 X1.3929 Y1.343 I-0.003 J0.0
G1 X1.3782 Y1.3624
G1 X1.3642 Y1.381
G1 X1.3638 Y1.9716
G1 X1.3635 Y2.5602
G1 X1.6964
G1 X2.0291
G1 X2.0254 Y2.386
G1 X2.0215 Y2.2088
G3 X2.0245 Y2.2057 I0.003 J-0.0001
G1 X2.0495
G1 X2.0744
G3 X2.0774 Y2.2085 I0.0 J0.003
G1 X2.0806 Y2.2528
G1 X2.0838 Y2.2972
G3 X2.0834 Y2.2988 I-0.003 J0.0002
G1 X2.0728 Y2.3193
G1 X2.0625 Y2.3393
G1 X2.06 Y2.4634
G1 X2.0575 Y2.5882
G3 X2.0545 Y2.5911 I-0.003 J-0.0001
G1 X1.695
G1 X1.3356
G3 X1.3326 Y2.5882 I0.0 J-0.003
G1 X1.3302 Y1.9891
G1 X1.3278 Y1.3907
G1 X1.3174 Y1.3709
G1 X1.3067 Y1.3504
G3 X1.3063 Y1.3488 I0.0027 J-0.0014
G1 X1.3095 Y1.2994
G1 X1.3126 Y1.25
G3 X1.3152 Y1.2472 I0.003 J0.0002
G1 X1.342 Y1.2441
G1 X1.3688 Y1.241
G3 X1.37 Y1.2411 I0.0003 J0.003
G0 Z0.125
G0 X1.4539 Y1.3099
G0 Z0.0745
G1 F20.0 Z-0.003
G1 F40.0 X1.4594 Y1.3032
G3 X1.4617 Y1.3021 I0.0023 J0.0019
G1 X1.4994
G1 X1.5357
G1 X1.5769 Y1.2532
G1 X1.619 Y1.2033
G3 X1.6213 Y1.2022 I0.0023 J0.0019
G1 X1.6843
G1 X1.7472
G3 X1.7491 Y1.2029 I0.0 J0.003
G1 X1.7745 Y1.2228
G1 X1.799 Y1.2422
G1 X1.8652
G1 X1.9293
G1 X1.9255 Y1.078
G1 X1.9217 Y0.9108
G3 X1.9242 Y0.9077 I0.003 J-0.0001
G1 X1.9446 Y0.9048
G1 X1.965 Y0.9019
G3 X1.9675 Y0.9027 I0.0004 J0.003
G1 X1.9746 Y0.9098
G1 X1.9817 Y0.9169
G3 X1.9826 Y0.919 I-0.0021 J0.0021
G1 Y0.9653
G1 Y1.0115
G3 X1.9817 Y1.0137 I-0.003 J0.0
G1 X1.9721 Y1.0233
G1 X1.9633 Y1.0321
G1 X1.9605 Y1.1506
G1 X1.9576 Y1.2702
G3 X1.9547 Y1.2731 I-0.003 J-0.0001
G1 X1.8692 Y1.276
G1 X1.7837 Y1.2789
G3 X1.7814 Y1.2779 I-0.0001 J-0.003
G1 X1.763 Y1.2575
G1 X1.7455 Y1.2382
G1 X1.69
G1 X1.6346
G1 X1.5934 Y1.287
G1 X1.5513 Y1.337
G3 X1.549 Y1.338 I-0.0023 J-0.0019
G1 X1.5109
G1 X1.4742
G1 X1.449 Y1.3711
G1 X1.4234 Y1.4046
G1 Y1.8935
G1 Y2.3805
G1 X1.4648
G1 X1.5074
G1 X1.5127 Y2.3719
G1 X1.5189 Y2.3619
G3 X1.5215 Y2.3605 I0.0026 J0.0016
G1 X1.5852
G1 X1.6489
G3 X1.6515 Y2.3619 I0.0 J0.003
G1 X1.6576 Y2.3719
G1 X1.6629 Y2.3805
G1 X1.7455
G1 X1.8268
G1 X1.8243 Y2.2962
G1 X1.8218 Y2.2088
G3 X1.8248 Y2.2057 I0.003 J-0.0001
G1 X1.8498
G1 X1.8747
G3 X1.8777 Y2.2085 I0.0 J0.003
G1 X1.8809 Y2.2528
G1 X1.8841 Y2.2972
G3 X1.8837 Y2.2987 I-0.003 J0.0002
G1 X1.8734 Y2.3192
G2 X1.8606 Y2.3736 I0.144 J0.0628
G1 Y2.3737
G1 X1.8578 Y2.4087
G3 X1.8549 Y2.4114 I-0.003 J-0.0002
G1 X1.7611 Y2.4143
G1 X1.6683 Y2.4172
G1 X1.6482 Y2.4312
G1 X1.6274 Y2.4458
G3 X1.6257 Y2.4464 I-0.0017 J-0.0025
G1 X1.5852
G1 X1.5447
G3 X1.543 Y2.4458 I0.0 J-0.003
G1 X1.5224 Y2.4314
G1 X1.5026 Y2.4175
G1 X1.4493 Y2.4145
G1 X1.3953 Y2.4114
G3 X1.3925 Y2.4084 I0.0002 J-0.003
G1 X1.3899 Y1.9003
G1 X1.3873 Y1.3923
G3 X1.388 Y1.3903 I0.003 J0.0
G1 X1.4237 Y1.3468
G1 X1.4539 Y1.3099
G0 Z0.125
G0 X1.5286 Y1.4224
G0 Z0.0745
G1 F20.0 Z-0.003
G3 F40.0 X1.5303 Y1.4219 I0.0017 J0.0025
G1 X1.9176
G1 X2.305
G3 X2.3072 Y1.4228 I0.0 J0.003
G1 X2.3463 Y1.4629
G1 X2.3851 Y1.5027
G1 X2.4278 Y1.5233
G1 X2.4702 Y1.5438
G1 X2.7287 Y1.5365
G1 X2.988 Y1.5292
G3 X2.9911 Y1.5322 I0.0001 J0.003
G1 Y1.7681
G1 Y2.004
G3 X2.9881 Y2.007 I-0.003 J0.0
G1 X2.9729
G2 X2.9346 Y2.0226 I0.0114 J0.0832
G3 X2.9344 Y2.0227 I-0.0018 J-0.0024
G1 X2.9098 Y2.0388
G3 X2.9065 I-0.0016 J-0.0025
G1 X2.8819 Y2.0227
G1 X2.8581 Y2.007
G1 X2.7987
G1 X2.7414
G1 Y2.1238
G1 Y2.2407
G1 X2.7987
G1 X2.8581
G1 X2.8805 Y2.226
G1 X2.9037 Y2.2107
G3 X2.9064 Y2.2105 I0.0016 J0.0025
G1 X2.9231 Y2.2168
G3 X2.9233 Y2.2169 I-0.0011 J0.0028
G3 X2.9514 Y2.2434 I-0.0267 J0.0565
G1 X2.9614 Y2.2622
G3 Y2.2651 I-0.0026 J0.0014
G1 X2.9514 Y2.2838
G1 Y2.2839
G3 X2.924 Y2.31 I-0.0556 J-0.0307
G3 X2.9238 Y2.3102 I-0.0013 J-0.0027
G1 X2.9078 Y2.3163
G3 X2.9053 Y2.3161 I-0.0011 J-0.0028
G1 X2.8862 Y2.3059
G3 X2.8655 Y2.2844 I0.0166 J-0.0367
G3 X2.8652 Y2.2833 I0.0028 J-0.0011
G1 Y2.2766
G1 X2.8033
G1 X2.7414
G1 Y2.3984
G1 Y2.5202
G1 X2.7987
G1 X2.8581
G1 X2.8812 Y2.505
G1 X2.9052 Y2.4894
G3 X2.9083 Y2.4892 I0.0016 J0.0025
G1 X2.9277 Y2.4996
G3 X2.9543 Y2.5266 I-0.0278 J0.054
G3 X2.9544 Y2.5269 I-0.0027 J0.0013
G1 X2.9603 Y2.5421
G3 Y2.5443 I-0.0028 J0.0011
G1 X2.9544 Y2.5595
G3 X2.9542 Y2.5599 I-0.0028 J-0.0011
G3 X2.9285 Y2.5864 I-0.0613 J-0.034
G3 X2.9284 I-0.0015 J-0.0026
G1 X2.9096 Y2.5965
G3 X2.9068 I-0.0014 J-0.0026
G1 X2.8869 Y2.5859
G3 X2.8655 Y2.5644 I0.016 J-0.0374
G3 X2.8652 Y2.5633 I0.0028 J-0.0012
G1 Y2.5569
G1 X2.7907 Y2.5541
G1 X2.7134 Y2.5512
G3 X2.7105 Y2.5482 I0.0001 J-0.003
G1 X2.7135 Y2.0664
G1 X2.7164 Y1.5877
G1 X2.5888
G1 X2.459
G1 X2.4356 Y1.603
G1 X2.4115 Y1.6188
G3 X2.4082 Y1.6189 I-0.0016 J-0.0025
G1 X2.398 Y1.6126
G1 X2.3893 Y1.6072
G1 X2.371 Y1.617
G1 X2.3535 Y1.6263
G1 X2.358 Y1.6379
G1 X2.3634 Y1.6519
G3 X2.3627 Y1.6551 I-0.0028 J0.0011
G1 X2.342 Y1.6758
G3 X2.3102 Y1.6973 I-0.0648 J-0.0618
G3 X2.308 I-0.0011 J-0.0028
G3 X2.277 Y1.6766 I0.0328 J-0.0828
G1 X2.2579 Y1.6576
G1 X2.2449
G1 X2.2321
G1 X2.2019 Y1.6939
G1 X2.1718 Y1.7302
G1 X2.1761 Y1.7471
G1 X2.1808 Y1.7656
G3 X2.1807 Y1.7674 I-0.0029 J0.0007
G1 X2.1752 Y1.7817
G3 X2.1751 Y1.782 I-0.0028 J-0.0011
G3 X2.1503 Y1.8072 I-0.0531 J-0.0274
G1 X2.1322 Y1.8169
G3 X2.1297 Y1.817 I-0.0014 J-0.0026
G1 X2.1137 Y1.8109
G3 X2.1135 Y1.8108 I0.0011 J-0.0028
G3 X2.0862 Y1.7846 I0.029 J-0.0577
G1 X2.0861
G1 X2.0761 Y1.7658
G3 Y1.763 I0.0026 J-0.0014
G1 X2.0864 Y1.7437
G1 X2.0967 Y1.7244
G3 X2.0985 Y1.7229 I0.0026 J0.0014
G1 X2.1209 Y1.7158
G1 X2.1426 Y1.7089
G1 X2.1804 Y1.6661
G1 X2.2187 Y1.6226
G3 X2.2209 Y1.6216 I0.0023 J0.002
G1 X2.2362
G2 X2.3031 Y1.5972 I-0.084 J-0.3343
G1 X2.3032
G1 X2.3543 Y1.573
G1 X2.3592 Y1.5602
G1 X2.3639 Y1.5481
G1 X2.3233 Y1.5082
G1 X2.2821 Y1.4678
G1 X1.9259
G1 X1.5718
G1 X1.5779 Y1.5269
G3 X1.5841 Y1.6696 I-1.0687 J0.1179
G1 X1.5834 Y1.714
G1 X1.5811 Y1.7804
G3 X1.5796 Y1.8139 I-0.258 J0.0051
G1 X1.5788 Y1.8301
G3 X1.5778 Y1.8472 I-0.0458 J0.0059
G1 X1.572 Y1.9411
G1 X1.5933
G1 X1.6155
G1 X1.6203 Y1.9226
G1 X1.6257 Y1.9018
G3 X1.6291 Y1.8996 I0.0029 J0.0008
G1 X1.6523 Y1.9029
G1 X1.6755 Y1.9062
G3 X1.678 Y1.9092 I-0.0004 J0.003
G1 Y1.9641
G1 Y2.019
G3 X1.6755 Y2.022 I-0.003 J0.0
G1 X1.6523 Y2.0253
G1 X1.6291 Y2.0285
G3 X1.6257 Y2.0263 I-0.0004 J-0.003
G1 X1.6205 Y2.0061
G1 X1.6157 Y1.9879
G1 X1.5764 Y1.9851
G1 X1.535 Y1.9821
G3 X1.5323 Y1.9792 I0.0002 J-0.003
G1 X1.5294 Y1.8794
G1 X1.5265 Y1.7809
G1 X1.5178 Y1.7721
G1 X1.5082 Y1.7625
G3 X1.5073 Y1.7604 I0.0021 J-0.0021
G1 Y1.6681
G1 Y1.5759
G3 X1.5087 Y1.5733 I0.003 J0.0
G1 X1.5187 Y1.5671
G1 X1.5273 Y1.5618
G1 Y1.4942
G1 Y1.4249
G3 X1.5286 Y1.4224 I0.003 J0.0
G0 Z0.125
G0 X1.613 Y1.5076
G0 Z0.0745
G1 F20.0 Z-0.003
G3 F40.0 X1.6151 Y1.5068 I0.0021 J0.0021
G1 X1.7304 Y1.504
G1 X1.8458 Y1.5012
G3 X1.848 Y1.5021 I0.0001 J0.003
G1 X1.8549 Y1.509
G3 X1.8554 Y1.5097 I-0.0021 J0.0021
G3 X1.8628 Y1.5411 I-0.0548 J0.0293
G1 Y1.564
G3 X1.8612 Y1.5666 I-0.003 J0.0
G1 X1.8419 Y1.577
G1 X1.8225 Y1.5873
G3 X1.8211 Y1.5877 I-0.0014 J-0.0026
G1 X1.7805
G1 X1.7429
G1 Y1.6546
G1 Y1.7215
G1 X1.7496
G3 X1.7508 Y1.7217 I0.0 J0.003
G3 X1.773 Y1.7438 I-0.0177 J0.0399
G1 X1.7839 Y1.7643
G3 X1.7838 Y1.7674 I-0.0026 J0.0014
G1 X1.7681 Y1.7913
G1 X1.7529 Y1.8145
G1 Y1.8399
G1 Y1.8655
G1 X1.7682 Y1.8978
G1 X1.7838 Y1.9307
G3 X1.7841 Y1.9322 I-0.0027 J0.0013
G1 X1.781 Y1.9757
G1 X1.7779 Y2.0192
G3 X1.7749 Y2.022 I-0.003 J-0.0002
G1 X1.7499
G1 X1.725
G3 X1.722 Y2.019 I0.0 J-0.003
G1 X1.7205 Y1.9227
G1 X1.7191 Y1.8274
G1 X1.6972 Y1.7977
G1 X1.6746 Y1.7672
G3 X1.6745 Y1.7638 I0.0024 J-0.0018
G1 X1.691 Y1.7387
G1 X1.707 Y1.7143
G1 Y1.6499
G1 Y1.5877
G1 X1.6769
G1 X1.6439
G3 X1.6421 Y1.5871 I0.0 J-0.003
G1 X1.6243 Y1.574
G1 X1.6065 Y1.561
G3 X1.6053 Y1.5582 I0.0018 J-0.0024
G1 X1.6087 Y1.5338
G1 X1.6122 Y1.5094
G3 X1.613 Y1.5076 I0.003 J0.0004
G0 Z0.125
G0 X1.6642 Y1.344
G0 Z0.0745
G1 F20.0 Z-0.003
G3 F40.0 X1.6638 Y1.3439 I0.0009 J-0.0029
G1 X1.6457 Y1.3351
G1 X1.6276 Y1.3264
G3 X1.6259 Y1.3234 I0.0013 J-0.0027
G1 X1.629 Y1.2966
G1 X1.6321 Y1.2698
G3 X1.6349 Y1.2671 I0.003 J0.0003
G1 X1.6831 Y1.2641
G1 X1.7313 Y1.261
G3 X1.7344 Y1.2632 I0.0002 J0.003
G1 X1.7398 Y1.2838
G1 X1.7446 Y1.3021
G1 X1.8872
G1 X2.0291
G1 X2.0254 Y1.1079
G1 X2.0215 Y0.9107
G3 X2.0241 Y0.9077 I0.003 J-0.0001
G1 X2.0445 Y0.9048
G1 X2.0648 Y0.9019
G3 X2.0674 Y0.9027 I0.0004 J0.003
G1 X2.0745 Y0.9098
G1 X2.0815 Y0.9169
G3 X2.0824 Y0.919 I-0.0021 J0.0021
G1 Y0.9653
G1 Y1.0115
G3 X2.0816 Y1.0137 I-0.003 J0.0
G1 X2.0718 Y1.0234
G1 X2.063 Y1.0322
G1 X2.0602 Y1.1805
G1 X2.0575 Y1.3301
G3 X2.0546 Y1.333 I-0.003 J-0.0001
G1 X1.8598 Y1.3386
G1 X1.6651 Y1.3442
G3 X1.6642 Y1.344 I-0.0001 J-0.003
G0 Z0.125
G0 X1.8163 Y1.1986
G0 Z0.0745
G1 F20.0 Z-0.003
G3 F40.0 X1.8062 Y1.1849 I0.0469 J-0.0448
G1 Y1.1848
G1 X1.7958 Y1.1654
G3 X1.7959 Y1.1623 I0.0026 J-0.0014
G1 X1.8122 Y1.1374
G1 X1.828 Y1.1134
G1 X1.8249 Y1.0125
G1 X1.8218 Y0.9108
G3 X1.8244 Y0.9077 I0.003 J-0.0001
G1 X1.8459 Y0.9046
G1 X1.8674 Y0.9016
G3 X1.8704 Y0.903 I0.0004 J0.003
G1 X1.8772 Y0.914
G1 X1.8841 Y0.9251
G3 X1.8845 Y0.9269 I-0.0026 J0.0016
G1 X1.8775 Y1.0199
G1 X1.8706 Y1.112
G1 X1.8864 Y1.136
G1 X1.9027 Y1.1608
G3 X1.903 Y1.1636 I-0.0025 J0.0016
G1 X1.8966 Y1.1802
G3 X1.8965 Y1.1804 I-0.0028 J-0.0011
G3 X1.8707 Y1.2081 I-0.0544 J-0.0247
G1 X1.8526 Y1.2178
G3 X1.8501 Y1.2179 I-0.0014 J-0.0026
G1 X1.8342 Y1.2118
G3 X1.8339 Y1.2117 I0.0011 J-0.0028
G3 X1.8163 Y1.1986 I0.0292 J-0.0578
G0 Z0.125
G0 X1.9534 Y1.507
G0 Z0.0745
G1 F20.0 Z-0.003
G3 F40.0 X1.9545 Y1.5068 I0.0012 J0.0027
G1 X2.0699 Y1.504
G1 X2.1853 Y1.5012
G3 X2.1875 Y1.5021 I0.0001 J0.003
G1 X2.1944 Y1.509
G3 X2.1949 Y1.5097 I-0.0021 J0.0021
G3 X2.2022 Y1.5411 I-0.0548 J0.0293
G1 Y1.564
G3 X2.2007 Y1.5666 I-0.003 J0.0
G1 X2.1814 Y1.577
G1 X2.162 Y1.5873
G3 X2.1606 Y1.5877 I-0.0014 J-0.0026
G1 X2.0716
G1 X1.984
G1 X1.9681 Y1.6052
G1 X1.9526 Y1.6224
G1 X1.9579 Y1.6363
G1 X1.964 Y1.6519
G3 X1.9633 Y1.6551 I-0.0028 J0.0011
G1 X1.9426 Y1.6759
G3 X1.9108 Y1.6973 I-0.0649 J-0.0619
G3 X1.9086 I-0.0011 J-0.0028
G3 X1.8777 Y1.6767 I0.0329 J-0.083
G3 X1.8569 Y1.6455 I0.0458 J-0.053
G3 Y1.6436 I0.0029 J-0.0009
G3 X1.8785 Y1.6117 I0.0716 J0.0251
G1 X1.8991 Y1.591
G3 X1.9023 Y1.5903 I0.0021 J0.0021
G1 X1.9158 Y1.5955
G1 X1.9273 Y1.5999
G1 X1.9385 Y1.5863
G1 X1.9504 Y1.572
G1 X1.951 Y1.5414
G1 X1.9516 Y1.5097
G3 X1.9534 Y1.507 I0.003 J0.0001
G0 Z0.125
G0 Y1.8213
G0 Z0.0745
G1 F20.0 Z-0.003
G1 F40.0 X2.0461
G3 X2.0483 Y1.8222 I0.0 J0.003
G1 X2.0549 Y1.8288
G3 X2.0555 Y1.8297 I-0.0021 J0.0021
G3 X2.0625 Y1.869 I-0.0761 J0.0336
G1 Y1.8989
G1 X2.0722 Y1.9087
G1 X2.0828 Y1.9192
G3 X2.0836 Y1.9216 I-0.0021 J0.0021
G1 X2.0805 Y1.9704
G1 X2.0774 Y2.0192
G3 X2.0744 Y2.022 I-0.003 J-0.0002
G1 X2.0495
G1 X2.0245
G3 X2.0215 Y2.0189 I0.0 J-0.003
G1 X2.0237 Y1.9365
G1 X2.0258 Y1.8573
G1 X1.9443
G1 X1.8628
G1 Y1.8772
G1 Y1.8989
G1 X1.8725 Y1.9087
G1 X1.8831 Y1.9192
G3 X1.8839 Y1.9216 I-0.0021 J0.0021
G1 X1.8808 Y1.9704
G1 X1.8777 Y2.0192
G3 X1.8747 Y2.022 I-0.003 J-0.0002
G1 X1.8498
G1 X1.8248
G3 X1.8218 Y2.0189 I0.0 J-0.003
G1 X1.8242 Y1.9341
G3 X1.8314 Y1.8365 I0.957 J0.0215
G3 X1.8315 Y1.8358 I0.003 J0.0004
G1 X1.8364 Y1.8232
G3 X1.8392 Y1.8213 I0.0028 J0.0011
G1 X1.9427
G1 X1.9534
G0 Z0.125
G0 Y1.9062
G0 Z0.0745
G1 F20.0 Z-0.003
G1 F40.0 X1.9746
G3 X1.9776 Y1.909 I0.0 J0.003
G1 X1.9807 Y1.9578
G1 X1.9838 Y2.0066
G3 X1.9829 Y2.0089 I-0.003 J0.0002
G1 X1.9723 Y2.0195
G1 X1.9626 Y2.0292
G1 Y2.0659
G1 Y2.1009
G1 X2.0455
G1 X2.1282
G1 X2.1215 Y2.0163
G1 X2.1146 Y1.9284
G3 X2.115 Y1.9267 I0.003 J-0.0002
G1 X2.144 Y1.8772
G1 X2.1731 Y1.8278
G3 X2.1756 Y1.8263 I0.0026 J0.0015
G1 X2.3262 Y1.8235
G1 X2.4745 Y1.8208
G1 X2.4809 Y1.7959
G2 X2.4893 Y1.6995 I-0.4926 J-0.0917
G1 Y1.6994
G1 X2.4908 Y1.6295
G3 X2.4935 Y1.6266 I0.003 J0.0001
G1 X2.5202 Y1.6235
G1 X2.547 Y1.6204
G3 X2.55 Y1.622 I0.0003 J0.003
G1 X2.5607 Y1.6419
G1 X2.5713 Y1.6618
G3 X2.5717 Y1.6632 I-0.0026 J0.0014
G1 Y1.7038
G1 Y1.7444
G3 X2.5708 Y1.7466 I-0.003 J0.0
G1 X2.5484 Y1.7685
G2 X2.5114 Y1.8201 I0.1588 J0.1527
G1 X2.4963 Y1.8506
G3 X2.4937 Y1.8523 I-0.0027 J-0.0013
G1 X2.3421 Y1.855
G1 X2.1926 Y1.8577
G1 X2.1858 Y1.8779
G1 X2.1784 Y1.8996
G1 X2.1812 Y1.9553
G1 X2.184 Y2.0116
G3 X2.1826 Y2.0143 I-0.003 J0.0001
G1 X2.1717 Y2.021
G1 X2.1623 Y2.0268
G1 Y2.1125
G1 Y2.1985
G1 X2.172 Y2.2082
G1 X2.1826 Y2.2188
G3 X2.1835 Y2.2211 I-0.0021 J0.0021
G1 X2.1804 Y2.2699
G1 X2.1773 Y2.3187
G3 X2.1743 Y2.3216 I-0.003 J-0.0002
G1 X2.1493
G1 X2.1244
G3 X2.1214 Y2.3185 I0.0 J-0.003
G1 X2.1241 Y2.2261
G1 X2.1268 Y2.1368
G1 X1.9449
G1 X1.7629
G1 Y2.1668
G1 Y2.1985
G1 X1.7726 Y2.2082
G1 X1.7832 Y2.2188
G3 X1.7841 Y2.2211 I-0.0021 J0.0021
G1 X1.781 Y2.2699
G1 X1.7779 Y2.3187
G3 X1.7749 Y2.3216 I-0.003 J-0.0002
G1 X1.7499
G1 X1.725
G3 X1.722 Y2.3185 I0.0 J-0.003
G1 X1.7247 Y2.2261
G1 X1.7274 Y2.1369
G1 X1.7078 Y2.1371
G1 X1.6861 Y2.1375
G1 X1.6675 Y2.1515
G1 X1.6481 Y2.1662
G3 X1.6463 Y2.1668 I-0.0018 J-0.0024
G1 X1.5952
G1 X1.5441
G3 X1.5423 Y2.1662 I0.0 J-0.003
G1 X1.5245 Y2.1532
G1 X1.5066 Y2.1401
G3 X1.5054 Y2.1373 I0.0018 J-0.0024
G1 X1.5089 Y2.1129
G1 X1.5123 Y2.0885
G3 X1.5152 Y2.0859 I0.003 J0.0004
G1 X1.5891 Y2.0829
G1 X1.663 Y2.08
G3 X1.6652 Y2.0808 I0.0001 J0.003
G1 X1.6757 Y2.0913
G1 X1.6853 Y2.1009
G1 X1.8073
G1 X1.9275
G1 X1.9246 Y2.0066
G1 X1.9217 Y1.9093
G3 X1.9247 Y1.9062 I0.003 J-0.0001
G1 X1.9496
G1 X1.9534
G0 Z0.125
G0 X2.2212 Y1.9091
G0 Z0.0745
G1 F20.0 Z-0.003
G3 F40.0 X2.2238 Y1.9062 I0.003 J0.0
G1 X2.247 Y1.9029
G1 X2.2702 Y1.8996
G3 X2.2735 Y1.9018 I0.0004 J0.003
G1 X2.2788 Y1.9221
G1 X2.2835 Y1.9403
G1 X2.3278 Y1.9431
G1 X2.3742 Y1.9461
G3 X2.377 Y1.949 I-0.0002 J0.003
G1 X2.38 Y2.0119
G1 X2.3829 Y2.0736
G1 X2.4015 Y2.0922
G3 X2.4217 Y2.1227 I-0.0615 J0.0625
G3 Y2.125 I-0.0028 J0.0011
G3 X2.4011 Y2.1559 I-0.083 J-0.033
G1 X2.382 Y2.175
G1 Y2.2636
G1 Y2.3523
G1 X2.401 Y2.3713
G3 X2.4218 Y2.4025 I-0.0458 J0.053
G3 X2.4217 Y2.4045 I-0.0029 J0.0009
G3 X2.4011 Y2.4355 I-0.0828 J-0.0328
G1 X2.382 Y2.4546
G1 Y2.4883
G1 Y2.5202
G1 X2.4193
G1 X2.4587
G1 X2.4819 Y2.505
G1 X2.5058 Y2.4894
G3 X2.5089 Y2.4892 I0.0016 J0.0025
G1 X2.5283 Y2.4996
G3 X2.5549 Y2.5266 I-0.0278 J0.054
G3 X2.555 Y2.5269 I-0.0027 J0.0013
G1 X2.5609 Y2.5421
G3 Y2.5443 I-0.0028 J0.0011
G1 X2.555 Y2.5595
G3 X2.5548 Y2.5599 I-0.0028 J-0.0011
G3 X2.5291 Y2.5864 I-0.0613 J-0.0339
G3 X2.529 I-0.0015 J-0.0026
G1 X2.5102 Y2.5965
G3 X2.5074 I-0.0014 J-0.0026
G1 X2.4875 Y2.5858
G3 X2.4661 Y2.5646 I0.0185 J-0.0399
G3 X2.4658 Y2.5633 I0.0027 J-0.0013
G1 Y2.557
G1 X2.4113 Y2.5542
G1 X2.3539 Y2.5512
G3 X2.351 Y2.5484 I0.0002 J-0.003
G1 X2.3479 Y2.4997
G1 X2.3449 Y2.4518
G1 X2.3298 Y2.4288
G1 X2.3143 Y2.4051
G3 Y2.4018 I0.0025 J-0.0016
G1 X2.3304 Y2.3772
G1 X2.346 Y2.3533
G1 Y2.2636
G1 Y2.174
G1 X2.3304 Y2.1501
G1 X2.3143 Y2.1255
G3 Y2.1222 I0.0025 J-0.0016
G1 X2.3304 Y2.0976
G1 X2.346 Y2.0737
G1 Y2.0243
G1 Y1.9771
G1 X2.3148
G1 X2.2831
G1 X2.2803 Y1.997
G1 X2.2771 Y2.0194
G3 X2.2741 Y2.022 I-0.003 J-0.0004
G1 X2.2492
G1 X2.2242
G3 X2.2212 Y2.019 I0.0 J-0.003
G1 Y1.9641
G1 Y1.9092
G1 Y1.9091
G0 Z0.125
G0 X2.4546 Y1.9845
G0 Z0.0745
G1 F20.0 Z-0.003
G3 F40.0 X2.4548 Y1.984 I0.0029 J0.0009
G1 X2.4655 Y1.964
G1 X2.4762 Y1.9441
G3 X2.4779 Y1.9426 I0.0026 J0.0014
G1 X2.4954 Y1.9369
G1 X2.5118 Y1.9316
G1 X2.556 Y1.8552
G1 X2.6005 Y1.7785
G1 X2.6055 Y1.7043
G1 X2.6106 Y1.6294
G3 X2.6133 Y1.6266 I0.003 J0.0002
G1 X2.6401 Y1.6235
G1 X2.6668 Y1.6204
G3 X2.6698 Y1.622 I0.0003 J0.003
G1 X2.6805 Y1.6419
G1 X2.6912 Y1.6618
G3 X2.6915 Y1.6632 I-0.0026 J0.0014
G1 Y1.6995
G1 Y1.7357
G3 X2.6912 Y1.7372 I-0.003 J0.0
G1 X2.6808 Y1.7565
G1 X2.6705 Y1.7758
G3 X2.6678 Y1.7774 I-0.0026 J-0.0014
G1 X2.654
G1 X2.6419
G1 X2.5928 Y1.8629
G1 X2.5437 Y1.9484
G1 X2.5525 Y1.9648
G1 X2.5621 Y1.9826
G3 Y1.9855 I-0.0026 J0.0014
G1 X2.5514 Y2.0053
G3 X2.5295 Y2.0268 I-0.0365 J-0.0154
G3 X2.5284 Y2.027 I-0.0011 J-0.0028
G1 X2.5218
G1 Y2.0474
G1 Y2.0688
G1 X2.5455 Y2.0796
G1 X2.5697 Y2.0906
G1 X2.5878 Y2.081
G1 X2.6072 Y2.0706
G3 X2.61 I0.0014 J0.0026
G1 X2.6288 Y2.0806
G1 X2.6289 Y2.0807
G3 X2.655 Y2.108 I-0.0307 J0.0555
G3 X2.6552 Y2.1082 I-0.0027 J0.0013
G1 X2.6613 Y2.1242
G3 X2.6611 Y2.1267 I-0.0028 J0.0011
G1 X2.6515 Y2.1448
G1 X2.6514
G3 X2.6245 Y2.1703 I-0.0549 J-0.0312
G3 X2.6242 Y2.1704 I-0.0013 J-0.0027
G1 X2.6083 Y2.1765
G3 X2.6058 Y2.1763 I-0.0011 J-0.0028
G1 X2.5865 Y2.166
G1 X2.5687 Y2.1565
G1 X2.5501 Y2.1664
G1 X2.5302 Y2.1771
G3 X2.5273 I-0.0014 J-0.0026
G1 X2.5074 Y2.1664
G1 X2.4874 Y2.1557
G3 X2.4858 Y2.1534 I0.0014 J-0.0026
G1 X2.4845 Y2.1413
G3 Y2.1409 I0.003 J-0.0003
G1 X2.4854 Y2.0823
G1 Y2.0822
G1 X2.4875 Y2.0367
G1 X2.4715 Y2.0123
G1 X2.4549 Y1.987
G3 X2.4546 Y1.9845 I0.0025 J-0.0016
G0 Z0.125
G0 X2.5081 Y2.2108
G0 Z0.0745
G1 F20.0 Z-0.003
G3 F40.0 X2.5099 Y2.2109 I0.0007 J0.0029
G3 X2.5408 Y2.2315 I-0.033 J0.083
G3 X2.5616 Y2.2627 I-0.0458 J0.053
G3 X2.5615 Y2.2647 I-0.0029 J0.0009
G3 X2.5408 Y2.2957 I-0.083 J-0.0329
G1 X2.5218 Y2.3148
G1 Y2.3319
G1 Y2.3484
G1 X2.5455 Y2.3592
G1 X2.5697 Y2.3702
G1 X2.5871 Y2.3609
G1 X2.6058 Y2.3509
G3 X2.6083 Y2.3508 I0.0014 J0.0026
G1 X2.6242 Y2.3569
G3 X2.6245 Y2.357 I-0.0011 J0.0028
G3 X2.6514 Y2.3824 I-0.0268 J0.0554
G1 X2.6515 Y2.3825
G1 X2.6611 Y2.4006
G3 X2.6613 Y2.4031 I-0.0026 J0.0014
G1 X2.6552 Y2.419
G3 X2.655 Y2.4193 I-0.0028 J-0.0011
G3 X2.6289 Y2.4466 I-0.0576 J-0.029
G1 X2.6288
G1 X2.61 Y2.4567
G3 X2.6072 I-0.0014 J-0.0026
G1 X2.5872 Y2.446
G1 X2.5687 Y2.4361
G1 X2.5501 Y2.446
G1 X2.5302 Y2.4567
G3 X2.5273 I-0.0014 J-0.0026
G1 X2.5074 Y2.446
G1 X2.4874 Y2.4353
G3 X2.4858 Y2.433 I0.0014 J-0.0026
G1 X2.4845 Y2.4209
G3 Y2.4207 I0.003 J-0.0003
G3 X2.4854 Y2.3612 I0.3916 J-0.0239
G1 X2.4875 Y2.3154
G1 X2.4723 Y2.2935
G1 X2.4722
G3 X2.4561 Y2.2625 I0.1312 J-0.0882
G3 X2.4562 Y2.2601 I0.0028 J-0.0011
G3 X2.4766 Y2.2316 I0.0923 J0.0448
G3 X2.5078 Y2.2109 I0.053 J0.0458
G3 X2.5081 Y2.2108 I0.0009 J0.0029
G0 Z0.125
G0 X2.2782 Y2.2254
G0 Z0.0745
G1 F20.0 Z-0.003
G1 F40.0 X2.2802 Y2.2573
G1 X2.2833 Y2.3062
G3 X2.2825 Y2.3085 I-0.003 J0.0002
G1 X2.2719 Y2.3191
G1 X2.2622 Y2.3288
G1 Y2.4853
G1 Y2.6401
G1 X2.6635
G1 X3.0649
G1 Y2.0639
G1 Y1.4878
G1 X2.7557
G1 X2.4435
G3 X2.4414 Y1.4869 I0.0 J-0.003
G1 X2.3352 Y1.3796
G1 X2.2291 Y1.2722
G3 X2.2282 Y1.2702 I0.0021 J-0.0021
G1 X2.2247 Y1.0905
G1 X2.2212 Y0.9107
G3 X2.2242 Y0.9077 I0.003 J-0.0001
G1 X2.2492
G1 X2.2741
G3 X2.2771 Y0.9108 I0.0 J0.003
G1 X2.2733 Y1.0789
G1 X2.2694 Y1.2458
G1 X2.3671 Y1.3438
G1 X2.4647 Y1.4419
G1 X2.7857
G1 X3.1079
G3 X3.1109 Y1.4449 I0.0 J0.003
G1 Y2.064
G1 Y2.6831
G3 X3.1079 Y2.6861 I-0.003 J0.0
G1 X1.6326 Y2.6835
G1 X0.1573 Y2.681
G3 X0.1543 Y2.678 I0.0 J-0.003
G1 X0.1517 Y2.259
G1 X0.1491 Y1.8413
G1 X0.1401 Y1.8323
G1 X0.1303 Y1.8224
G3 X0.1294 Y1.8203 I0.0021 J-0.0021
G1 Y1.7081
G1 Y1.5958
G3 X0.1308 Y1.5933 I0.003 J0.0
G1 X0.1408 Y1.5871
G1 X0.1493 Y1.5818
G1 Y1.4988
G1 Y1.4151
G1 X0.1337 Y1.3912
G1 X0.1176 Y1.3666
G3 Y1.3634 I0.0025 J-0.0016
G1 X0.1334 Y1.3393
G1 X0.1487 Y1.3159
G1 X0.1515 Y1.2035
G1 X0.1543 Y1.0903
G3 X0.1573 Y1.0874 I0.003 J0.0001
G1 X0.4456 Y1.0848
G1 X0.7308 Y1.0821
G1 X0.7272 Y0.9481
G1 X0.7235 Y0.8109
G3 X0.7261 Y0.8079 I0.003 J-0.0001
G1 X0.7464 Y0.8049
G1 X0.7668 Y0.802
G3 X0.7694 Y0.8029 I0.0004 J0.003
G1 X0.7764 Y0.81
G1 X0.7835 Y0.817
G3 X0.7844 Y0.8192 I-0.0021 J0.0021
G1 Y0.8654
G1 Y0.9117
G3 X0.7835 Y0.9138 I-0.003 J0.0
G1 X0.774 Y0.9234
G1 X0.7652 Y0.9321
G1 X0.7623 Y1.0207
G1 X0.7594 Y1.1105
G3 X0.7565 Y1.1134 I-0.003 J-0.0001
G1 X0.4694 Y1.116
G1 X0.1853 Y1.1187
G1 Y1.2204
G1 Y1.3221
G1 X0.1919
G3 X0.1931 Y1.3223 I0.0 J0.003
G3 X0.2153 Y1.3444 I-0.0177 J0.0399
G1 X0.2263 Y1.3649
G3 X0.2262 Y1.368 I-0.0026 J0.0014
G1 X0.2098 Y1.3929
G1 X0.194 Y1.4171
G1 X0.2 Y1.5127
G3 X0.2055 Y1.7095 I-2.3592 J0.1643
G1 X0.2029 Y1.9504
G1 X0.2014 Y2.0709
G1 X0.1999 Y2.1913
G1 X0.1949 Y2.5702
G1 X0.2999
G1 X0.408
G3 X0.4101 Y2.571 I0.0 J0.003
G1 X0.4221 Y2.583
G1 X0.434 Y2.595
G3 X0.4349 Y2.5971 I-0.0021 J0.0021
G1 Y2.6201
G1 Y2.6401
G1 X0.8413
G1 X1.2477
G1 Y2.4583
G1 Y2.2766
G1 X1.1665
G1 X1.0849
G1 X1.0821 Y2.2965
G1 X1.0789 Y2.319
G3 X1.0759 Y2.3216 I-0.003 J-0.0004
G1 X1.051
G1 X1.026
G3 X1.023 Y2.3186 I0.0 J-0.003
G1 Y2.2636
G1 Y2.2087
G3 X1.0256 Y2.2057 I0.003 J0.0
G1 X1.0488 Y2.2025
G1 X1.072 Y2.1992
G3 X1.0753 Y2.2014 I0.0004 J0.003
G1 X1.0807 Y2.2218
G1 X1.0854 Y2.24
G1 X1.1795 Y2.2428
G1 X1.2757 Y2.2457
G3 X1.2786 Y2.2486 I-0.0001 J0.003
G1 X1.2814 Y2.4458
G1 X1.284 Y2.6401
G1 X1.7565
G1 X2.2288
G1 X2.225 Y2.4259
G1 X2.2212 Y2.2088
G3 X2.2242 Y2.2057 I0.003 J-0.0001
G1 X2.2492
G1 X2.2741
G3 X2.2771 Y2.2085 I0.0 J0.003
G1 X2.2782 Y2.2254
G0 Z0.125
G0 X1.9826
G0 Z0.0745
G1 F20.0 Z-0.003
G1 F40.0 Y2.2647
G1 Y2.3124
G3 X1.9812 Y2.3149 I-0.003 J0.0
G1 X1.9712 Y2.3211
G1 X1.9626 Y2.3264
G1 Y2.379
G1 Y2.4321
G1 X1.9816 Y2.4511
G3 X2.0024 Y2.4824 I-0.0458 J0.053
G3 Y2.4843 I-0.0029 J0.0009
G3 X1.9809 Y2.5162 I-0.0716 J-0.0251
G1 X1.9602 Y2.5369
G3 X1.9567 Y2.5375 I-0.0021 J-0.0021
G1 X1.94 Y2.5292
G1 X1.9239 Y2.5212
G1 X1.7272 Y2.5184
G1 X1.5307 Y2.5155
G1 X1.5096 Y2.5303
G1 X1.4876 Y2.5457
G3 X1.4859 Y2.5462 I-0.0017 J-0.0025
G1 X1.4551
G1 X1.4242
G3 X1.4225 Y2.5456 I0.0 J-0.003
G1 X1.4046 Y2.5326
G1 X1.3868 Y2.5196
G3 X1.3856 Y2.5167 I0.0018 J-0.0024
G1 X1.389 Y2.4923
G1 X1.3925 Y2.4679
G3 X1.3953 Y2.4653 I0.003 J0.0004
G1 X1.4491 Y2.4623
G1 X1.503 Y2.4592
G3 X1.5053 Y2.4601 I0.0002 J0.003
G1 X1.5158 Y2.4706
G1 X1.5255 Y2.4803
G1 X1.7108
G1 X1.8958
G1 X1.9119 Y2.4558
G1 X1.9283 Y2.4306
G1 X1.925 Y2.3202
G1 X1.9217 Y2.2088
G3 X1.9242 Y2.2057 I0.003 J-0.0001
G1 X1.9446 Y2.2028
G1 X1.965 Y2.1999
G3 X1.9675 Y2.2008 I0.0004 J0.003
G1 X1.9746 Y2.2078
G1 X1.9817 Y2.2149
G3 X1.9826 Y2.217 I-0.0021 J0.0021
G1 Y2.2254
G0 Z0.125
G0 X1.2947 Y2.1317
G0 Z0.0745
G1 F20.0 Z-0.003
G3 F40.0 X1.2939 Y2.1334 I-0.003 J-0.0004
G1 X1.2789 Y2.1484
G1 X1.2638 Y2.1635
G3 X1.2616 Y2.1643 I-0.0021 J-0.0021
G1 X1.0614 Y2.1591
G1 X0.8643 Y2.154
G1 Y2.1753
G1 Y2.1985
G1 X0.874 Y2.2082
G1 X0.8846 Y2.2188
G3 X0.8854 Y2.2211 I-0.0021 J0.0021
G1 X0.8823 Y2.2699
G1 X0.8792 Y2.3187
G3 X0.8762 Y2.3216 I-0.003 J-0.0002
G1 X0.8513
G1 X0.8263
G3 X0.8233 Y2.3185 I0.0 J-0.003
G1 X0.8257 Y2.2337
G3 X0.8329 Y2.136 I0.9693 J0.0224
G3 X0.8331 Y2.1353 I0.003 J0.0004
G1 X0.8379 Y2.1228
G3 X0.8407 Y2.1208 I0.0028 J0.0011
G1 X0.9846
G1 X1.1262
G1 X1.1309 Y2.1031
G1 X1.1361 Y2.0831
G3 X1.139 Y2.0809 I0.0029 J0.0008
G1 X1.1848
G1 X1.2277
G1 X1.2274 Y2.0465
G1 X1.2271 Y2.01
G1 X1.213 Y1.9915
G3 X1.1979 Y1.9631 I0.0763 J-0.0589
G3 X1.198 Y1.9609 I0.0028 J-0.001
G3 X1.2186 Y1.9321 I0.0847 J0.0385
G3 X1.2498 Y1.9113 I0.053 J0.0458
G3 X1.2518 Y1.9114 I0.0009 J0.0029
G3 X1.2827 Y1.9319 I-0.0329 J0.083
G3 X1.3034 Y1.9607 I-0.0495 J0.0574
G3 X1.3035 Y1.9627 I-0.0028 J0.0011
G3 X1.2871 Y1.9942 I-0.0896 J-0.0267
G1 X1.2718 Y2.0159
G1 X1.276 Y2.0567
G2 X1.2873 Y2.114 I0.2745 J-0.0246
G1 X1.2945 Y2.13
G3 X1.2947 Y2.1317 I-0.0027 J0.0012
G0 Z0.125
G0 X1.0786 Y2.0198
G0 Z0.0745
G1 F20.0 Z-0.003
G3 F40.0 X1.0765 Y2.0213 I-0.0027 J-0.0014
G1 X1.058 Y2.0251
G1 X1.0395 Y2.0288
G3 X1.0368 Y2.028 I-0.0006 J-0.0029
G1 X1.0272 Y2.0184
G1 X1.0177 Y2.0089
G3 X1.0168 Y2.0066 I0.0021 J-0.0021
G1 X1.0238 Y1.8954
G1 X1.0309 Y1.7842
G3 X1.0338 Y1.7814 I0.003 J0.0002
G1 X1.0798 Y1.781
G1 X1.1249 Y1.7807
G1 X1.1434 Y1.7667
G3 X1.1718 Y1.7516 I0.0591 J0.0766
G3 X1.174 Y1.7517 I0.001 J0.0028
G3 X1.2028 Y1.7722 I-0.0385 J0.0848
G3 X1.2236 Y1.8034 I-0.0458 J0.053
G3 X1.2235 Y1.8054 I-0.0029 J0.0009
G3 X1.2029 Y1.8364 I-0.083 J-0.0329
G3 X1.1738 Y1.857 I-0.0586 J-0.0517
G3 X1.1719 Y1.8571 I-0.0011 J-0.0028
G3 X1.1434 Y1.8419 I0.0205 J-0.0727
G1 X1.1249 Y1.8279
G1 X1.0979 Y1.8276
G1 X1.0731 Y1.8273
G1 X1.076 Y1.9212
G1 X1.0789 Y2.0183
G3 X1.0786 Y2.0198 I-0.003 J0.0001
G0 Z0.125
G0 X0.9854 Y1.9985
G0 Z0.0745
G1 F20.0 Z-0.003
G3 F40.0 X0.9851 Y1.9992 I-0.0029 J-0.0007
G1 X0.9749 Y2.0197
G2 X0.962 Y2.0643 I0.1486 J0.0671
G1 X0.9591 Y2.0892
G3 X0.9562 Y2.0919 I-0.003 J-0.0003
G1 X0.8589 Y2.0948
G1 X0.7644 Y2.0975
G1 Y2.1472
G1 Y2.1985
G1 X0.7741 Y2.2082
G1 X0.7847 Y2.2188
G3 X0.7856 Y2.2211 I-0.0021 J0.0021
G1 X0.7825 Y2.2699
G1 X0.7794 Y2.3187
G3 X0.7764 Y2.3216 I-0.003 J-0.0002
G1 X0.7514
G1 X0.7265
G3 X0.7235 Y2.3185 I0.0 J-0.003
G1 X0.7254 Y2.0464
G1 X0.7273 Y1.7774
G1 X0.6211
G1 X0.5148
G1 Y1.784
G3 X0.5146 Y1.7851 I-0.003 J0.0
G3 X0.4939 Y1.8066 I-0.0374 J-0.0153
G1 X0.4747 Y1.8169
G3 X0.4722 Y1.817 I-0.0014 J-0.0026
G1 X0.4563 Y1.8109
G3 X0.456 Y1.8108 I0.0011 J-0.0028
G3 X0.4291 Y1.7854 I0.0268 J-0.0554
G1 X0.429 Y1.7853
G1 X0.4194 Y1.7673
G3 X0.4192 Y1.7648 I0.0026 J-0.0014
G1 X0.4253 Y1.7488
G3 X0.4255 Y1.7485 I0.0028 J0.0011
G3 X0.4523 Y1.7208 I0.0578 J0.0292
G1 X0.4718 Y1.7104
G3 X0.4748 Y1.7105 I0.0014 J0.0026
G1 X0.4988 Y1.7262
G1 X0.522 Y1.7414
G1 X0.6259
G1 X0.7278
G1 X0.7306 Y1.657
G1 X0.7335 Y1.5696
G3 X0.7362 Y1.5667 I0.003 J0.0001
G1 X0.7701 Y1.5635
G1 X0.8033 Y1.5603
G1 X0.8262 Y1.5453
G1 X0.8496 Y1.5299
G3 X0.8529 I0.0016 J0.0025
G1 X0.8775 Y1.5461
G1 X0.9014 Y1.5617
G1 X0.9533 Y1.5614
G1 X1.005 Y1.5611
G1 X1.0236 Y1.547
G3 X1.0519 Y1.5319 I0.059 J0.0764
G3 X1.0541 Y1.532 I0.001 J0.0028
G3 X1.083 Y1.5525 I-0.0385 J0.0847
G3 X1.1038 Y1.5837 I-0.0458 J0.053
G3 X1.1037 Y1.5858 I-0.0029 J0.0009
G3 X1.0831 Y1.6167 I-0.083 J-0.033
G3 X1.0519 Y1.6374 I-0.053 J-0.0458
G3 X1.0499 I-0.0009 J-0.0029
G3 X1.0189 Y1.6167 I0.0328 J-0.0828
G1 X0.9998 Y1.5976
G1 X0.9511
G1 X0.9025
G1 X0.8834 Y1.6167
G3 X0.8522 Y1.6374 I-0.053 J-0.0458
G3 X0.8502 I-0.0009 J-0.0029
G3 X0.8192 Y1.6167 I0.0329 J-0.083
G1 X0.8001 Y1.5976
G1 X0.7814
G1 X0.7644
G1 Y1.7488
G1 Y1.9013
G1 X0.773 Y1.9066
G1 X0.783 Y1.9128
G3 X0.7844 Y1.9153 I-0.0016 J0.0026
G1 Y1.9641
G1 Y2.0128
G3 X0.783 Y2.0154 I-0.003 J0.0
G1 X0.773 Y2.0216
G1 X0.7644 Y2.0268
G1 Y2.0446
G1 Y2.0609
G1 X0.8456
G1 X0.9268
G1 X0.925 Y1.9866
G1 X0.9232 Y1.9092
G3 X0.9262 Y1.9062 I0.003 J-0.0001
G1 X0.9511
G1 X0.9761
G3 X0.9791 Y1.909 I0.0 J0.003
G1 X0.9823 Y1.9533
G1 X0.9854 Y1.9976
G3 Y1.9985 I-0.003 J0.0002
G0 Z0.125
G0 X0.8787 Y2.0018
G0 Z0.0745
G1 F20.0 Z-0.003
G1 F40.0 X0.8792 Y2.0183
G3 X0.8768 Y2.0213 I-0.003 J0.0001
G1 X0.8583 Y2.0251
G1 X0.8398 Y2.0288
G3 X0.8371 Y2.028 I-0.0006 J-0.0029
G1 X0.8275 Y2.0184
G1 X0.818 Y2.0089
G3 X0.8171 Y2.0066 I0.0021 J-0.0021
G1 X0.8241 Y1.8954
G1 X0.8312 Y1.7842
G3 X0.8341 Y1.7814 I0.003 J0.0002
G1 X0.8602 Y1.781
G1 X0.8852 Y1.7807
G1 X0.9038 Y1.7667
G3 X0.9321 Y1.7516 I0.0588 J0.0761
G3 X0.9343 Y1.7517 I0.001 J0.0028
G3 X0.9632 Y1.7722 I-0.0386 J0.0849
G3 X0.9839 Y1.8034 I-0.0458 J0.053
G3 Y1.8054 I-0.0029 J0.0009
G3 X0.9633 Y1.8364 I-0.083 J-0.0329
G3 X0.9342 Y1.857 I-0.0586 J-0.0516
G3 X0.9323 Y1.8571 I-0.0011 J-0.0028
G3 X0.9037 Y1.8419 I0.0206 J-0.0729
G2 X0.8777 Y1.8276 I-0.0613 J0.0805
G1 X0.8734 Y1.8274
G1 X0.8763 Y1.9212
G1 X0.8787 Y2.0018
G0 Z0.125
G0 X0.6845
G0 Z0.0745
G1 F20.0 Z-0.003
G1 F40.0 Y2.01
G3 X0.6837 Y2.0121 I-0.003 J0.0
G1 X0.6744 Y2.0216
G1 X0.6658 Y2.0303
G1 X0.6627 Y2.0692
G1 X0.6596 Y2.1091
G3 X0.6568 Y2.1119 I-0.003 J-0.0002
G1 X0.6093 Y2.1149
G1 X0.5647 Y2.1178
G1 Y2.1573
G1 Y2.1985
G1 X0.5744 Y2.2082
G1 X0.585 Y2.2188
G3 X0.5859 Y2.2211 I-0.0021 J0.0021
G1 X0.5828 Y2.2699
G1 X0.5797 Y2.3187
G3 X0.5767 Y2.3216 I-0.003 J-0.0002
G1 X0.5517
G1 X0.5268
G3 X0.5238 Y2.3185 I0.0 J-0.003
G1 X0.5269 Y2.2161
G1 X0.53 Y2.1169
G1 X0.4975
G1 X0.4649
G1 Y2.1568
G1 Y2.1985
G1 X0.4746 Y2.2082
G1 X0.4852 Y2.2188
G3 X0.486 Y2.2211 I-0.0021 J0.0021
G1 X0.4829 Y2.2699
G1 X0.4798 Y2.3187
G3 X0.4769 Y2.3216 I-0.003 J-0.0002
G1 X0.4519
G1 X0.4269
G3 X0.4239 Y2.3185 I0.0 J-0.003
G1 X0.4271 Y2.2161
G1 X0.4301 Y2.1169
G1 X0.3577
G1 X0.2851
G1 Y2.2986
G1 Y2.4803
G1 X0.6061
G1 X0.9283
G1 X0.9336 Y2.4717
G1 X0.9398 Y2.4618
G3 X0.9423 Y2.4603 I0.0026 J0.0016
G1 X1.0063
G1 X1.0703
G3 X1.0729 Y2.4619 I0.0 J0.003
G1 X1.0832 Y2.4811
G3 X1.0938 Y2.5062 I-0.0703 J0.0447
G3 X1.0936 Y2.5082 I-0.0029 J0.0007
G3 X1.0773 Y2.5297 I-0.0617 J-0.0299
G1 X1.0617 Y2.5453
G3 X1.0595 Y2.5462 I-0.0021 J-0.0021
G1 X1.0193
G1 X0.9791
G3 X0.9778 Y2.5459 I0.0 J-0.003
G1 X0.9464 Y2.531
G1 X0.9155 Y2.5164
G1 X0.5867 Y2.5139
G1 X0.2572 Y2.5113
G3 X0.2542 Y2.5083 I0.0 J-0.003
G1 Y2.2986
G1 Y2.0889
G3 X0.2571 Y2.0859 I0.003 J0.0
G1 X0.4444 Y2.0832
G1 X0.6285 Y2.0805
G1 X0.6261 Y1.9964
G1 X0.6236 Y1.9093
G3 X0.6262 Y1.9062 I0.003 J-0.0001
G1 X0.6466 Y1.9033
G1 X0.667 Y1.9004
G3 X0.6695 Y1.9012 I0.0004 J0.003
G1 X0.6766 Y1.9083
G1 X0.6837 Y1.9154
G3 X0.6845 Y1.9175 I-0.0021 J0.0021
G1 Y1.9638
G1 Y2.0018
G0 Z0.125
G0 X0.5797
G0 Z0.0745
G1 F20.0 Z-0.003
G1 F40.0 Y2.019
G3 X0.5767 Y2.022 I-0.003 J0.0
G1 X0.5517
G1 X0.5268
G3 X0.5238 Y2.0194 I0.0 J-0.003
G1 X0.5206 Y1.997
G1 X0.5178 Y1.9771
G1 X0.5018
G1 X0.4858
G1 X0.483 Y1.997
G1 X0.4798 Y2.0194
G3 X0.4769 Y2.022 I-0.003 J-0.0004
G1 X0.4519
G1 X0.4269
G3 X0.4239 Y2.0192 I0.0 J-0.003
G1 X0.421 Y1.9737
G1 X0.4181 Y1.9301
G1 X0.378 Y1.9155
G1 X0.336 Y1.9003
G3 X0.3341 Y1.8977 I0.001 J-0.0028
G1 X0.3309 Y1.8548
G1 X0.3279 Y1.8127
G1 X0.3128 Y1.7897
G1 X0.2973 Y1.766
G3 Y1.7627 I0.0025 J-0.0016
G1 X0.3134 Y1.7381
G1 X0.3291 Y1.7143
G1 Y1.6745
G1 Y1.6348
G1 X0.3134 Y1.6109
G1 X0.2973 Y1.5863
G3 Y1.583 I0.0025 J-0.0016
G1 X0.3134 Y1.5584
G1 X0.3291 Y1.5345
G1 Y1.5001
G1 Y1.4648
G3 X0.3321 Y1.4618 I0.003 J0.0
G1 X0.6012
G1 X0.8674
G1 X0.8703 Y1.4073
G1 X0.8733 Y1.3499
G3 X0.8758 Y1.347 I0.003 J0.0002
G1 X0.9002 Y1.3436
G1 X0.9246 Y1.3402
G3 X0.9275 Y1.3414 I0.0004 J0.003
G1 X0.9405 Y1.3592
G1 X0.9536 Y1.377
G3 X0.9541 Y1.3788 I-0.0024 J0.0018
G1 Y1.4218
G1 Y1.4618
G1 X1.051
G1 X1.1478
G1 Y1.3251
G1 Y1.1883
G1 X1.1336 Y1.1886
G2 X1.0983 Y1.203 I0.0134 J0.0835
G3 X1.07 Y1.2181 I-0.059 J-0.0764
G3 X1.0678 Y1.218 I-0.001 J-0.0028
G3 X1.0389 Y1.1974 I0.0385 J-0.0847
G3 X1.0182 Y1.1662 I0.0458 J-0.053
G3 Y1.1642 I0.0029 J-0.0009
G3 X1.0388 Y1.1333 I0.0828 J0.0328
G3 X1.0676 Y1.1126 I0.0574 J0.0495
G3 X1.0697 Y1.1125 I0.0011 J0.0028
G3 X1.0985 Y1.1271 I-0.0335 J0.102
G1 X1.1181 Y1.1409
G1 X1.1517 Y1.1441
G1 X1.1861 Y1.1473
G3 X1.1888 Y1.1503 I-0.0003 J0.003
G1 X1.1915 Y1.3874
G1 X1.1941 Y1.6216
G1 X1.2305
G1 X1.2699
G3 X1.2726 Y1.6232 I0.0 J0.003
G1 X1.2829 Y1.6424
G3 X1.2935 Y1.6675 I-0.0701 J0.0446
G3 X1.2933 Y1.6695 I-0.0029 J0.0007
G3 X1.277 Y1.691 I-0.0617 J-0.0299
G1 X1.2614 Y1.7066
G3 X1.2592 Y1.7075 I-0.0021 J-0.0021
G1 X1.2207
G1 X1.1821
G3 X1.181 Y1.7073 I0.0 J-0.003
G1 X1.1554 Y1.6975
G1 X1.1298 Y1.6878
G3 X1.1279 Y1.685 I0.0011 J-0.0028
G1 Y1.6604
G1 Y1.6358
G3 X1.1293 Y1.6332 I0.003 J0.0
G1 X1.1393 Y1.627
G1 X1.1478 Y1.6218
G1 Y1.5641
G1 Y1.5078
G1 X0.7614
G1 X0.375
G1 Y1.5199
G2 X0.3906 Y1.5583 I0.083 J-0.0113
G3 Y1.5584 I-0.0024 J0.0018
G1 X0.4068 Y1.583
G3 Y1.5863 I-0.0025 J0.0016
G1 X0.3906 Y1.6109
G1 X0.375 Y1.6348
G1 Y1.6745
G1 Y1.7143
G1 X0.3906 Y1.7381
G1 X0.4068 Y1.7627
G3 Y1.766 I-0.0025 J0.0016
G1 X0.3906 Y1.7906
G1 X0.375 Y1.8145
G1 Y1.8391
G1 Y1.8625
G1 X0.4281 Y1.886
G1 X0.4831 Y1.9103
G3 X0.4848 Y1.9131 I-0.0012 J0.0027
G1 Y1.9286
G1 Y1.9411
G1 X0.5007
G1 X0.5171
G1 X0.522 Y1.9226
G1 X0.5274 Y1.9018
G3 X0.5307 Y1.8996 I0.0029 J0.0008
G1 X0.5539 Y1.9029
G1 X0.5771 Y1.9062
G3 X0.5797 Y1.9092 I-0.0004 J0.003
G1 Y1.9641
G1 Y2.0018
G0 Z0.125
G0 X0.626 Y2.2058
G0 Z0.0745
G1 F20.0 Z-0.003
G3 F40.0 X0.6262 Y2.2057 I0.0007 J0.0029
G1 X0.6466 Y2.2028
G1 X0.667 Y2.1999
G3 X0.6695 Y2.2008 I0.0004 J0.003
G1 X0.6766 Y2.2078
G1 X0.6837 Y2.2149
G3 X0.6845 Y2.217 I-0.0021 J0.0021
G1 Y2.2633
G1 Y2.3096
G3 X0.6837 Y2.3117 I-0.003 J0.0
G1 X0.6747 Y2.3209
G2 X0.6628 Y2.3586 I0.0667 J0.0417
G3 Y2.3588 I-0.003 J-0.0002
G1 X0.6596 Y2.3888
G3 X0.6567 Y2.3914 I-0.003 J-0.0003
G1 X0.5343 Y2.3942
G1 X0.415 Y2.397
G1 Y2.4034
G3 X0.4147 Y2.4046 I-0.003 J0.0
G3 X0.3933 Y2.4261 I-0.0386 J-0.0171
G1 X0.3734 Y2.4367
G3 X0.3706 I-0.0014 J-0.0026
G1 X0.3518 Y2.4267
G1 Y2.4266
G3 X0.3256 Y2.3993 I0.0307 J-0.0556
G3 X0.3255 Y2.3991 I0.0027 J-0.0013
G1 X0.3194 Y2.3831
G3 X0.3195 Y2.3806 I0.0028 J-0.0011
G1 X0.3292 Y2.3625
G3 X0.3293 Y2.3624 I0.0026 J0.0014
G3 X0.3568 Y2.3368 I0.0579 J0.0347
G3 X0.3571 Y2.3367 I0.0013 J0.0027
G1 X0.3738 Y2.3303
G3 X0.3765 Y2.3306 I0.0011 J0.0028
G1 X0.3997 Y2.3458
G1 X0.4221 Y2.3605
G1 X0.5258
G1 X0.6272
G1 X0.6255 Y2.2862
G1 X0.6236 Y2.2088
G3 X0.626 Y2.2058 I0.003 J-0.0001
G0 Z0.125
G0 X0.9232 Y2.2087
G0 Z0.0745
G1 F20.0 Z-0.003
G3 F40.0 X0.9257 Y2.2058 I0.003 J0.0
G1 X0.946 Y2.2029
G3 X0.9461 Y2.2028 I0.0006 J0.0029
G1 X0.9665 Y2.1999
G3 X0.9691 Y2.2008 I0.0004 J0.003
G1 X0.9761 Y2.2078
G1 X0.9832 Y2.2149
G3 X0.9841 Y2.217 I-0.0021 J0.0021
G1 Y2.2647
G1 Y2.3124
G3 X0.9827 Y2.3149 I-0.003 J0.0
G1 X0.9727 Y2.3211
G1 X0.9641 Y2.3264
G1 Y2.3541
G1 Y2.3805
G1 X1.0254
G1 X1.0881
G1 X1.0934 Y2.3719
G1 X1.0995 Y2.3619
G3 X1.1021 Y2.3605 I0.0026 J0.0016
G1 X1.1561
G1 X1.21
G3 X1.2127 Y2.3621 I0.0 J0.003
G1 X1.223 Y2.3813
G3 X1.2336 Y2.4063 I-0.0703 J0.0447
G3 X1.2334 Y2.4084 I-0.0029 J0.0007
G3 X1.2171 Y2.4299 I-0.0616 J-0.0299
G1 X1.2015 Y2.4455
G3 X1.1993 Y2.4464 I-0.0021 J-0.0021
G1 X1.1676 Y2.4463
G1 X1.1359 Y2.4462
G3 X1.1345 Y2.4459 I0.0 J-0.003
G1 X1.1059 Y2.431
G1 X1.0779 Y2.4164
G1 X1.0096
G1 X0.9405
G3 X0.9377 Y2.4145 I0.0 J-0.003
G1 X0.9331 Y2.402
G3 X0.9329 Y2.4012 I0.0028 J-0.001
G1 X0.9279 Y2.3502
G3 X0.9257 Y2.2986 I0.3797 J-0.0418
G1 X0.9232 Y2.2088
G3 Y2.2087 I0.003 J-0.0001
G0 Z0.125
G0 X0.6579 Y1.6359
G0 Z0.0745
G1 F20.0 Z-0.003
G3 F40.0 X0.6546 Y1.6374 I-0.0328 J-0.0709
G3 X0.6527 Y1.6375 I-0.0011 J-0.0028
G3 X0.6242 Y1.6223 I0.0206 J-0.073
G1 X0.6056 Y1.6083
G1 X0.5638 Y1.6079
G1 X0.522 Y1.6076
G1 X0.4995 Y1.6223
G1 X0.4763 Y1.6375
G3 X0.4736 Y1.6378 I-0.0016 J-0.0025
G1 X0.4569 Y1.6314
G3 X0.4568 I0.0011 J-0.0028
G3 X0.429 Y1.6056 I0.0247 J-0.0544
G1 X0.4194 Y1.5875
G3 X0.4192 Y1.585 I0.0026 J-0.0014
G1 X0.4253 Y1.5691
G3 X0.4255 Y1.5688 I0.0028 J0.0011
G3 X0.4523 Y1.5411 I0.0578 J0.0292
G1 X0.4718 Y1.5307
G3 X0.4748 Y1.5308 I0.0014 J0.0026
G1 X0.4988 Y1.5465
G1 X0.522 Y1.5617
G1 X0.5638 Y1.5614
G1 X0.6056 Y1.5611
G1 X0.6242 Y1.547
G3 X0.6525 Y1.5319 I0.0589 J0.0763
G3 X0.6547 Y1.532 I0.001 J0.0028
G3 X0.6836 Y1.5525 I-0.0385 J0.0848
G3 X0.7044 Y1.5837 I-0.0458 J0.053
G3 X0.7043 Y1.5858 I-0.0029 J0.0009
G3 X0.6837 Y1.6167 I-0.0831 J-0.033
G3 X0.6579 Y1.6359 I-0.0586 J-0.0517
G0 Z0.125
G0 X0.5283 Y1.4304
G0 Z0.0745
G1 F20.0 Z-0.003
G3 F40.0 X0.5127 Y1.4377 I-0.0374 J-0.0593
G3 X0.5109 I-0.0009 J-0.0029
G3 X0.4822 Y1.4191 I0.0204 J-0.0629
G1 X0.4663 Y1.403
G1 X0.442 Y1.4167
G1 X0.4157 Y1.4316
G3 X0.4135 Y1.4319 I-0.0015 J-0.0026
G1 X0.3749 Y1.4224
G1 X0.3363 Y1.4128
G3 X0.3341 Y1.4099 I0.0007 J-0.0029
G1 Y1.38
G1 Y1.35
G3 X0.3369 Y1.347 I0.003 J0.0
G1 X0.3901 Y1.344
G1 X0.4434 Y1.3409
G3 X0.4454 Y1.3416 I0.0002 J0.003
G1 X0.4571 Y1.3513
G1 X0.467 Y1.3595
G1 X0.4845 Y1.3468
G3 X0.5129 Y1.3322 I0.0505 J0.0631
G3 X0.515 Y1.3323 I0.0008 J0.0029
G3 X0.5438 Y1.3528 I-0.0385 J0.0848
G3 X0.5646 Y1.384 I-0.0458 J0.053
G3 X0.5645 Y1.3861 I-0.0029 J0.0009
G3 X0.5439 Y1.417 I-0.083 J-0.0329
G3 X0.5283 Y1.4304 I-0.053 J-0.0459
G0 Z0.125
G0 X0.512 Y1.2981
G0 Z0.0745
G1 F20.0 Z-0.003
G3 F40.0 X0.5116 I-0.0004 J-0.003
G1 X0.4928
G2 X0.4454 Y1.3147 I0.0175 J0.1259
G1 X0.4453
G1 X0.4157 Y1.3317
G3 X0.4135 Y1.332 I-0.0015 J-0.0026
G1 X0.3749 Y1.3225
G1 X0.3363 Y1.313
G3 X0.3341 Y1.3101 I0.0007 J-0.0029
G1 Y1.2801
G1 Y1.2502
G3 X0.3369 Y1.2472 I0.003 J0.0
G1 X0.3907 Y1.2441
G1 X0.4446 Y1.241
G3 X0.4469 Y1.2419 I0.0002 J0.003
G1 X0.4573 Y1.2524
G2 X0.4832 Y1.2621 I0.0279 J-0.0347
G1 X0.4983
G1 X0.5035 Y1.2457
G1 X0.5091 Y1.2281
G1 X0.5035 Y1.2135
G1 X0.4975 Y1.1979
G3 X0.4982 Y1.1947 I0.0028 J-0.0011
G1 X0.5189 Y1.174
G3 X0.5506 Y1.1525 I0.0649 J0.062
G3 X0.5528 I0.0011 J0.0028
G3 X0.5838 Y1.1731 I-0.033 J0.083
G3 X0.6045 Y1.2043 I-0.0458 J0.053
G3 Y1.2063 I-0.0029 J0.0009
G3 X0.5838 Y1.2373 I-0.083 J-0.0329
G3 X0.5501 Y1.258 I-0.0583 J-0.0572
G3 X0.5491 Y1.2582 I-0.0009 J-0.0029
G1 X0.5382
G1 X0.5266 Y1.2767
G1 X0.5142 Y1.2967
G3 X0.512 Y1.2981 I-0.0025 J-0.0016
G0 Z0.125
G0 X0.4633 Y1.2083
G0 Z0.0745
G1 F20.0 Z-0.003
G3 F40.0 X0.4631 Y1.2084 I-0.0014 J-0.0026
G1 X0.4375 Y1.2201
G1 X0.4119 Y1.2317
G3 X0.4099 Y1.2319 I-0.0012 J-0.0027
G1 X0.369 Y1.221
G1 X0.3291 Y1.2103
G1 X0.3067 Y1.2205
G1 X0.2851 Y1.2303
G1 Y1.5962
G1 Y1.9611
G1 X0.2918
G3 X0.293 Y1.9614 I0.0 J0.003
G3 X0.3148 Y1.9827 I-0.019 J0.0411
G1 X0.3254 Y2.0026
G3 Y2.0054 I-0.0026 J0.0014
G1 X0.3154 Y2.0242
G3 X0.2887 Y2.0502 I-0.0517 J-0.0264
G3 X0.2885 Y2.0503 I-0.0013 J-0.0027
G1 X0.2732 Y2.0561
G3 X0.2711 I-0.0011 J-0.0028
G1 X0.2558 Y2.0503
G3 X0.2555 Y2.0501 I0.0011 J-0.0028
G3 X0.2286 Y2.0236 I0.0339 J-0.0612
G1 X0.2182 Y2.0041
G3 X0.2183 Y2.001 I0.0026 J-0.0014
G1 X0.234 Y1.9771
G1 X0.2492 Y1.9539
G1 Y1.5845
G1 Y1.2143
G3 X0.2508 Y1.2117 I0.003 J0.0
G1 X0.2822 Y1.1946
G2 X0.3286 Y1.1607 I-0.1043 J-0.1914
G1 X0.3443 Y1.1433
G3 X0.3465 Y1.1423 I0.0022 J0.002
G1 X0.3975
G1 X0.4486
G3 X0.4507 Y1.1432 I0.0 J0.003
G1 X0.4573 Y1.1499
G3 X0.4579 Y1.1506 I-0.0021 J0.0021
G3 X0.4649 Y1.1822 I-0.0535 J0.0284
G1 Y1.2057
G3 X0.4633 Y1.2083 I-0.003 J0.0
G0 Z0.125
G0 X0.4521 Y1.0585
G0 Z0.0745
G1 F20.0 Z-0.003
G3 F40.0 X0.4508 Y1.0583 I-0.0002 J-0.003
G3 X0.4198 Y1.0376 I0.033 J-0.083
G1 X0.4007 Y1.0185
G1 X0.3617
G1 X0.3215
G3 X0.3186 Y1.0164 I0.0 J-0.003
G1 X0.3131 Y0.999
G2 X0.2933 Y0.9548 I-0.2543 J0.0878
G1 X0.2932 Y0.9547
G1 X0.2786 Y0.9275
G3 Y0.9246 I0.0026 J-0.0014
G1 X0.2888 Y0.9056
G3 Y0.9055 I0.0026 J0.0014
G3 X0.3161 Y0.8793 I0.06 J0.0351
G3 X0.3165 Y0.8791 I0.0014 J0.0026
G1 X0.3324 Y0.873
G3 X0.3349 Y0.8732 I0.0011 J0.0028
G1 X0.353 Y0.8828
G1 X0.3531 Y0.8829
G3 X0.3785 Y0.9098 I-0.0312 J0.0549
G3 X0.3786 Y0.9101 I-0.0027 J0.0013
G1 X0.3847 Y0.926
G3 X0.3846 Y0.9285 I-0.0028 J0.0011
G1 X0.3743 Y0.9477
G3 X0.3528 Y0.9684 I-0.0367 J-0.0166
G3 X0.3517 Y0.9686 I-0.0011 J-0.0028
G2 X0.3451 Y0.9755 I0.0001 J0.0068
G1 Y0.9756
G1 Y0.9826
G1 X0.3764
G1 X0.4091
G1 X0.4163 Y0.9715
G1 X0.4239 Y0.9597
G1 Y0.8857
G1 Y0.8108
G3 X0.4265 Y0.8079 I0.003 J0.0
G1 X0.4497 Y0.8046
G1 X0.4729 Y0.8013
G3 X0.4762 Y0.8035 I0.0004 J0.003
G1 X0.4816 Y0.8243
G1 X0.4865 Y0.8428
G1 X0.5018
G1 X0.5171
G1 X0.5218 Y0.8251
G1 X0.527 Y0.8051
G3 X0.5299 Y0.8028 I0.0029 J0.0008
G1 X0.5511
G1 X0.5723
G3 X0.5751 Y0.8048 I0.0 J0.003
G1 X0.5804 Y0.8186
G3 X0.5806 Y0.8192 I-0.0028 J0.0011
G3 X0.5828 Y0.8773 I-0.2359 J0.0381
G1 X0.5797 Y0.9209
G3 X0.5771 Y0.9236 I-0.003 J-0.0002
G1 X0.5539 Y0.9269
G1 X0.5307 Y0.9302
G3 X0.5274 Y0.928 I-0.0004 J-0.003
G1 X0.522 Y0.9072
G1 X0.5171 Y0.8887
G1 X0.5032 Y0.8888
G1 X0.4888 Y0.8889
G1 X0.4771 Y0.914
G3 X0.477 Y0.9141 I-0.0027 J-0.0013
G2 X0.465 Y0.9474 I0.1165 J0.0609
G2 X0.4838 Y0.9733 I0.0619 J-0.0251
G3 X0.5047 Y1.0046 I-0.0457 J0.0531
G3 X0.5046 Y1.0066 I-0.0029 J0.0009
G3 X0.484 Y1.0376 I-0.083 J-0.033
G3 X0.4528 Y1.0583 I-0.053 J-0.0458
G3 X0.4521 Y1.0585 I-0.0009 J-0.0029
G0 Z0.125
G0 X0.5981 Y1.0065
G0 Z0.0745
G1 F20.0 Z-0.003
G3 F40.0 X0.5984 Y1.0041 I0.0028 J-0.001
G1 X0.6112 Y0.9816
G1 X0.6236 Y0.9598
G1 Y0.8857
G1 Y0.8108
G3 X0.6262 Y0.8079 I0.003 J0.0
G1 X0.6466 Y0.8049
G1 X0.667 Y0.802
G3 X0.6695 Y0.8029 I0.0004 J0.003
G1 X0.6766 Y0.81
G1 X0.6837 Y0.817
G3 X0.6845 Y0.8192 I-0.0021 J0.0021
G1 Y0.8668
G1 Y0.9145
G3 X0.6831 Y0.917 I-0.003 J0.0
G1 X0.6731 Y0.9232
G1 X0.6646 Y0.9285
G1 Y0.9462
G1 Y0.9626
G1 X0.6712
G3 X0.6723 Y0.9628 I0.0 J0.003
G3 X0.6938 Y0.9835 I-0.0153 J0.0374
G1 X0.7041 Y1.0027
G3 X0.7042 Y1.0052 I-0.0026 J0.0014
G1 X0.6981 Y1.0211
G3 X0.698 Y1.0214 I-0.0028 J-0.0011
G3 X0.6726 Y1.0483 I-0.0554 J-0.0268
G1 X0.6725 Y1.0484
G1 X0.6545 Y1.058
G3 X0.652 Y1.0582 I-0.0014 J-0.0026
G1 X0.636 Y1.0521
G3 X0.6357 Y1.0519 I0.0011 J-0.0028
G3 X0.6084 Y1.0258 I0.029 J-0.0576
G1 Y1.0257
G1 X0.5983 Y1.007
G3 X0.5981 Y1.0065 I0.0026 J-0.0014
G0 Z0.125
G0 X0.8262 Y1.0031
G0 Z0.0745
G1 F20.0 Z-0.003
G1 F40.0 X0.8233 Y0.8109
G3 X0.8259 Y0.8079 I0.003 J0.0
G1 X0.8463 Y0.8049
G1 X0.8667 Y0.802
G3 X0.8692 Y0.8029 I0.0004 J0.003
G1 X0.8763 Y0.81
G1 X0.8834 Y0.817
G3 X0.8842 Y0.8192 I-0.0021 J0.0021
G1 Y0.8668
G1 Y0.9145
G3 X0.8828 Y0.917 I-0.003 J0.0
G1 X0.8728 Y0.9232
G1 X0.8643 Y0.9285
G1 Y1.106
G1 Y1.2821
G1 X0.9315
G1 X1.0009
G1 X1.0233 Y1.2674
G1 X1.0465 Y1.2522
G3 X1.0492 Y1.2519 I0.0016 J0.0025
G1 X1.0659 Y1.2583
G3 X1.0661 Y1.2584 I-0.0011 J0.0028
G3 X1.0942 Y1.2848 I-0.0267 J0.0565
G1 Y1.2849
G1 X1.1043 Y1.3037
G3 Y1.3065 I-0.0026 J0.0014
G1 X1.0942 Y1.3253
G3 X1.0669 Y1.3515 I-0.0555 J-0.0307
G3 X1.0666 Y1.3516 I-0.0013 J-0.0027
G1 X1.0506 Y1.3577
G3 X1.0481 Y1.3576 I-0.0011 J-0.0028
G1 X1.029 Y1.3473
G3 X1.0083 Y1.3258 I0.0166 J-0.0367
G3 X1.008 Y1.3247 I0.0028 J-0.0011
G1 Y1.3181
G1 X0.9268
G1 X0.8425
G3 X0.8399 Y1.3166 I0.0 J-0.003
G1 X0.8355 Y1.3091
G3 X0.8351 Y1.3079 I0.0026 J-0.0015
G3 X0.8314 Y1.2447 I0.7565 J-0.0764
G3 X0.8287 Y1.1502 I2.3636 J-0.1126
G3 X0.8278 Y1.1027 I0.435 J-0.0326
G1 X0.827 Y1.0555
G1 X0.8262 Y1.0031
G0 Z0.125
G0 X0.8245 Y0.7549
G0 Z0.0745
G1 F20.0 Z-0.003
G1 F40.0 X0.5858 Y0.7565
G1 X0.2173 Y0.7591
G1 X0.2046 Y0.7828
G1 X0.1919 Y0.8066
G1 X0.2088 Y0.8352
G1 X0.2265 Y0.8652
G3 X0.2264 Y0.8683 I-0.0026 J0.0015
G1 X0.2104 Y0.8928
G1 X0.1954 Y0.9157
G1 X0.2103 Y0.9383
G1 X0.2262 Y0.9626
G3 X0.2263 Y0.9657 I-0.0025 J0.0016
G1 X0.2159 Y0.9851
G1 Y0.9852
G3 X0.1882 Y1.012 I-0.058 J-0.0321
G3 X0.1879 Y1.0121 I-0.0014 J-0.0027
G1 X0.1719 Y1.0183
G3 X0.1695 Y1.0181 I-0.0011 J-0.0028
G1 X0.1514 Y1.0084
G3 X0.1513 I0.0014 J-0.0026
G3 X0.1257 Y0.9808 I0.0347 J-0.0579
G3 X0.1255 Y0.9805 I0.0027 J-0.0013
G1 X0.1191 Y0.9639
G3 X0.1194 Y0.9611 I0.0028 J-0.0011
G1 X0.1349 Y0.9376
G1 X0.1492 Y0.9157
G1 X0.1342 Y0.8928
G1 X0.1182 Y0.8683
G3 X0.1181 Y0.8652 I0.0025 J-0.0016
G1 X0.1361 Y0.8347
G1 X0.1532 Y0.8058
G1 X0.1369 Y0.7783
G1 X0.1197 Y0.7493
G3 X0.1195 Y0.7467 I0.0026 J-0.0015
G1 X0.1257 Y0.7305
G3 X0.1259 Y0.7302 I0.0028 J0.0011
G3 X0.1527 Y0.7024 I0.0618 J0.0328
G1 X0.1528
G1 X0.1722 Y0.6919
G3 X0.1753 Y0.6921 I0.0014 J0.0026
G1 X0.1992 Y0.7078
G1 X0.2224 Y0.723
G1 X0.5771
G1 X0.9296
G1 X0.9265 Y0.6187
G1 X0.9232 Y0.5114
G3 X0.9257 Y0.5083 I0.003 J-0.0001
G1 X0.9461 Y0.5054
G1 X0.9665 Y0.5025
G3 X0.9691 Y0.5033 I0.0004 J0.003
G1 X0.9761 Y0.5104
G1 X0.9832 Y0.5175
G3 X0.9841 Y0.5196 I-0.0021 J0.0021
G1 Y0.5659
G1 Y0.6121
G3 X0.9832 Y0.6142 I-0.003 J0.0
G1 X0.9738 Y0.6237
G1 X0.9652 Y0.6324
G1 X0.9622 Y0.6912
G1 X0.9591 Y0.7511
G3 X0.9561 Y0.7539 I-0.003 J-0.0002
G1 X0.8245 Y0.7549
G0 Z0.125
G0 X0.8263 Y0.6241
G0 Z0.0745
G1 F20.0 Z-0.003
G3 F40.0 X0.8233 Y0.6213 I0.0 J-0.003
G1 X0.8203 Y0.5738
G1 X0.8172 Y0.5262
G3 X0.8182 Y0.5238 I0.003 J-0.0002
G1 X0.8712 Y0.4744
G1 X0.9241 Y0.425
G3 X0.9262 Y0.4242 I0.002 J0.0022
G1 X1.026 Y0.4235
G1 X1.1249 Y0.4228
G1 X1.1434 Y0.4087
G3 X1.1718 Y0.3936 I0.0591 J0.0767
G3 X1.174 Y0.3937 I0.001 J0.0028
G3 X1.2028 Y0.4143 I-0.0385 J0.0848
G3 X1.2236 Y0.4455 I-0.0459 J0.053
G3 X1.2235 Y0.4475 I-0.0029 J0.0009
G3 X1.2029 Y0.4784 I-0.083 J-0.0329
G3 X1.1717 Y0.4992 I-0.053 J-0.0458
G3 X1.1697 Y0.4991 I-0.0009 J-0.0029
G3 X1.1387 Y0.4784 I0.0329 J-0.083
G1 X1.1196 Y0.4594
G1 X1.0279
G1 X0.9362
G1 X0.9108 Y0.4859
G1 X0.8853 Y0.5126
G1 X0.8823 Y0.5664
G1 X0.8792 Y0.6213
G3 X0.8762 Y0.6241 I-0.003 J-0.0002
G1 X0.8513
G1 X0.8263
G0 Z0.125
G0 X0.7794 Y0.6213
G0 Z0.0745
G1 F20.0 Z-0.003
G3 F40.0 X0.7764 Y0.6241 I-0.003 J-0.0002
G1 X0.7514
G1 X0.7265
G3 X0.7235 Y0.621 I0.0 J-0.003
G1 X0.7271 Y0.4937
G1 X0.7306 Y0.3695
G1 X0.7083
G3 X0.7082 I0.0 J-0.003
G3 X0.6556 Y0.3593 I0.0072 J-0.1785
G1 X0.6555
G1 X0.6292 Y0.3493
G3 X0.6273 Y0.3462 I0.0011 J-0.0028
G1 X0.6305 Y0.3187
G1 X0.6336 Y0.2913
G3 X0.6365 Y0.2886 I0.003 J0.0003
G1 X0.7419 Y0.2858
G1 X0.8472 Y0.283
G3 X0.8494 Y0.2839 I0.0001 J0.003
G1 X0.8564 Y0.2908
G3 X0.8569 Y0.2915 I-0.0021 J0.0021
G3 X0.8643 Y0.3235 I-0.055 J0.0294
G1 Y0.347
G3 X0.8625 Y0.3497 I-0.003 J0.0
G1 X0.8376 Y0.3611
G1 X0.8143 Y0.3716
G1 Y0.418
G1 Y0.4664
G3 X0.8135 Y0.4685 I-0.003 J0.0
G1 X0.796 Y0.4859
G1 X0.7794 Y0.5025
G1 Y0.5612
G1 Y0.6211
G3 Y0.6213 I-0.003 J0.0
G0 Z0.125
G0 X0.6861 Y0.6077
G0 Z0.0745
G1 F20.0 Z-0.003
G3 F40.0 X0.6854 Y0.6091 I-0.003 J-0.0004
G1 X0.6757 Y0.6209
G2 X0.6629 Y0.6614 I0.0924 J0.0513
G1 X0.6596 Y0.6914
G3 X0.6566 Y0.694 I-0.003 J-0.0003
G1 X0.4868
G1 X0.3171
G3 X0.3141 Y0.6912 I0.0 J-0.003
G1 X0.3111 Y0.6326
G1 X0.3081 Y0.5748
G1 X0.2934 Y0.5524
G1 X0.2782 Y0.5292
G3 X0.2781 Y0.5262 I0.0025 J-0.0016
G1 X0.2885 Y0.5067
G3 X0.3162 Y0.4799 I0.0579 J0.0321
G3 X0.3165 Y0.4797 I0.0014 J0.0027
G1 X0.3324 Y0.4736
G3 X0.3349 Y0.4738 I0.0011 J0.0028
G1 X0.353 Y0.4834
G1 X0.3531 Y0.4835
G3 X0.3785 Y0.5104 I-0.0312 J0.0549
G3 X0.3786 Y0.5107 I-0.0027 J0.0013
G1 X0.3847 Y0.5266
G3 X0.3846 Y0.5291 I-0.0028 J0.0011
G1 X0.3743 Y0.5483
G3 X0.3528 Y0.569 I-0.0367 J-0.0166
G3 X0.3517 Y0.5692 I-0.0011 J-0.0028
G1 X0.3451
G1 Y0.6161
G1 Y0.6631
G1 X0.4867
G1 X0.6281
G1 X0.6211 Y0.589
G3 X0.6137 Y0.4614 I1.0955 J-0.1273
G1 X0.6136 Y0.4114
G3 X0.6163 Y0.4085 I0.003 J0.0
G1 X0.6437 Y0.4053
G1 X0.671 Y0.4022
G3 X0.6741 Y0.4039 I0.0003 J0.003
G1 X0.6855 Y0.4288
G1 X0.6968 Y0.4537
G3 X0.697 Y0.4557 I-0.0027 J0.0012
G1 X0.6894 Y0.4839
G1 X0.6819 Y0.5116
G1 X0.684 Y0.5591
G1 X0.6861 Y0.6071
G3 Y0.6077 I-0.003 J0.0001
G0 Z0.125
G0 X0.581 Y0.601
G0 Z0.0745
G1 F20.0 Z-0.003
G1 F40.0 X0.5797 Y0.6213
G3 X0.5767 Y0.6241 I-0.003 J-0.0002
G1 X0.5517
G1 X0.5268
G3 X0.5238 Y0.6211 I0.0 J-0.003
G1 X0.5275 Y0.4214
G1 Y0.4213
G1 X0.53 Y0.3177
G1 X0.5319 Y0.2659
G3 X0.5356 Y0.2139 I0.882 J0.0366
G3 X0.536 Y0.2127 I0.003 J0.0003
G1 X0.5403 Y0.2052
G3 X0.5429 Y0.2037 I0.0026 J0.0015
G1 X0.8752
G1 X1.2074
G3 X1.2095 Y0.2046 I0.0 J0.003
G1 X1.2162 Y0.2113
G3 X1.2168 Y0.2122 I-0.0021 J0.0021
G3 X1.2237 Y0.2524 I-0.0763 J0.0338
G1 Y0.2824
G1 X1.2375 Y0.2877
G1 X1.2519 Y0.2932
G1 X1.2692 Y0.284
G1 X1.2878 Y0.2741
G3 X1.2903 Y0.2739 I0.0014 J0.0026
G1 X1.3062 Y0.28
G3 X1.3065 Y0.2802 I-0.0011 J0.0028
G3 X1.3338 Y0.3063 I-0.029 J0.0576
G1 Y0.3064
G1 X1.3439 Y0.3252
G3 Y0.328 I-0.0026 J0.0014
G1 X1.3338 Y0.3468
G3 X1.3065 Y0.373 I-0.0555 J-0.0306
G3 X1.3062 Y0.3731 I-0.0013 J-0.0027
G1 X1.2903 Y0.3792
G3 X1.2878 Y0.3791 I-0.0011 J-0.0028
G1 X1.2685 Y0.3688
G1 X1.2507 Y0.3592
G1 X1.2329 Y0.3688
G1 X1.2136 Y0.3791
G3 X1.2111 Y0.3792 I-0.0014 J-0.0026
G1 X1.1951 Y0.3731
G3 X1.1949 Y0.373 I0.0011 J-0.0028
G3 X1.1672 Y0.3461 I0.0292 J-0.0578
G1 X1.1568 Y0.3266
G3 X1.1569 Y0.3236 I0.0026 J-0.0014
G1 X1.1726 Y0.2996
G1 X1.1878 Y0.2764
G1 Y0.257
G1 Y0.2397
G1 X0.8762
G1 X0.5647
G1 Y0.3695
G1 Y0.5011
G1 X0.5744 Y0.5108
G1 X0.585 Y0.5214
G3 X0.5859 Y0.5237 I-0.0021 J0.0021
G1 X0.5828 Y0.5725
G1 X0.581 Y0.601
G0 Z0.125
G0 X0.4818 Y0.5939
G0 Z0.0745
G1 F20.0 Z-0.003
G1 F40.0 X0.4798 Y0.6213
G3 X0.4769 Y0.6241 I-0.003 J-0.0002
G1 X0.4519
G1 X0.4269
G3 X0.4239 Y0.6211 I0.0 J-0.003
G1 Y0.5512
G1 Y0.4822
G1 X0.4177 Y0.4726
G3 X0.4173 Y0.4716 I0.0025 J-0.0016
G3 X0.4074 Y0.3928 I0.4542 J-0.0969
G1 X0.4043 Y0.3248
G3 X0.4056 Y0.3223 I0.003 J-0.0001
G1 X0.4247 Y0.3082
G3 X0.4529 Y0.2937 I0.0553 J0.0729
G3 X0.4551 Y0.2939 I0.0009 J0.0029
G3 X0.4848 Y0.3152 I-0.0448 J0.0935
G1 X0.5055 Y0.336
G3 X0.5062 Y0.3392 I-0.0021 J0.0021
G1 X0.5005 Y0.354
G2 X0.4948 Y0.4115 I0.2461 J0.0532
G1 Y0.4549
G3 X0.494 Y0.4571 I-0.003 J0.0
G1 X0.4776 Y0.4734
G1 X0.4629 Y0.4881
G1 X0.4738 Y0.5086
G1 X0.4858 Y0.531
G3 X0.4862 Y0.5327 I-0.0026 J0.0014
G1 X0.483 Y0.577
G1 X0.4818 Y0.5939
G0 Z0.125
G0 X2.5745 Y0.636
G0 Z0.0745
G1 F20.0 Z-0.003
G3 F40.0 X2.5775 Y0.6331 I0.003 J0.0001
G1 X2.8277
G1 X3.0779
G3 X3.0809 Y0.6361 I0.0 J0.003
G1 Y0.691
G1 Y0.7459
G3 X3.0779 Y0.7489 I-0.003 J0.0
G1 X3.0679
G1 X3.0579
G3 X3.0549 Y0.7459 I0.0 J-0.003
G1 Y0.701
G1 Y0.6591
G1 X2.8239
G1 X2.5898
G3 X2.5873 Y0.6576 I0.0 J-0.003
G1 X2.5811 Y0.6477
G1 X2.5749 Y0.6377
G3 X2.5745 Y0.636 I0.0026 J-0.0016
G0 Z0.125
G0 X2.5784 Y0.6731
G0 Z0.0745
G1 F20.0 Z-0.003
G3 F40.0 X2.5787 Y0.673 I0.0003 J0.003
G1 X2.6292
G1 X2.6797
G3 X2.6827 Y0.6763 I0.0 J0.003
G1 X2.6796 Y0.7137
G1 X2.6765 Y0.7512
G3 X2.6738 Y0.7539 I-0.003 J-0.0002
G1 X2.6363 Y0.757
G1 X2.6016 Y0.7599
G1 Y0.7665
G1 Y0.7729
G1 X2.6342
G1 X2.6697
G3 X2.6723 Y0.7775 I0.0 J0.003
G1 X2.6661 Y0.7874
G1 X2.6599 Y0.7974
G3 X2.6574 Y0.7989 I-0.0026 J-0.0016
G1 X2.618
G1 X2.5787
G3 X2.5757 Y0.7959 I0.0 J-0.003
G1 Y0.7659
G1 Y0.7359
G3 X2.5787 Y0.7329 I0.003 J0.0
G1 X2.6186
G1 X2.6556
G1 Y0.716
G1 Y0.699
G1 X2.6186
G1 X2.5787
G3 X2.5757 Y0.696 I0.0 J-0.003
G1 Y0.686
G1 Y0.676
G3 X2.5784 Y0.6731 I0.003 J0.0
G0 Z0.125
G0 X2.6955 Y0.676
G0 Z0.0745
G1 F20.0 Z-0.003
G3 F40.0 X2.6985 Y0.673 I0.003 J0.0001
G1 X2.7484
G1 X2.7983
G3 X2.8013 Y0.676 I0.0 J0.003
G1 Y0.7299
G1 Y0.7837
G3 X2.7994 Y0.7865 I-0.003 J0.0
G1 X2.7836 Y0.7926
G1 X2.7835
G3 X2.7528 Y0.7988 I-0.0376 J-0.1067
G3 X2.7526 Y0.7989 I-0.0002 J-0.003
G1 X2.7384
G3 X2.7354 Y0.7959 I0.0 J-0.003
G1 Y0.7859
G1 Y0.7759
G3 X2.7384 Y0.7729 I0.003 J0.0
G1 X2.7584
G1 X2.7754
G1 Y0.7359
G1 Y0.699
G1 X2.7484
G1 X2.7215
G1 Y0.7409
G1 Y0.7859
G3 X2.7185 Y0.7889 I-0.003 J0.0
G1 X2.7085
G1 X2.6985
G3 X2.6955 Y0.7859 I0.0 J-0.003
G1 Y0.731
G1 Y0.676
G0 Z0.125
G0 X2.8143
G0 Z0.0745
G1 F20.0 Z-0.003
G3 F40.0 X2.8173 Y0.673 I0.003 J0.0
G1 X2.8278
G1 X2.8383
G3 X2.8413 Y0.676 I0.0 J0.003
G1 Y0.706
G1 Y0.7329
G1 X2.8632
G1 X2.8882
G3 X2.8912 Y0.7359 I0.0 J0.003
G1 Y0.7459
G1 Y0.7559
G3 X2.8882 Y0.7589 I-0.003 J0.0
G1 X2.8632
G1 X2.8413
G1 Y0.7659
G1 Y0.7729
G1 X2.8732
G1 X2.9082
G3 X2.9112 Y0.7759 I0.0 J0.003
G1 Y0.7864
G1 Y0.797
G3 X2.908 Y0.8 I-0.003 J0.0
G1 X2.8655 Y0.7969
G1 X2.8231 Y0.7939
G3 X2.8203 Y0.791 I0.0002 J-0.003
G1 X2.8173 Y0.7336
G1 X2.8143 Y0.6762
G3 Y0.676 I0.003 J-0.0002
G0 Z0.125
G0 Y0.8128
G0 Z0.0745
G1 F20.0 Z-0.003
G1 F40.0 X2.8483
G1 X2.9182
G3 X2.9212 Y0.8158 I0.0 J0.003
G1 Y0.9307
G1 Y1.0455
G3 X2.9182 Y1.0485 I-0.003 J0.0
G1 X2.9082
G1 X2.8982
G3 X2.8952 Y1.0455 I0.0 J-0.003
G1 Y0.9406
G1 Y0.8388
G1 X2.8483
G1 X2.8013
G1 Y0.8608
G1 Y0.8857
G3 X2.7983 Y0.8887 I-0.003 J0.0
G1 X2.7884
G1 X2.7784
G3 X2.7754 Y0.8857 I0.0 J-0.003
G1 Y0.8508
G1 Y0.8158
G3 X2.7784 Y0.8128 I0.003 J0.0
G1 X2.8143
G0 Z0.125
G0 X2.7624 Y0.8157
G0 Z0.0745
G1 F20.0 Z-0.003
G3 F40.0 Y0.816 I-0.003 J0.0002
G1 X2.7594 Y0.8734
G1 X2.7564 Y0.9308
G3 X2.7536 Y0.9336 I-0.003 J-0.0002
G1 X2.7062 Y0.9367
G1 X2.6616 Y0.9396
G1 Y0.9462
G1 Y0.9526
G1 X2.709
G1 X2.7595
G3 X2.7625 Y0.9558 I0.0 J0.003
G1 X2.7594 Y1.0032
G1 X2.7564 Y1.0507
G3 X2.7534 Y1.0535 I-0.003 J-0.0002
G1 X2.6785
G1 X2.6036
G3 X2.6006 Y1.0506 I0.0 J-0.003
G1 X2.5977 Y0.9671
G1 X2.5948 Y0.8847
G1 X2.5812 Y0.8711
G3 X2.5658 Y0.8466 I0.0338 J-0.0383
G3 X2.5659 Y0.8448 I0.0029 J-0.0008
G3 X2.5822 Y0.8194 I0.0609 J0.0214
G3 X2.6077 Y0.803 I0.0424 J0.0377
G3 X2.6096 I0.0009 J0.0029
G3 X2.635 Y0.8194 I-0.0214 J0.0609
G3 X2.6514 Y0.8449 I-0.0377 J0.0424
G3 X2.6515 Y0.8466 I-0.0029 J0.0009
G3 X2.6356 Y0.8715 I-0.0491 J-0.0137
G1 X2.6216 Y0.8855
G1 Y0.9599
G1 Y1.0325
G1 X2.6785
G1 X2.7354
G1 Y1.0055
G1 Y0.9786
G1 X2.6885
G1 X2.6386
G3 X2.6356 Y0.9756 I0.0 J-0.003
G1 Y0.9456
G1 Y0.9157
G3 X2.6386 Y0.9127 I0.003 J0.0
G1 X2.6885
G1 X2.7354
G1 Y0.8657
G1 Y0.8158
G3 X2.7384 Y0.8128 I0.003 J0.0
G1 X2.7489
G1 X2.7594
G3 X2.7624 Y0.8157 I0.0 J0.003
G0 Z0.125
G0 X2.6214 Y0.8433
G0 Z0.0745
G1 F20.0 Z-0.003
G2 F40.0 X2.6086 Y0.8328 I-0.0128 J0.0025
G2 X2.5956 Y0.8458 I0.0 J0.013
G2 X2.6086 Y0.8588 I0.013 J0.0
G2 X2.6216 Y0.8458 I0.0 J-0.013
G2 X2.6214 Y0.8433 I-0.013 J0.0
G0 Z0.125
G0 X2.7175 Y1.1125
G0 Z0.0745
G1 F20.0 Z-0.003
G3 F40.0 X2.7185 Y1.1124 I0.001 J0.0028
G1 X2.9032
G1 X3.0879
G3 X3.0909 Y1.1154 I0.0 J0.003
G1 Y1.2602
G1 Y1.4049
G3 X3.0879 Y1.4079 I-0.003 J0.0
G1 X2.9032
G1 X2.7185
G3 X2.7155 Y1.4049 I0.0 J-0.003
G1 Y1.2602
G1 Y1.1154
G3 X2.7175 Y1.1125 I0.003 J0.0
G0 Z0.125
G0 X2.9353 Y1.0464
G0 Z0.0745
G1 F20.0 Z-0.003
G3 F40.0 X2.9351 Y1.0455 I0.0029 J-0.0009
G1 Y0.9307
G1 Y0.8158
G3 X2.9381 Y0.8128 I0.003 J0.0
G1 X2.9681
G1 X2.998
G3 X3.001 Y0.8158 I0.0 J0.003
G1 Y0.8657
G1 Y0.9127
G1 X3.008
G1 X3.015
G1 Y0.8657
G1 Y0.8158
G3 X3.018 Y0.8128 I0.003 J0.0
G1 X3.048
G1 X3.0779
G3 X3.0809 Y0.8158 I0.0 J0.003
G1 Y0.9014
G1 Y0.9858
G1 X3.095 Y0.9998
G3 X3.1107 Y1.0245 I-0.0464 J0.0469
G3 Y1.0265 I-0.0028 J0.001
G3 X3.0943 Y1.0518 I-0.0609 J-0.0214
G3 X3.0688 Y1.0683 I-0.0424 J-0.0377
G3 X3.0669 I-0.0009 J-0.0029
G3 X3.0416 Y1.0519 I0.0214 J-0.0609
G3 X3.0251 Y1.0264 I0.0376 J-0.0424
G3 Y1.0247 I0.0029 J-0.0009
G3 X3.0409 Y0.9998 I0.0492 J0.0137
G1 X3.0549 Y0.9858
G1 Y0.9114
G1 Y0.8388
G1 X3.0485
G1 X3.0419
G1 X3.039 Y0.8834
G1 X3.036 Y0.9308
G3 X3.033 Y0.9337 I-0.003 J-0.0002
G1 X3.008
G1 X2.9831
G3 X2.9801 Y0.9308 I0.0 J-0.003
G1 X2.977 Y0.8834
G1 X2.9742 Y0.8388
G1 X2.9675
G1 X2.9611
G1 Y0.9406
G1 Y1.0455
G3 X2.9581 Y1.0485 I-0.003 J0.0
G1 X2.9481
G1 X2.9381
G3 X2.9353 Y1.0464 I0.0 J-0.003
G0 Z0.125
G0 X3.0551 Y1.0275
G0 Z0.0745
G1 F20.0 Z-0.003
G2 F40.0 X3.0679 Y1.0385 I0.0129 J-0.002
G2 X3.0809 Y1.0255 I0.0 J-0.013
G2 X3.0679 Y1.0125 I-0.013 J0.0
G2 X3.0549 Y1.0255 I0.0 J0.013
G2 X3.0551 Y1.0275 I0.013 J0.0
G0 Z0.125
G0 Y0.7989
G0 Z0.0745
G1 F20.0 Z-0.003
G1 F40.0 X3.0086
G1 X2.9493
G3 X2.9467 Y0.7974 I0.0 J-0.003
G1 X2.9406 Y0.7874
G1 X2.9344 Y0.7775
G3 X2.937 Y0.7729 I0.0026 J-0.0016
G1 X2.9675
G1 X2.995
G1 Y0.726
G1 Y0.676
G3 X2.998 Y0.673 I0.003 J0.0
G1 X3.008
G1 X3.018
G3 X3.021 Y0.676 I0.0 J0.003
G1 Y0.726
G1 Y0.7729
G1 X3.043
G1 X3.0679
G3 X3.0709 Y0.7759 I0.0 J0.003
G1 Y0.7859
G1 Y0.7959
G3 X3.0679 Y0.7989 I-0.003 J0.0
G1 X3.0551
G0 Z0.125
G0 X2.9966 Y2.0694
G0 Z0.0745
G1 F20.0 Z-0.003
G3 F40.0 X2.9986 Y2.0703 I-0.0001 J0.003
G1 X3.0193 Y2.091
G3 X3.0408 Y2.1227 I-0.0618 J0.0648
G3 Y2.1248 I-0.0028 J0.0011
G3 X3.0193 Y2.1568 I-0.0716 J-0.0251
G1 X2.9986 Y2.1774
G3 X2.9953 Y2.1781 I-0.0021 J-0.0021
G1 X2.9787 Y2.1709
G2 X2.9481 Y2.1639 I-0.0392 J0.1014
G2 X2.9176 Y2.1709 I0.0032 J0.0839
G1 X2.9009 Y2.1781
G3 X2.8976 Y2.1774 I-0.0012 J-0.0028
G1 X2.8769 Y2.1567
G3 X2.8555 Y2.125 I0.0619 J-0.0649
G3 X2.8554 Y2.1229 I0.0028 J-0.0011
G3 X2.8769 Y2.0909 I0.0717 J0.0251
G1 X2.8976 Y2.0703
G3 X2.9009 Y2.0696 I0.0021 J0.0021
G1 X2.9176 Y2.0768
G2 X2.9482 Y2.0838 I0.0393 J-0.1016
G2 X2.9786 Y2.0768 I-0.0032 J-0.0841
G1 X2.9953 Y2.0696
G3 X2.9966 Y2.0694 I0.0012 J0.0028
G0 Z0.125
G0 X2.9965 Y2.349
G0 Z0.0745
G1 F20.0 Z-0.003
G3 F40.0 X2.9986 Y2.3498 I0.0 J0.003
G1 X3.0193 Y2.3705
G3 X3.0408 Y2.4023 I-0.0618 J0.0648
G3 Y2.4044 I-0.0028 J0.0011
G3 X3.0193 Y2.4363 I-0.0716 J-0.025
G1 X2.9986 Y2.457
G3 X2.9953 Y2.4576 I-0.0021 J-0.0021
G1 X2.9787 Y2.4505
G2 X2.9481 Y2.4435 I-0.0392 J0.1014
G2 X2.9176 Y2.4504 I0.0032 J0.0838
G1 X2.9009 Y2.4576
G3 X2.8976 Y2.457 I-0.0012 J-0.0028
G1 X2.8769 Y2.4363
G3 X2.8555 Y2.4045 I0.0619 J-0.0649
G3 X2.8554 Y2.4024 I0.0028 J-0.0011
G3 X2.8769 Y2.3705 I0.0717 J0.0251
G1 X2.8976 Y2.3498
G3 X2.9009 Y2.3492 I0.0021 J0.0021
G1 X2.9176 Y2.3564
G2 X2.9482 Y2.3634 I0.0393 J-0.1016
G2 X2.9786 Y2.3564 I-0.0032 J-0.0841
G1 X2.9953 Y2.3492
G3 X2.9965 Y2.349 I0.0012 J0.0028
G0 Z0.125
M5
M30
